; Generated with MatterSlice 1.0
; filamentDiameter = 1.75
; extrusionWidth = 0.5
; firstLayerExtrusionWidth = 0.5
; layerThickness = 0.2
; firstLayerThickness = 0.2
; automatic settings before start_gcode
G21 ; set units to millimeters
M107 ; fan off
M190 S70 ; wait for bed temperature to be reached
M104 T0 S200 ; start heating extruder 0
T0 ; set the active extruder to 0
; settings from start_gcode
G28 ; home all axes
G1 Z5 F5000 ; lift nozzle
; automatic settings after start_gcode
M109 T0 S190 ; wait for extruder 0 to reach temperature
T0 ; set the active extruder to 0
G90 ; use absolute coordinates
G92 E0 ; reset the expected extruder position
M82 ; use absolute distance for extrusion
; Layer count: 50
; LAYER:0
M106 S178
G0 F7200 X210.25 Y112.75 Z0
; TYPE:SKIRT
G1 F1800 E0
G1 F5040 X198.051 Y112.75 E0.48182
G1 X198.051 Y112.951 E0.48976
G1 X1.851 Y112.951 E8.23895
G1 X1.851 Y112.75 E8.24689
G1 X-10.249 Y112.75 E8.7248
G1 X-10.249 Y87.251 E9.73192
G1 X1.851 Y87.251 E10.20978
G1 X1.851 Y87.051 E10.21768
G1 X198.051 Y87.051 E17.96688
G1 X198.051 Y87.251 E17.97478
G1 X210.25 Y87.251 E18.45659
G1 X210.25 Y112.75 E19.46371
G0 F7200 X187.06 Y101.999
; TYPE:SUPPORT
G1 F5040 X12.94 Y102 E26.34083
G0 F7200 X12.94 Y100
G1 F5040 X187.06 Y99.999 E33.21794
G0 F7200 X187.06 Y97.999
G1 F5040 X12.94 Y98 E40.09506
G0 F7200 X12.251 Y97.751
; TYPE:WALL-OUTER
G1 F5040 X12.251 Y102.25 E40.27275
G1 X0.251 Y102.25 E40.74671
G1 X0.251 Y97.751 E40.9244
G1 X11.801 Y97.751 E41.38059
G0 F7200 X11.751 Y98.251
; TYPE:WALL-INNER
G1 F5040 X11.751 Y101.75 E41.51878
G1 X0.751 Y101.75 E41.95325
G1 X0.751 Y98.251 E42.09144
G1 X11.301 Y98.251 E42.50813
G0 F7200 X11.561 Y98.535
; TYPE:FILL
G1 F5040 X11.466 Y98.44 E42.51344
G0 F7200 X10.759 Y98.44
G1 F5040 X11.561 Y99.242 E42.55823
G0 F7200 X11.561 Y99.949
G1 F5040 X10.052 Y98.44 E42.64252
G0 F7200 X9.345 Y98.44
G1 F5040 X11.561 Y100.656 E42.7663
G0 F7200 X11.561 Y101.363
G1 F5040 X8.638 Y98.44 E42.92957
G0 F7200 X7.93 Y98.44
G1 F5040 X11.049 Y101.558 E43.10375
G0 F7200 X10.342 Y101.558
G1 F5040 X7.223 Y98.44 E43.27794
G0 F7200 X6.516 Y98.44
G1 F5040 X9.635 Y101.558 E43.45213
G0 F7200 X8.927 Y101.558
G1 F5040 X5.808 Y98.439 E43.62635
G0 F7200 X5.101 Y98.439
G1 F5040 X8.22 Y101.558 E43.80056
G0 F7200 X7.513 Y101.558
G1 F5040 X4.394 Y98.439 E43.97478
G0 F7200 X3.687 Y98.439
G1 F5040 X6.806 Y101.558 E44.14899
G0 F7200 X6.1 Y101.559
G1 F5040 X2.98 Y98.439 E44.32327
G0 F7200 X2.273 Y98.439
G1 F5040 X5.393 Y101.559 E44.49754
G0 F7200 X4.685 Y101.559
G1 F5040 X1.566 Y98.439 E44.67178
G0 F7200 X0.941 Y98.521
G1 F5040 X3.978 Y101.559 E44.84145
G0 F7200 X3.271 Y101.559
G1 F5040 X0.941 Y99.229 E44.97159
G0 F7200 X0.941 Y99.936
G1 F5040 X2.564 Y101.559 E45.06225
G0 F7200 X1.857 Y101.559
G1 F5040 X0.941 Y100.643 E45.11341
G0 F7200 X0.941 Y101.35
G1 F5040 X1.15 Y101.559 E45.12508
G1 F1800 E44.12508
G0 F7200 X187.75 Y102.25
; TYPE:WALL-OUTER
G1 F1800 E45.12508
G1 F5040 X187.75 Y97.751 E45.30278
G1 X199.75 Y97.751 E45.77674
G1 X199.75 Y102.25 E45.95443
G1 X188.2 Y102.25 E46.41061
G0 F7200 X188.25 Y101.75
; TYPE:WALL-INNER
G1 F5040 X188.25 Y98.251 E46.54881
G1 X199.25 Y98.251 E46.98327
G1 X199.25 Y101.75 E47.12147
G1 X188.7 Y101.75 E47.53816
G0 F7200 X188.533 Y101.559
; TYPE:FILL
G1 F5040 X188.439 Y101.464 E47.54344
G0 F7200 X188.439 Y100.757
G1 F5040 X189.24 Y101.559 E47.5882
G0 F7200 X189.947 Y101.559
G1 F5040 X188.439 Y100.05 E47.67246
G0 F7200 X188.439 Y99.343
G1 F5040 X190.655 Y101.559 E47.79624
G0 F7200 X191.362 Y101.559
G1 F5040 X188.439 Y98.636 E47.95951
G0 F7200 X188.95 Y98.441
G1 F5040 X192.069 Y101.559 E48.1337
G0 F7200 X192.776 Y101.559
G1 F5040 X189.658 Y98.441 E48.30786
G0 F7200 X190.365 Y98.441
G1 F5040 X193.483 Y101.559 E48.48202
G0 F7200 X194.191 Y101.56
G1 F5040 X191.072 Y98.441 E48.65623
G0 F7200 X191.779 Y98.441
G1 F5040 X194.898 Y101.56 E48.83045
G0 F7200 X195.605 Y101.56
G1 F5040 X192.486 Y98.441 E49.00467
G0 F7200 X193.193 Y98.441
G1 F5040 X196.312 Y101.56 E49.17888
G0 F7200 X197.019 Y101.56
G1 F5040 X193.899 Y98.44 E49.35315
G0 F7200 X194.607 Y98.44
G1 F5040 X197.726 Y101.56 E49.5274
G0 F7200 X198.433 Y101.56
G1 F5040 X195.314 Y98.44 E49.70164
G0 F7200 X196.021 Y98.44
G1 F5040 X199.059 Y101.478 E49.87133
G0 F7200 X199.059 Y100.771
G1 F5040 X196.728 Y98.44 E50.00153
G0 F7200 X197.435 Y98.44
G1 F5040 X199.059 Y100.064 E50.09225
G0 F7200 X199.059 Y99.356
G1 F5040 X198.142 Y98.44 E50.14344
G0 F7200 X198.849 Y98.44
G1 F5040 X199.059 Y98.649 E50.15514
; LAYER:1
G0 F7200 X187.06 Y97.999 Z0.2
; TYPE:SUPPORT
G1 F3600 X12.94 Y98 E57.03225
G0 F7200 X12.94 Y100
G1 F3600 X187.06 Y99.999 E63.90937
G0 F7200 X187.06 Y101.999
G1 F3600 X12.94 Y102 E70.78648
G1 F1800 E69.78648
G0 F7200 X11.751 Y101.75
; TYPE:WALL-INNER
G1 F1800 E70.78648
G1 F7200 X0.751 Y101.75 E71.22094
G1 X0.751 Y98.251 E71.35914
G1 X11.751 Y98.251 E71.7936
G1 X11.751 Y101.3 E71.91403
G0 X12.251 Y102.25
; TYPE:WALL-OUTER
G1 F5040 X0.251 Y102.25 E72.38798
G1 X0.251 Y97.751 E72.56568
G1 X12.251 Y97.751 E73.03964
G1 X12.251 Y101.8 E73.19956
G0 F7200 X10.871 Y101.558
; TYPE:FILL
G1 X11.561 Y100.868 E73.2381
G0 X11.561 Y100.161
G1 X10.163 Y101.558 E73.31616
G0 X9.456 Y101.558
G1 X11.561 Y99.454 E73.43371
G0 X11.561 Y98.747
G1 X8.749 Y101.558 E73.59075
G0 X8.042 Y101.558
G1 X11.16 Y98.44 E73.76491
G0 X10.453 Y98.44
G1 X7.335 Y101.558 E73.93907
G0 X6.628 Y101.558
G1 X9.746 Y98.44 E74.11323
G0 X9.039 Y98.44
G1 X5.92 Y101.559 E74.28744
G0 X5.213 Y101.559
G1 X8.332 Y98.44 E74.46166
G0 X7.625 Y98.44
G1 X4.506 Y101.559 E74.63588
G0 X3.799 Y101.559
G1 X6.918 Y98.44 E74.81009
G0 X6.211 Y98.439
G1 X3.092 Y101.559 E74.98434
G0 X2.385 Y101.559
G1 X5.504 Y98.439 E75.15858
G0 X4.797 Y98.439
G1 X1.677 Y101.559 E75.33285
G0 X0.97 Y101.559
G1 X4.09 Y98.439 E75.50712
G0 X3.383 Y98.439
G1 X0.941 Y100.882 E75.64355
G0 X0.941 Y100.175
G1 X2.676 Y98.439 E75.74049
G0 X1.969 Y98.439
G1 X0.941 Y99.468 E75.79794
G0 X0.941 Y98.76
G1 X1.262 Y98.439 E75.81587
G1 F1800 E74.81587
G0 F7200 X188.25 Y98.251
; TYPE:WALL-INNER
G1 F1800 E75.81587
G1 F7200 X199.25 Y98.251 E76.25033
G1 X199.25 Y101.75 E76.38853
G1 X188.25 Y101.75 E76.82299
G1 X188.25 Y98.701 E76.94341
G0 X187.75 Y97.751
; TYPE:WALL-OUTER
G1 F5040 X199.75 Y97.751 E77.41737
G1 X199.75 Y102.25 E77.59506
G1 X187.75 Y102.25 E78.06902
G1 X187.75 Y98.201 E78.22894
G0 F7200 X188.644 Y98.441
; TYPE:FILL
G1 X188.439 Y98.646 E78.24039
G0 X188.439 Y99.353
G1 X189.351 Y98.441 E78.29133
G0 X190.058 Y98.441
G1 X188.439 Y100.06 E78.38176
G0 X188.439 Y100.767
G1 X190.765 Y98.441 E78.51169
G0 X191.472 Y98.441
G1 X188.439 Y101.474 E78.6811
G0 X189.061 Y101.559
G1 X192.179 Y98.441 E78.85526
G0 X192.886 Y98.441
G1 X189.768 Y101.559 E79.02942
G0 X190.475 Y101.559
G1 X193.593 Y98.441 E79.20358
G0 X194.301 Y98.44
G1 X191.182 Y101.559 E79.3778
G0 X191.889 Y101.559
G1 X195.008 Y98.44 E79.55201
G0 X195.715 Y98.44
G1 X192.596 Y101.559 E79.72623
G0 X193.303 Y101.559
G1 X196.422 Y98.44 E79.90044
G0 X197.13 Y98.44
G1 X194.01 Y101.56 E80.07471
G0 X194.717 Y101.56
G1 X197.837 Y98.44 E80.24899
G0 X198.544 Y98.44
G1 X195.424 Y101.56 E80.42326
G0 X196.131 Y101.56
G1 X199.059 Y98.632 E80.58681
G0 X199.059 Y99.34
G1 X196.838 Y101.56 E80.71084
G0 X197.545 Y101.56
G1 X199.059 Y100.047 E80.79537
G0 X199.059 Y100.754
G1 X198.252 Y101.56 E80.84042
G0 X198.96 Y101.56
G1 X199.059 Y101.461 E80.84595
; LAYER:2
G0 X187.06 Y101.999 Z0.4
; TYPE:SUPPORT
G1 F3600 X12.94 Y102 E87.72307
G0 F7200 X12.94 Y100
G1 F3600 X187.06 Y99.999 E94.60018
G0 F7200 X187.06 Y97.999
G1 F3600 X12.94 Y98 E101.4773
G1 F1800 E100.4773
G0 F7200 X11.751 Y98.251
; TYPE:WALL-INNER
G1 F1800 E101.4773
G1 F7200 X11.751 Y101.75 E101.61549
G1 X0.751 Y101.75 E102.04995
G1 X0.751 Y98.251 E102.18815
G1 X11.301 Y98.251 E102.60484
G0 X12.251 Y97.751
; TYPE:WALL-OUTER
G1 F5040 X12.251 Y102.25 E102.78253
G1 X0.251 Y102.25 E103.25649
G1 X0.251 Y97.751 E103.43419
G1 X11.801 Y97.751 E103.89037
G0 F7200 X11.561 Y98.535
; TYPE:FILL
G1 X11.466 Y98.44 E103.89568
G0 X10.759 Y98.44
G1 X11.561 Y99.242 E103.94047
G0 X11.561 Y99.949
G1 X10.052 Y98.44 E104.02476
G0 X9.345 Y98.44
G1 X11.561 Y100.656 E104.14854
G0 X11.561 Y101.363
G1 X8.638 Y98.44 E104.31181
G0 X7.93 Y98.44
G1 X11.049 Y101.558 E104.48599
G0 X10.342 Y101.558
G1 X7.223 Y98.44 E104.66018
G0 X6.516 Y98.44
G1 X9.635 Y101.558 E104.83437
G0 X8.927 Y101.558
G1 X5.808 Y98.439 E105.00859
G0 X5.101 Y98.439
G1 X8.22 Y101.558 E105.1828
G0 X7.513 Y101.558
G1 X4.394 Y98.439 E105.35702
G0 X3.687 Y98.439
G1 X6.806 Y101.558 E105.53123
G0 X6.1 Y101.559
G1 X2.98 Y98.439 E105.70551
G0 X2.273 Y98.439
G1 X5.393 Y101.559 E105.87978
G0 X4.685 Y101.559
G1 X1.566 Y98.439 E106.05402
G0 X0.941 Y98.521
G1 X3.978 Y101.559 E106.22368
G0 X3.271 Y101.559
G1 X0.941 Y99.229 E106.35383
G0 X0.941 Y99.936
G1 X2.564 Y101.559 E106.44449
G0 X1.857 Y101.559
G1 X0.941 Y100.643 E106.49565
G0 X0.941 Y101.35
G1 X1.15 Y101.559 E106.50732
G1 F1800 E105.50732
G0 F7200 X188.25 Y101.75
; TYPE:WALL-INNER
G1 F1800 E106.50732
G1 F7200 X188.25 Y98.251 E106.64552
G1 X199.25 Y98.251 E107.07998
G1 X199.25 Y101.75 E107.21818
G1 X188.7 Y101.75 E107.63487
G0 X187.75 Y102.25
; TYPE:WALL-OUTER
G1 F5040 X187.75 Y97.751 E107.81256
G1 X199.75 Y97.751 E108.28652
G1 X199.75 Y102.25 E108.46421
G1 X188.2 Y102.25 E108.9204
G0 F7200 X188.533 Y101.559
; TYPE:FILL
G1 X188.439 Y101.464 E108.92567
G0 X188.439 Y100.757
G1 X189.24 Y101.559 E108.97044
G0 X189.947 Y101.559
G1 X188.439 Y100.05 E109.0547
G0 X188.439 Y99.343
G1 X190.655 Y101.559 E109.17848
G0 X191.362 Y101.559
G1 X188.439 Y98.636 E109.34175
G0 X188.95 Y98.441
G1 X192.069 Y101.559 E109.51594
G0 X192.776 Y101.559
G1 X189.658 Y98.441 E109.6901
G0 X190.365 Y98.441
G1 X193.483 Y101.559 E109.86426
G0 X194.191 Y101.56
G1 X191.072 Y98.441 E110.03847
G0 X191.779 Y98.441
G1 X194.898 Y101.56 E110.21269
G0 X195.605 Y101.56
G1 X192.486 Y98.441 E110.3869
G0 X193.193 Y98.441
G1 X196.312 Y101.56 E110.56112
G0 X197.019 Y101.56
G1 X193.899 Y98.44 E110.73539
G0 X194.607 Y98.44
G1 X197.726 Y101.56 E110.90964
G0 X198.433 Y101.56
G1 X195.314 Y98.44 E111.08388
G0 X196.021 Y98.44
G1 X199.059 Y101.478 E111.25357
G0 X199.059 Y100.771
G1 X196.728 Y98.44 E111.38377
G0 X197.435 Y98.44
G1 X199.059 Y100.064 E111.47448
G0 X199.059 Y99.356
G1 X198.142 Y98.44 E111.52568
G0 X198.849 Y98.44
G1 X199.059 Y98.649 E111.53738
; LAYER:3
G0 X187.06 Y97.999 Z0.6
; TYPE:SUPPORT
G1 F3600 X12.94 Y98 E118.41449
G0 F7200 X12.94 Y100
G1 F3600 X187.06 Y99.999 E125.29161
G0 F7200 X187.06 Y101.999
G1 F3600 X12.94 Y102 E132.16872
G1 F1800 E131.16872
G0 F7200 X11.751 Y101.75
; TYPE:WALL-INNER
G1 F1800 E132.16872
G1 F7200 X0.751 Y101.75 E132.60318
G1 X0.751 Y98.251 E132.74138
G1 X11.751 Y98.251 E133.17584
G1 X11.751 Y101.3 E133.29627
G0 X12.251 Y102.25
; TYPE:WALL-OUTER
G1 F5040 X0.251 Y102.25 E133.77022
G1 X0.251 Y97.751 E133.94792
G1 X12.251 Y97.751 E134.42188
G1 X12.251 Y101.8 E134.5818
G0 F7200 X10.871 Y101.558
; TYPE:FILL
G1 X11.561 Y100.868 E134.62034
G0 X11.561 Y100.161
G1 X10.163 Y101.558 E134.6984
G0 X9.456 Y101.558
G1 X11.561 Y99.454 E134.81595
G0 X11.561 Y98.747
G1 X8.749 Y101.558 E134.97299
G0 X8.042 Y101.558
G1 X11.16 Y98.44 E135.14715
G0 X10.453 Y98.44
G1 X7.335 Y101.558 E135.32131
G0 X6.628 Y101.558
G1 X9.746 Y98.44 E135.49547
G0 X9.039 Y98.44
G1 X5.92 Y101.559 E135.66968
G0 X5.213 Y101.559
G1 X8.332 Y98.44 E135.8439
G0 X7.625 Y98.44
G1 X4.506 Y101.559 E136.01811
G0 X3.799 Y101.559
G1 X6.918 Y98.44 E136.19233
G0 X6.211 Y98.439
G1 X3.092 Y101.559 E136.36657
G0 X2.385 Y101.559
G1 X5.504 Y98.439 E136.54082
G0 X4.797 Y98.439
G1 X1.677 Y101.559 E136.71509
G0 X0.97 Y101.559
G1 X4.09 Y98.439 E136.88936
G0 X3.383 Y98.439
G1 X0.941 Y100.882 E137.02579
G0 X0.941 Y100.175
G1 X2.676 Y98.439 E137.12273
G0 X1.969 Y98.439
G1 X0.941 Y99.468 E137.18018
G0 X0.941 Y98.76
G1 X1.262 Y98.439 E137.19811
G1 F1800 E136.19811
G0 F7200 X188.25 Y98.251
; TYPE:WALL-INNER
G1 F1800 E137.19811
G1 F7200 X199.25 Y98.251 E137.63257
G1 X199.25 Y101.75 E137.77077
G1 X188.25 Y101.75 E138.20523
G1 X188.25 Y98.701 E138.32565
G0 X187.75 Y97.751
; TYPE:WALL-OUTER
G1 F5040 X199.75 Y97.751 E138.79961
G1 X199.75 Y102.25 E138.9773
G1 X187.75 Y102.25 E139.45126
G1 X187.75 Y98.201 E139.61118
G0 F7200 X188.644 Y98.441
; TYPE:FILL
G1 X188.439 Y98.646 E139.62263
G0 X188.439 Y99.353
G1 X189.351 Y98.441 E139.67357
G0 X190.058 Y98.441
G1 X188.439 Y100.06 E139.764
G0 X188.439 Y100.767
G1 X190.765 Y98.441 E139.89393
G0 X191.472 Y98.441
G1 X188.439 Y101.474 E140.06334
G0 X189.061 Y101.559
G1 X192.179 Y98.441 E140.2375
G0 X192.886 Y98.441
G1 X189.768 Y101.559 E140.41166
G0 X190.475 Y101.559
G1 X193.593 Y98.441 E140.58582
G0 X194.301 Y98.44
G1 X191.182 Y101.559 E140.76003
G0 X191.889 Y101.559
G1 X195.008 Y98.44 E140.93425
G0 X195.715 Y98.44
G1 X192.596 Y101.559 E141.10847
G0 X193.303 Y101.559
G1 X196.422 Y98.44 E141.28268
G0 X197.13 Y98.44
G1 X194.01 Y101.56 E141.45695
G0 X194.717 Y101.56
G1 X197.837 Y98.44 E141.63123
G0 X198.544 Y98.44
G1 X195.424 Y101.56 E141.8055
G0 X196.131 Y101.56
G1 X199.059 Y98.632 E141.96905
G0 X199.059 Y99.34
G1 X196.838 Y101.56 E142.09307
G0 X197.545 Y101.56
G1 X199.059 Y100.047 E142.17761
G0 X199.059 Y100.754
G1 X198.252 Y101.56 E142.22266
G0 X198.96 Y101.56
G1 X199.059 Y101.461 E142.22819
; LAYER:4
G0 X187.06 Y101.999 Z0.8
; TYPE:SUPPORT
G1 F3600 X12.94 Y102 E149.10531
G0 F7200 X12.94 Y100
G1 F3600 X187.06 Y99.999 E155.98242
G0 F7200 X187.06 Y97.999
G1 F3600 X12.94 Y98 E162.85954
G1 F1800 E161.85954
G0 F7200 X11.751 Y98.251
; TYPE:WALL-INNER
G1 F1800 E162.85954
G1 F7200 X11.751 Y101.75 E162.99773
G1 X0.751 Y101.75 E163.43219
G1 X0.751 Y98.251 E163.57039
G1 X11.301 Y98.251 E163.98708
G0 X12.251 Y97.751
; TYPE:WALL-OUTER
G1 F5040 X12.251 Y102.25 E164.16477
G1 X0.251 Y102.25 E164.63873
G1 X0.251 Y97.751 E164.81642
G1 X11.801 Y97.751 E165.27261
G0 F7200 X11.561 Y98.535
; TYPE:FILL
G1 X11.466 Y98.44 E165.27791
G0 X10.759 Y98.44
G1 X11.561 Y99.242 E165.32271
G0 X11.561 Y99.949
G1 X10.052 Y98.44 E165.407
G0 X9.345 Y98.44
G1 X11.561 Y100.656 E165.53078
G0 X11.561 Y101.363
G1 X8.638 Y98.44 E165.69404
G0 X7.93 Y98.44
G1 X11.049 Y101.558 E165.86823
G0 X10.342 Y101.558
G1 X7.223 Y98.44 E166.04242
G0 X6.516 Y98.44
G1 X9.635 Y101.558 E166.21661
G0 X8.927 Y101.558
G1 X5.808 Y98.439 E166.39082
G0 X5.101 Y98.439
G1 X8.22 Y101.558 E166.56504
G0 X7.513 Y101.558
G1 X4.394 Y98.439 E166.73926
G0 X3.687 Y98.439
G1 X6.806 Y101.558 E166.91347
G0 X6.1 Y101.559
G1 X2.98 Y98.439 E167.08774
G0 X2.273 Y98.439
G1 X5.393 Y101.559 E167.26202
G0 X4.685 Y101.559
G1 X1.566 Y98.439 E167.43626
G0 X0.941 Y98.521
G1 X3.978 Y101.559 E167.60592
G0 X3.271 Y101.559
G1 X0.941 Y99.229 E167.73607
G0 X0.941 Y99.936
G1 X2.564 Y101.559 E167.82672
G0 X1.857 Y101.559
G1 X0.941 Y100.643 E167.87789
G0 X0.941 Y101.35
G1 X1.15 Y101.559 E167.88956
G1 F1800 E166.88956
G0 F7200 X188.25 Y101.75
; TYPE:WALL-INNER
G1 F1800 E167.88956
G1 F7200 X188.25 Y98.251 E168.02776
G1 X199.25 Y98.251 E168.46222
G1 X199.25 Y101.75 E168.60042
G1 X188.7 Y101.75 E169.01711
G0 X187.75 Y102.25
; TYPE:WALL-OUTER
G1 F5040 X187.75 Y97.751 E169.1948
G1 X199.75 Y97.751 E169.66876
G1 X199.75 Y102.25 E169.84645
G1 X188.2 Y102.25 E170.30264
G0 F7200 X188.533 Y101.559
; TYPE:FILL
G1 X188.439 Y101.464 E170.30791
G0 X188.439 Y100.757
G1 X189.24 Y101.559 E170.35268
G0 X189.947 Y101.559
G1 X188.439 Y100.05 E170.43694
G0 X188.439 Y99.343
G1 X190.655 Y101.559 E170.56072
G0 X191.362 Y101.559
G1 X188.439 Y98.636 E170.72399
G0 X188.95 Y98.441
G1 X192.069 Y101.559 E170.89818
G0 X192.776 Y101.559
G1 X189.658 Y98.441 E171.07234
G0 X190.365 Y98.441
G1 X193.483 Y101.559 E171.2465
G0 X194.191 Y101.56
G1 X191.072 Y98.441 E171.42071
G0 X191.779 Y98.441
G1 X194.898 Y101.56 E171.59493
G0 X195.605 Y101.56
G1 X192.486 Y98.441 E171.76914
G0 X193.193 Y98.441
G1 X196.312 Y101.56 E171.94336
G0 X197.019 Y101.56
G1 X193.899 Y98.44 E172.11763
G0 X194.607 Y98.44
G1 X197.726 Y101.56 E172.29188
G0 X198.433 Y101.56
G1 X195.314 Y98.44 E172.46612
G0 X196.021 Y98.44
G1 X199.059 Y101.478 E172.63581
G0 X199.059 Y100.771
G1 X196.728 Y98.44 E172.76601
G0 X197.435 Y98.44
G1 X199.059 Y100.064 E172.85672
G0 X199.059 Y99.356
G1 X198.142 Y98.44 E172.90792
G0 X198.849 Y98.44
G1 X199.059 Y98.649 E172.91962
; LAYER:5
G0 X187.06 Y97.999 Z1
; TYPE:SUPPORT
G1 F3600 X12.94 Y98 E179.79673
G0 F7200 X12.94 Y100
G1 F3600 X187.06 Y99.999 E186.67385
G0 F7200 X187.06 Y101.999
G1 F3600 X12.94 Y102 E193.55096
G1 F1800 E192.55096
G0 F7200 X11.751 Y101.75
; TYPE:WALL-INNER
G1 F1800 E193.55096
G1 F7200 X0.751 Y101.75 E193.98542
G1 X0.751 Y98.251 E194.12362
G1 X11.751 Y98.251 E194.55808
G1 X11.751 Y101.3 E194.67851
G0 X12.251 Y102.25
; TYPE:WALL-OUTER
G1 F5040 X0.251 Y102.25 E195.15246
G1 X0.251 Y97.751 E195.33016
G1 X12.251 Y97.751 E195.80411
G1 X12.251 Y101.8 E195.96404
G0 F7200 X11.561 Y100.429
; TYPE:FILL
G1 X7.346 Y101.559 E196.13639
G0 X9.021 Y101.559
G1 X9.857 Y98.44 E196.26393
G0 X9.635 Y101.558
G1 X6.516 Y98.44 E196.43812
G0 X4.681 Y98.44
G1 X3.845 Y101.558 E196.56562
G1 F1800 E195.56562
G0 F7200 X188.25 Y101.75
; TYPE:WALL-INNER
G1 F1800 E196.56562
G1 F7200 X188.25 Y98.251 E196.70381
G1 X199.25 Y98.251 E197.13827
G1 X199.25 Y101.75 E197.27647
G1 X188.7 Y101.75 E197.69316
G0 X187.75 Y102.25
; TYPE:WALL-OUTER
G1 F5040 X187.75 Y97.751 E197.87085
G1 X199.75 Y97.751 E198.34481
G1 X199.75 Y102.25 E198.52251
G1 X188.2 Y102.25 E198.97869
G0 F7200 X190.195 Y101.558
; TYPE:FILL
G1 X191.031 Y98.439 E199.10623
G0 X190.365 Y98.441
G1 X193.483 Y101.559 E199.28039
G0 X195.371 Y101.559
G1 X196.207 Y98.44 E199.40792
G0 X197.435 Y98.44
G1 X199.059 Y100.064 E199.49864
G0 X192.85 Y98.44
G1 X188.439 Y99.622 E199.679
; LAYER:6
G0 X187.06 Y99.999 Z1.2
; TYPE:SUPPORT
G1 F3600 X12.94 Y100 E206.55612
G0 F7200 X12.94 Y98
G1 F3600 X187.06 Y97.999 E213.43323
G0 F7200 X187.06 Y101.999
G1 F3600 X12.94 Y102 E220.31035
G1 F1800 E219.31035
G0 F7200 X11.751 Y101.75
; TYPE:WALL-INNER
G1 F1800 E220.31035
G1 F7200 X0.751 Y101.75 E220.74481
G1 X0.751 Y98.251 E220.883
G1 X11.751 Y98.251 E221.31746
G1 X11.751 Y101.3 E221.43789
G0 X12.251 Y102.25
; TYPE:WALL-OUTER
G1 F5040 X0.251 Y102.25 E221.91185
G1 X0.251 Y97.751 E222.08954
G1 X12.251 Y97.751 E222.5635
G1 X12.251 Y101.8 E222.72342
G0 F7200 X11.561 Y100.429
; TYPE:FILL
G1 X7.346 Y101.559 E222.89577
G0 X9.021 Y101.559
G1 X9.857 Y98.44 E223.02331
G0 X9.635 Y101.558
G1 X6.516 Y98.44 E223.1975
G0 X4.681 Y98.44
G1 X3.845 Y101.558 E223.325
G1 F1800 E222.325
G0 F7200 X188.25 Y101.75
; TYPE:WALL-INNER
G1 F1800 E223.325
G1 F7200 X188.25 Y98.251 E223.4632
G1 X199.25 Y98.251 E223.89766
G1 X199.25 Y101.75 E224.03586
G1 X188.7 Y101.75 E224.45254
G0 X187.75 Y102.25
; TYPE:WALL-OUTER
G1 F5040 X187.75 Y97.751 E224.63024
G1 X199.75 Y97.751 E225.10419
G1 X199.75 Y102.25 E225.28189
G1 X188.2 Y102.25 E225.73807
G0 F7200 X190.195 Y101.558
; TYPE:FILL
G1 X191.031 Y98.439 E225.86561
G0 X190.365 Y98.441
G1 X193.483 Y101.559 E226.03977
G0 X195.371 Y101.559
G1 X196.207 Y98.44 E226.16731
G0 X197.435 Y98.44
G1 X199.059 Y100.064 E226.25802
G0 X192.85 Y98.44
G1 X188.439 Y99.622 E226.43838
; LAYER:7
G0 X187.06 Y99.999 Z1.4
; TYPE:SUPPORT
G1 F3600 X12.94 Y100 E233.3155
G0 F7200 X12.94 Y98
G1 F3600 X187.06 Y97.999 E240.19261
G0 F7200 X187.06 Y101.999
G1 F3600 X12.94 Y102 E247.06973
G1 F1800 E246.06973
G0 F7200 X11.751 Y101.75
; TYPE:WALL-INNER
G1 F1800 E247.06973
G1 F7200 X0.751 Y101.75 E247.50419
G1 X0.751 Y98.251 E247.64239
G1 X11.751 Y98.251 E248.07685
G1 X11.751 Y101.3 E248.19727
G0 X12.251 Y102.25
; TYPE:WALL-OUTER
G1 F5040 X0.251 Y102.25 E248.67123
G1 X0.251 Y97.751 E248.84892
G1 X12.251 Y97.751 E249.32288
G1 X12.251 Y101.8 E249.4828
G0 F7200 X11.561 Y100.429
; TYPE:FILL
G1 X7.346 Y101.559 E249.65516
G0 X9.021 Y101.559
G1 X9.857 Y98.44 E249.7827
G0 X9.635 Y101.558
G1 X6.516 Y98.44 E249.95688
G0 X4.681 Y98.44
G1 X3.845 Y101.558 E250.08438
G1 F1800 E249.08438
G0 F7200 X188.25 Y101.75
; TYPE:WALL-INNER
G1 F1800 E250.08438
G1 F7200 X188.25 Y98.251 E250.22258
G1 X199.25 Y98.251 E250.65704
G1 X199.25 Y101.75 E250.79524
G1 X188.7 Y101.75 E251.21193
G0 X187.75 Y102.25
; TYPE:WALL-OUTER
G1 F5040 X187.75 Y97.751 E251.38962
G1 X199.75 Y97.751 E251.86358
G1 X199.75 Y102.25 E252.04127
G1 X188.2 Y102.25 E252.49746
G0 F7200 X190.195 Y101.558
; TYPE:FILL
G1 X191.031 Y98.439 E252.62499
G0 X190.365 Y98.441
G1 X193.483 Y101.559 E252.79915
G0 X195.371 Y101.559
G1 X196.207 Y98.44 E252.92669
G0 X197.435 Y98.44
G1 X199.059 Y100.064 E253.0174
G0 X192.85 Y98.44
G1 X188.439 Y99.622 E253.19777
; LAYER:8
G0 X187.06 Y99.999 Z1.6
; TYPE:SUPPORT
G1 F3600 X12.94 Y100 E260.07488
G0 F7200 X12.94 Y98
G1 F3600 X187.06 Y97.999 E266.952
G0 F7200 X187.06 Y101.999
G1 F3600 X12.94 Y102 E273.82911
G1 F1800 E272.82911
G0 F7200 X11.751 Y101.75
; TYPE:WALL-INNER
G1 F1800 E273.82911
G1 F7200 X0.751 Y101.75 E274.26357
G1 X0.751 Y98.251 E274.40177
G1 X11.751 Y98.251 E274.83623
G1 X11.751 Y101.3 E274.95666
G0 X12.251 Y102.25
; TYPE:WALL-OUTER
G1 F5040 X0.251 Y102.25 E275.43061
G1 X0.251 Y97.751 E275.60831
G1 X12.251 Y97.751 E276.08226
G1 X12.251 Y101.8 E276.24218
G0 F7200 X11.561 Y100.429
; TYPE:FILL
G1 X7.346 Y101.559 E276.41454
G0 X9.021 Y101.559
G1 X9.857 Y98.44 E276.54208
G0 X9.635 Y101.558
G1 X6.516 Y98.44 E276.71627
G0 X4.681 Y98.44
G1 X3.845 Y101.558 E276.84377
G1 F1800 E275.84377
G0 F7200 X188.25 Y101.75
; TYPE:WALL-INNER
G1 F1800 E276.84377
G1 F7200 X188.25 Y98.251 E276.98196
G1 X199.25 Y98.251 E277.41642
G1 X199.25 Y101.75 E277.55462
G1 X188.7 Y101.75 E277.97131
G0 X187.75 Y102.25
; TYPE:WALL-OUTER
G1 F5040 X187.75 Y97.751 E278.149
G1 X199.75 Y97.751 E278.62296
G1 X199.75 Y102.25 E278.80065
G1 X188.2 Y102.25 E279.25684
G0 F7200 X190.195 Y101.558
; TYPE:FILL
G1 X191.031 Y98.439 E279.38438
G0 X190.365 Y98.441
G1 X193.483 Y101.559 E279.55854
G0 X195.371 Y101.559
G1 X196.207 Y98.44 E279.68607
G0 X197.435 Y98.44
G1 X199.059 Y100.064 E279.77678
G0 X192.85 Y98.44
G1 X188.439 Y99.622 E279.95715
; LAYER:9
G0 X187.06 Y99.999 Z1.8
; TYPE:SUPPORT
G1 F3600 X12.94 Y100 E286.83426
G0 F7200 X12.94 Y98
G1 F3600 X187.06 Y97.999 E293.71138
G0 F7200 X187.06 Y101.999
G1 F3600 X12.94 Y102 E300.58849
G1 F1800 E299.58849
G0 F7200 X11.751 Y101.75
; TYPE:WALL-INNER
G1 F1800 E300.58849
G1 F7200 X0.751 Y101.75 E301.02296
G1 X0.751 Y98.251 E301.16115
G1 X11.751 Y98.251 E301.59561
G1 X11.751 Y101.3 E301.71604
G0 X12.251 Y102.25
; TYPE:WALL-OUTER
G1 F5040 X0.251 Y102.25 E302.19
G1 X0.251 Y97.751 E302.36769
G1 X12.251 Y97.751 E302.84165
G1 X12.251 Y101.8 E303.00157
G0 F7200 X11.561 Y100.429
; TYPE:FILL
G1 X7.346 Y101.559 E303.17392
G0 X9.021 Y101.559
G1 X9.857 Y98.44 E303.30146
G0 X9.635 Y101.558
G1 X6.516 Y98.44 E303.47565
G0 X4.681 Y98.44
G1 X3.845 Y101.558 E303.60315
G1 F1800 E302.60315
G0 F7200 X188.25 Y101.75
; TYPE:WALL-INNER
G1 F1800 E303.60315
G1 F7200 X188.25 Y98.251 E303.74135
G1 X199.25 Y98.251 E304.17581
G1 X199.25 Y101.75 E304.31401
G1 X188.7 Y101.75 E304.73069
G0 X187.75 Y102.25
; TYPE:WALL-OUTER
G1 F5040 X187.75 Y97.751 E304.90839
G1 X199.75 Y97.751 E305.38234
G1 X199.75 Y102.25 E305.56004
G1 X188.2 Y102.25 E306.01622
G0 F7200 X190.195 Y101.558
; TYPE:FILL
G1 X191.031 Y98.439 E306.14376
G0 X190.365 Y98.441
G1 X193.483 Y101.559 E306.31792
G0 X195.371 Y101.559
G1 X196.207 Y98.44 E306.44546
G0 X197.435 Y98.44
G1 X199.059 Y100.064 E306.53617
G0 X192.85 Y98.44
G1 X188.439 Y99.622 E306.71653
; LAYER:10
G0 X187.06 Y99.999 Z2
; TYPE:SUPPORT
G1 F3600 X12.94 Y100 E313.59365
G0 F7200 X12.94 Y98
G1 F3600 X187.06 Y97.999 E320.47076
G0 F7200 X187.06 Y101.999
G1 F3600 X12.94 Y102 E327.34788
G1 F1800 E326.34788
G0 F7200 X11.751 Y101.75
; TYPE:WALL-INNER
G1 F1800 E327.34788
G1 F7200 X0.751 Y101.75 E327.78234
G1 X0.751 Y98.251 E327.92054
G1 X11.751 Y98.251 E328.355
G1 X11.751 Y101.3 E328.47542
G0 X12.251 Y102.25
; TYPE:WALL-OUTER
G1 F5040 X0.251 Y102.25 E328.94938
G1 X0.251 Y97.751 E329.12707
G1 X12.251 Y97.751 E329.60103
G1 X12.251 Y101.8 E329.76095
G0 F7200 X11.561 Y100.429
; TYPE:FILL
G1 X7.346 Y101.559 E329.93331
G0 X9.021 Y101.559
G1 X9.857 Y98.44 E330.06084
G0 X9.635 Y101.558
G1 X6.516 Y98.44 E330.23503
G0 X4.681 Y98.44
G1 X3.845 Y101.558 E330.36253
G1 F1800 E329.36253
G0 F7200 X188.25 Y101.75
; TYPE:WALL-INNER
G1 F1800 E330.36253
G1 F7200 X188.25 Y98.251 E330.50073
G1 X199.25 Y98.251 E330.93519
G1 X199.25 Y101.75 E331.07339
G1 X188.7 Y101.75 E331.49008
G0 X187.75 Y102.25
; TYPE:WALL-OUTER
G1 F5040 X187.75 Y97.751 E331.66777
G1 X199.75 Y97.751 E332.14173
G1 X199.75 Y102.25 E332.31942
G1 X188.2 Y102.25 E332.7756
G0 F7200 X190.195 Y101.558
; TYPE:FILL
G1 X191.031 Y98.439 E332.90314
G0 X190.365 Y98.441
G1 X193.483 Y101.559 E333.0773
G0 X195.371 Y101.559
G1 X196.207 Y98.44 E333.20484
G0 X197.435 Y98.44
G1 X199.059 Y100.064 E333.29555
G0 X192.85 Y98.44
G1 X188.439 Y99.622 E333.47592
; LAYER:11
G0 X187.06 Y99.999 Z2.2
; TYPE:SUPPORT
G1 F3600 X12.94 Y100 E340.35303
G0 F7200 X12.94 Y98
G1 F3600 X187.06 Y97.999 E347.23015
G0 F7200 X187.06 Y101.999
G1 F3600 X12.94 Y102 E354.10726
G1 F1800 E353.10726
G0 F7200 X11.751 Y101.75
; TYPE:WALL-INNER
G1 F1800 E354.10726
G1 F7200 X0.751 Y101.75 E354.54172
G1 X0.751 Y98.251 E354.67992
G1 X11.751 Y98.251 E355.11438
G1 X11.751 Y101.3 E355.2348
G0 X12.251 Y102.25
; TYPE:WALL-OUTER
G1 F5040 X0.251 Y102.25 E355.70876
G1 X0.251 Y97.751 E355.88646
G1 X12.251 Y97.751 E356.36041
G1 X12.251 Y101.8 E356.52033
G0 F7200 X11.561 Y100.429
; TYPE:FILL
G1 X7.346 Y101.559 E356.69269
G0 X9.021 Y101.559
G1 X9.857 Y98.44 E356.82023
G0 X9.635 Y101.558
G1 X6.516 Y98.44 E356.99442
G0 X4.681 Y98.44
G1 X3.845 Y101.558 E357.12192
G1 F1800 E356.12192
G0 F7200 X188.25 Y101.75
; TYPE:WALL-INNER
G1 F1800 E357.12192
G1 F7200 X188.25 Y98.251 E357.26011
G1 X199.25 Y98.251 E357.69457
G1 X199.25 Y101.75 E357.83277
G1 X188.7 Y101.75 E358.24946
G0 X187.75 Y102.25
; TYPE:WALL-OUTER
G1 F5040 X187.75 Y97.751 E358.42715
G1 X199.75 Y97.751 E358.90111
G1 X199.75 Y102.25 E359.0788
G1 X188.2 Y102.25 E359.53499
G0 F7200 X190.195 Y101.558
; TYPE:FILL
G1 X191.031 Y98.439 E359.66253
G0 X190.365 Y98.441
G1 X193.483 Y101.559 E359.83669
G0 X195.371 Y101.559
G1 X196.207 Y98.44 E359.96422
G0 X197.435 Y98.44
G1 X199.059 Y100.064 E360.05493
G0 X192.85 Y98.44
G1 X188.439 Y99.622 E360.2353
; LAYER:12
G0 X187.06 Y99.999 Z2.4
; TYPE:SUPPORT
G1 F3600 X12.94 Y100 E367.11241
G0 F7200 X12.94 Y98
G1 F3600 X187.06 Y97.999 E373.98953
G0 F7200 X187.06 Y101.999
G1 F3600 X12.94 Y102 E380.86664
G1 F1800 E379.86664
G0 F7200 X11.751 Y101.75
; TYPE:WALL-INNER
G1 F1800 E380.86664
G1 F7200 X0.751 Y101.75 E381.3011
G1 X0.751 Y98.251 E381.4393
G1 X11.751 Y98.251 E381.87376
G1 X11.751 Y101.3 E381.99419
G0 X12.251 Y102.25
; TYPE:WALL-OUTER
G1 F5040 X0.251 Y102.25 E382.46814
G1 X0.251 Y97.751 E382.64584
G1 X12.251 Y97.751 E383.1198
G1 X12.251 Y101.8 E383.27972
G0 F7200 X11.561 Y100.429
; TYPE:FILL
G1 X7.346 Y101.559 E383.45207
G0 X9.021 Y101.559
G1 X9.857 Y98.44 E383.57961
G0 X9.635 Y101.558
G1 X6.516 Y98.44 E383.7538
G0 X4.681 Y98.44
G1 X3.845 Y101.558 E383.8813
G1 F1800 E382.8813
G0 F7200 X188.25 Y101.75
; TYPE:WALL-INNER
G1 F1800 E383.8813
G1 F7200 X188.25 Y98.251 E384.0195
G1 X199.25 Y98.251 E384.45396
G1 X199.25 Y101.75 E384.59215
G1 X188.7 Y101.75 E385.00884
G0 X187.75 Y102.25
; TYPE:WALL-OUTER
G1 F5040 X187.75 Y97.751 E385.18654
G1 X199.75 Y97.751 E385.66049
G1 X199.75 Y102.25 E385.83819
G1 X188.2 Y102.25 E386.29437
G0 F7200 X190.195 Y101.558
; TYPE:FILL
G1 X191.031 Y98.439 E386.42191
G0 X190.365 Y98.441
G1 X193.483 Y101.559 E386.59607
G0 X195.371 Y101.559
G1 X196.207 Y98.44 E386.72361
G0 X197.435 Y98.44
G1 X199.059 Y100.064 E386.81432
G0 X192.85 Y98.44
G1 X188.439 Y99.622 E386.99468
; LAYER:13
G0 X187.06 Y99.999 Z2.6
; TYPE:SUPPORT
G1 F3600 X12.94 Y100 E393.8718
G0 F7200 X12.94 Y98
G1 F3600 X187.06 Y97.999 E400.74891
G0 F7200 X187.06 Y101.999
G1 F3600 X12.94 Y102 E407.62603
G1 F1800 E406.62603
G0 F7200 X11.751 Y101.75
; TYPE:WALL-INNER
G1 F1800 E407.62603
G1 F7200 X0.751 Y101.75 E408.06049
G1 X0.751 Y98.251 E408.19869
G1 X11.751 Y98.251 E408.63315
G1 X11.751 Y101.3 E408.75357
G0 X12.251 Y102.25
; TYPE:WALL-OUTER
G1 F5040 X0.251 Y102.25 E409.22753
G1 X0.251 Y97.751 E409.40522
G1 X12.251 Y97.751 E409.87918
G1 X12.251 Y101.8 E410.0391
G0 F7200 X11.561 Y100.429
; TYPE:FILL
G1 X7.346 Y101.559 E410.21146
G0 X9.021 Y101.559
G1 X9.857 Y98.44 E410.33899
G0 X9.635 Y101.558
G1 X6.516 Y98.44 E410.51318
G0 X4.681 Y98.44
G1 X3.845 Y101.558 E410.64068
G1 F1800 E409.64068
G0 F7200 X188.25 Y101.75
; TYPE:WALL-INNER
G1 F1800 E410.64068
G1 F7200 X188.25 Y98.251 E410.77888
G1 X199.25 Y98.251 E411.21334
G1 X199.25 Y101.75 E411.35154
G1 X188.7 Y101.75 E411.76822
G0 X187.75 Y102.25
; TYPE:WALL-OUTER
G1 F5040 X187.75 Y97.751 E411.94592
G1 X199.75 Y97.751 E412.41988
G1 X199.75 Y102.25 E412.59757
G1 X188.2 Y102.25 E413.05375
G0 F7200 X190.195 Y101.558
; TYPE:FILL
G1 X191.031 Y98.439 E413.18129
G0 X190.365 Y98.441
G1 X193.483 Y101.559 E413.35545
G0 X195.371 Y101.559
G1 X196.207 Y98.44 E413.48299
G0 X197.435 Y98.44
G1 X199.059 Y100.064 E413.5737
G0 X192.85 Y98.44
G1 X188.439 Y99.622 E413.75407
; LAYER:14
G0 X187.06 Y99.999 Z2.8
; TYPE:SUPPORT
G1 F3600 X12.94 Y100 E420.63118
G0 F7200 X12.94 Y98
G1 F3600 X187.06 Y97.999 E427.5083
G0 F7200 X187.06 Y101.999
G1 F3600 X12.94 Y102 E434.38541
G1 F1800 E433.38541
G0 F7200 X11.751 Y101.75
; TYPE:WALL-INNER
G1 F1800 E434.38541
G1 F7200 X0.751 Y101.75 E434.81987
G1 X0.751 Y98.251 E434.95807
G1 X11.751 Y98.251 E435.39253
G1 X11.751 Y101.3 E435.51295
G0 X12.251 Y102.25
; TYPE:WALL-OUTER
G1 F5040 X0.251 Y102.25 E435.98691
G1 X0.251 Y97.751 E436.16461
G1 X12.251 Y97.751 E436.63856
G1 X12.251 Y101.8 E436.79848
G0 F7200 X11.561 Y100.429
; TYPE:FILL
G1 X7.346 Y101.559 E436.97084
G0 X9.021 Y101.559
G1 X9.857 Y98.44 E437.09838
G0 X9.635 Y101.558
G1 X6.516 Y98.44 E437.27256
G0 X4.681 Y98.44
G1 X3.845 Y101.558 E437.40006
G1 F1800 E436.40006
G0 F7200 X188.25 Y101.75
; TYPE:WALL-INNER
G1 F1800 E437.40006
G1 F7200 X188.25 Y98.251 E437.53826
G1 X199.25 Y98.251 E437.97272
G1 X199.25 Y101.75 E438.11092
G1 X188.7 Y101.75 E438.52761
G0 X187.75 Y102.25
; TYPE:WALL-OUTER
G1 F5040 X187.75 Y97.751 E438.7053
G1 X199.75 Y97.751 E439.17926
G1 X199.75 Y102.25 E439.35695
G1 X188.2 Y102.25 E439.81314
G0 F7200 X190.195 Y101.558
; TYPE:FILL
G1 X191.031 Y98.439 E439.94067
G0 X190.365 Y98.441
G1 X193.483 Y101.559 E440.11483
G0 X195.371 Y101.559
G1 X196.207 Y98.44 E440.24237
G0 X197.435 Y98.44
G1 X199.059 Y100.064 E440.33308
G0 X192.85 Y98.44
G1 X188.439 Y99.622 E440.51345
; LAYER:15
G0 X187.06 Y99.999 Z3
; TYPE:SUPPORT
G1 F3600 X12.94 Y100 E447.39056
G0 F7200 X12.94 Y98
G1 F3600 X187.06 Y97.999 E454.26768
G0 F7200 X187.06 Y101.999
G1 F3600 X12.94 Y102 E461.14479
G1 F1800 E460.14479
G0 F7200 X11.751 Y101.75
; TYPE:WALL-INNER
G1 F1800 E461.14479
G1 F7200 X0.751 Y101.75 E461.57925
G1 X0.751 Y98.251 E461.71745
G1 X11.751 Y98.251 E462.15191
G1 X11.751 Y101.3 E462.27234
G0 X12.251 Y102.25
; TYPE:WALL-OUTER
G1 F5040 X0.251 Y102.25 E462.74629
G1 X0.251 Y97.751 E462.92399
G1 X12.251 Y97.751 E463.39795
G1 X12.251 Y101.8 E463.55787
G0 F7200 X11.561 Y100.429
; TYPE:FILL
G1 X7.346 Y101.559 E463.73022
G0 X9.021 Y101.559
G1 X9.857 Y98.44 E463.85776
G0 X9.635 Y101.558
G1 X6.516 Y98.44 E464.03195
G0 X4.681 Y98.44
G1 X3.845 Y101.558 E464.15945
G1 F1800 E463.15945
G0 F7200 X188.25 Y101.75
; TYPE:WALL-INNER
G1 F1800 E464.15945
G1 F7200 X188.25 Y98.251 E464.29765
G1 X199.25 Y98.251 E464.73211
G1 X199.25 Y101.75 E464.8703
G1 X188.7 Y101.75 E465.28699
G0 X187.75 Y102.25
; TYPE:WALL-OUTER
G1 F5040 X187.75 Y97.751 E465.46469
G1 X199.75 Y97.751 E465.93864
G1 X199.75 Y102.25 E466.11634
G1 X188.2 Y102.25 E466.57252
G0 F7200 X190.195 Y101.558
; TYPE:FILL
G1 X191.031 Y98.439 E466.70006
G0 X190.365 Y98.441
G1 X193.483 Y101.559 E466.87422
G0 X195.371 Y101.559
G1 X196.207 Y98.44 E467.00176
G0 X197.435 Y98.44
G1 X199.059 Y100.064 E467.09247
G0 X192.85 Y98.44
G1 X188.439 Y99.622 E467.27283
; LAYER:16
G0 X187.06 Y99.999 Z3.2
; TYPE:SUPPORT
G1 F3600 X12.94 Y100 E474.14995
G0 F7200 X12.94 Y98
G1 F3600 X187.06 Y97.999 E481.02706
G0 F7200 X187.06 Y101.999
G1 F3600 X12.94 Y102 E487.90418
G1 F1800 E486.90418
G0 F7200 X11.751 Y101.75
; TYPE:WALL-INNER
G1 F1800 E487.90418
G1 F7200 X0.751 Y101.75 E488.33864
G1 X0.751 Y98.251 E488.47684
G1 X11.751 Y98.251 E488.9113
G1 X11.751 Y101.3 E489.03172
G0 X12.251 Y102.25
; TYPE:WALL-OUTER
G1 F5040 X0.251 Y102.25 E489.50568
G1 X0.251 Y97.751 E489.68337
G1 X12.251 Y97.751 E490.15733
G1 X12.251 Y101.8 E490.31725
G0 F7200 X11.561 Y100.429
; TYPE:FILL
G1 X7.346 Y101.559 E490.48961
G0 X9.021 Y101.559
G1 X9.857 Y98.44 E490.61714
G0 X9.635 Y101.558
G1 X6.516 Y98.44 E490.79133
G0 X4.681 Y98.44
G1 X3.845 Y101.558 E490.91883
G1 F1800 E489.91883
G0 F7200 X188.25 Y101.75
; TYPE:WALL-INNER
G1 F1800 E490.91883
G1 F7200 X188.25 Y98.251 E491.05703
G1 X199.25 Y98.251 E491.49149
G1 X199.25 Y101.75 E491.62969
G1 X188.7 Y101.75 E492.04637
G0 X187.75 Y102.25
; TYPE:WALL-OUTER
G1 F5040 X187.75 Y97.751 E492.22407
G1 X199.75 Y97.751 E492.69803
G1 X199.75 Y102.25 E492.87572
G1 X188.2 Y102.25 E493.3319
G0 F7200 X190.195 Y101.558
; TYPE:FILL
G1 X191.031 Y98.439 E493.45944
G0 X190.365 Y98.441
G1 X193.483 Y101.559 E493.6336
G0 X195.371 Y101.559
G1 X196.207 Y98.44 E493.76114
G0 X197.435 Y98.44
G1 X199.059 Y100.064 E493.85185
G0 X192.85 Y98.44
G1 X188.439 Y99.622 E494.03221
; LAYER:17
G0 X187.06 Y99.999 Z3.4
; TYPE:SUPPORT
G1 F3600 X12.94 Y100 E500.90933
G0 F7200 X12.94 Y98
G1 F3600 X187.06 Y97.999 E507.78644
G0 F7200 X187.06 Y101.999
G1 F3600 X12.94 Y102 E514.66356
G1 F1800 E513.66356
G0 F7200 X11.751 Y101.75
; TYPE:WALL-INNER
G1 F1800 E514.66356
G1 F7200 X0.751 Y101.75 E515.09802
G1 X0.751 Y98.251 E515.23622
G1 X11.751 Y98.251 E515.67068
G1 X11.751 Y101.3 E515.7911
G0 X12.251 Y102.25
; TYPE:WALL-OUTER
G1 F5040 X0.251 Y102.25 E516.26506
G1 X0.251 Y97.751 E516.44275
G1 X12.251 Y97.751 E516.91671
G1 X12.251 Y101.8 E517.07663
G0 F7200 X11.561 Y100.429
; TYPE:FILL
G1 X7.346 Y101.559 E517.24899
G0 X9.021 Y101.559
G1 X9.857 Y98.44 E517.37653
G0 X9.635 Y101.558
G1 X6.516 Y98.44 E517.55071
G0 X4.681 Y98.44
G1 X3.845 Y101.558 E517.67821
G1 F1800 E516.67821
G0 F7200 X188.25 Y101.75
; TYPE:WALL-INNER
G1 F1800 E517.67821
G1 F7200 X188.25 Y98.251 E517.81641
G1 X199.25 Y98.251 E518.25087
G1 X199.25 Y101.75 E518.38907
G1 X188.7 Y101.75 E518.80576
G0 X187.75 Y102.25
; TYPE:WALL-OUTER
G1 F5040 X187.75 Y97.751 E518.98345
G1 X199.75 Y97.751 E519.45741
G1 X199.75 Y102.25 E519.6351
G1 X188.2 Y102.25 E520.09129
G0 F7200 X190.195 Y101.558
; TYPE:FILL
G1 X191.031 Y98.439 E520.21882
G0 X190.365 Y98.441
G1 X193.483 Y101.559 E520.39298
G0 X195.371 Y101.559
G1 X196.207 Y98.44 E520.52052
G0 X197.435 Y98.44
G1 X199.059 Y100.064 E520.61123
G0 X192.85 Y98.44
G1 X188.439 Y99.622 E520.7916
; LAYER:18
G0 X187.06 Y99.999 Z3.6
; TYPE:SUPPORT
G1 F3600 X12.94 Y100 E527.66871
G0 F7200 X12.94 Y98
G1 F3600 X187.06 Y97.999 E534.54583
G0 F7200 X187.06 Y101.999
G1 F3600 X12.94 Y102 E541.42294
G1 F1800 E540.42294
G0 F7200 X11.751 Y101.75
; TYPE:WALL-INNER
G1 F1800 E541.42294
G1 F7200 X0.751 Y101.75 E541.8574
G1 X0.751 Y98.251 E541.9956
G1 X11.751 Y98.251 E542.43006
G1 X11.751 Y101.3 E542.55049
G0 X12.251 Y102.25
; TYPE:WALL-OUTER
G1 F5040 X0.251 Y102.25 E543.02444
G1 X0.251 Y97.751 E543.20214
G1 X12.251 Y97.751 E543.67609
G1 X12.251 Y101.8 E543.83602
G0 F7200 X11.561 Y100.429
; TYPE:FILL
G1 X7.346 Y101.559 E544.00837
G0 X9.021 Y101.559
G1 X9.857 Y98.44 E544.13591
G0 X9.635 Y101.558
G1 X6.516 Y98.44 E544.3101
G0 X4.681 Y98.44
G1 X3.845 Y101.558 E544.4376
G1 F1800 E543.4376
G0 F7200 X188.25 Y101.75
; TYPE:WALL-INNER
G1 F1800 E544.4376
G1 F7200 X188.25 Y98.251 E544.57579
G1 X199.25 Y98.251 E545.01026
G1 X199.25 Y101.75 E545.14845
G1 X188.7 Y101.75 E545.56514
G0 X187.75 Y102.25
; TYPE:WALL-OUTER
G1 F5040 X187.75 Y97.751 E545.74283
G1 X199.75 Y97.751 E546.21679
G1 X199.75 Y102.25 E546.39449
G1 X188.2 Y102.25 E546.85067
G0 F7200 X190.195 Y101.558
; TYPE:FILL
G1 X191.031 Y98.439 E546.97821
G0 X190.365 Y98.441
G1 X193.483 Y101.559 E547.15237
G0 X195.371 Y101.559
G1 X196.207 Y98.44 E547.27991
G0 X197.435 Y98.44
G1 X199.059 Y100.064 E547.37062
G0 X192.85 Y98.44
G1 X188.439 Y99.622 E547.55098
; LAYER:19
G0 X187.06 Y99.999 Z3.8
; TYPE:SUPPORT
G1 F3600 X12.94 Y100 E554.4281
G0 F7200 X12.94 Y98
G1 F3600 X187.06 Y97.999 E561.30521
G0 F7200 X187.06 Y101.999
G1 F3600 X12.94 Y102 E568.18233
G1 F1800 E567.18233
G0 F7200 X11.751 Y101.75
; TYPE:WALL-INNER
G1 F1800 E568.18233
G1 F7200 X0.751 Y101.75 E568.61679
G1 X0.751 Y98.251 E568.75498
G1 X11.751 Y98.251 E569.18944
G1 X11.751 Y101.3 E569.30987
G0 X12.251 Y102.25
; TYPE:WALL-OUTER
G1 F5040 X0.251 Y102.25 E569.78383
G1 X0.251 Y97.751 E569.96152
G1 X12.251 Y97.751 E570.43548
G1 X12.251 Y101.8 E570.5954
G0 F7200 X11.561 Y100.429
; TYPE:FILL
G1 X7.346 Y101.559 E570.76775
G0 X9.021 Y101.559
G1 X9.857 Y98.44 E570.89529
G0 X9.635 Y101.558
G1 X6.516 Y98.44 E571.06948
G0 X4.681 Y98.44
G1 X3.845 Y101.558 E571.19698
G1 F1800 E570.19698
G0 F7200 X188.25 Y101.75
; TYPE:WALL-INNER
G1 F1800 E571.19698
G1 F7200 X188.25 Y98.251 E571.33518
G1 X199.25 Y98.251 E571.76964
G1 X199.25 Y101.75 E571.90784
G1 X188.7 Y101.75 E572.32452
G0 X187.75 Y102.25
; TYPE:WALL-OUTER
G1 F5040 X187.75 Y97.751 E572.50222
G1 X199.75 Y97.751 E572.97617
G1 X199.75 Y102.25 E573.15387
G1 X188.2 Y102.25 E573.61005
G0 F7200 X190.195 Y101.558
; TYPE:FILL
G1 X191.031 Y98.439 E573.73759
G0 X190.365 Y98.441
G1 X193.483 Y101.559 E573.91175
G0 X195.371 Y101.559
G1 X196.207 Y98.44 E574.03929
G0 X197.435 Y98.44
G1 X199.059 Y100.064 E574.13
G0 X192.85 Y98.44
G1 X188.439 Y99.622 E574.31036
; LAYER:20
G0 X187.06 Y99.999 Z4
; TYPE:SUPPORT
G1 F3600 X12.94 Y100 E581.18748
G0 F7200 X12.94 Y98
G1 F3600 X187.06 Y97.999 E588.06459
G0 F7200 X187.06 Y101.999
G1 F3600 X12.94 Y102 E594.94171
G1 F1800 E593.94171
G0 F7200 X11.751 Y101.75
; TYPE:WALL-INNER
G1 F1800 E594.94171
G1 F7200 X0.751 Y101.75 E595.37617
G1 X0.751 Y98.251 E595.51437
G1 X11.751 Y98.251 E595.94883
G1 X11.751 Y101.3 E596.06925
G0 X12.251 Y102.25
; TYPE:WALL-OUTER
G1 F5040 X0.251 Y102.25 E596.54321
G1 X0.251 Y97.751 E596.7209
G1 X12.251 Y97.751 E597.19486
G1 X12.251 Y101.8 E597.35478
G0 F7200 X11.561 Y100.429
; TYPE:FILL
G1 X7.346 Y101.559 E597.52714
G0 X9.021 Y101.559
G1 X9.857 Y98.44 E597.65468
G0 X9.635 Y101.558
G1 X6.516 Y98.44 E597.82886
G0 X4.681 Y98.44
G1 X3.845 Y101.558 E597.95636
G1 F1800 E596.95636
G0 F7200 X188.25 Y101.75
; TYPE:WALL-INNER
G1 F1800 E597.95636
G1 F7200 X188.25 Y98.251 E598.09456
G1 X199.25 Y98.251 E598.52902
G1 X199.25 Y101.75 E598.66722
G1 X188.7 Y101.75 E599.08391
G0 X187.75 Y102.25
; TYPE:WALL-OUTER
G1 F5040 X187.75 Y97.751 E599.2616
G1 X199.75 Y97.751 E599.73556
G1 X199.75 Y102.25 E599.91325
G1 X188.2 Y102.25 E600.36944
G0 F7200 X190.195 Y101.558
; TYPE:FILL
G1 X191.031 Y98.439 E600.49697
G0 X190.365 Y98.441
G1 X193.483 Y101.559 E600.67113
G0 X195.371 Y101.559
G1 X196.207 Y98.44 E600.79867
G0 X197.435 Y98.44
G1 X199.059 Y100.064 E600.88938
G0 X192.85 Y98.44
G1 X188.439 Y99.622 E601.06975
; LAYER:21
G0 X187.06 Y99.999 Z4.2
; TYPE:SUPPORT
G1 F3600 X12.94 Y100 E607.94686
G0 F7200 X12.94 Y98
G1 F3600 X187.06 Y97.999 E614.82398
G0 F7200 X187.06 Y101.999
G1 F3600 X12.94 Y102 E621.70109
G1 F1800 E620.70109
G0 F7200 X11.751 Y101.75
; TYPE:WALL-INNER
G1 F1800 E621.70109
G1 F7200 X0.751 Y101.75 E622.13555
G1 X0.751 Y98.251 E622.27375
G1 X11.751 Y98.251 E622.70821
G1 X11.751 Y101.3 E622.82864
G0 X12.251 Y102.25
; TYPE:WALL-OUTER
G1 F5040 X0.251 Y102.25 E623.30259
G1 X0.251 Y97.751 E623.48029
G1 X12.251 Y97.751 E623.95424
G1 X12.251 Y101.8 E624.11416
G0 F7200 X11.561 Y100.429
; TYPE:FILL
G1 X7.346 Y101.559 E624.28652
G0 X9.021 Y101.559
G1 X9.857 Y98.44 E624.41406
G0 X9.635 Y101.558
G1 X6.516 Y98.44 E624.58825
G0 X4.681 Y98.44
G1 X3.845 Y101.558 E624.71575
G1 F1800 E623.71575
G0 F7200 X188.25 Y101.75
; TYPE:WALL-INNER
G1 F1800 E624.71575
G1 F7200 X188.25 Y98.251 E624.85394
G1 X199.25 Y98.251 E625.2884
G1 X199.25 Y101.75 E625.4266
G1 X188.7 Y101.75 E625.84329
G0 X187.75 Y102.25
; TYPE:WALL-OUTER
G1 F5040 X187.75 Y97.751 E626.02098
G1 X199.75 Y97.751 E626.49494
G1 X199.75 Y102.25 E626.67264
G1 X188.2 Y102.25 E627.12882
G0 F7200 X190.195 Y101.558
; TYPE:FILL
G1 X191.031 Y98.439 E627.25636
G0 X190.365 Y98.441
G1 X193.483 Y101.559 E627.43052
G0 X195.371 Y101.559
G1 X196.207 Y98.44 E627.55805
G0 X197.435 Y98.44
G1 X199.059 Y100.064 E627.64877
G0 X192.85 Y98.44
G1 X188.439 Y99.622 E627.82913
; LAYER:22
G0 X187.06 Y99.999 Z4.4
; TYPE:SUPPORT
G1 F3600 X12.94 Y100 E634.70625
G0 F7200 X12.94 Y98
G1 F3600 X187.06 Y97.999 E641.58336
G0 F7200 X187.06 Y101.999
G1 F3600 X12.94 Y102 E648.46048
G1 F1800 E647.46048
G0 F7200 X11.751 Y101.75
; TYPE:WALL-INNER
G1 F1800 E648.46048
G1 F7200 X0.751 Y101.75 E648.89494
G1 X0.751 Y98.251 E649.03313
G1 X11.751 Y98.251 E649.46759
G1 X11.751 Y101.3 E649.58802
G0 X12.251 Y102.25
; TYPE:WALL-OUTER
G1 F5040 X0.251 Y102.25 E650.06198
G1 X0.251 Y97.751 E650.23967
G1 X12.251 Y97.751 E650.71363
G1 X12.251 Y101.8 E650.87355
G0 F7200 X11.561 Y100.429
; TYPE:FILL
G1 X7.346 Y101.559 E651.0459
G0 X9.021 Y101.559
G1 X9.857 Y98.44 E651.17344
G0 X9.635 Y101.558
G1 X6.516 Y98.44 E651.34763
G0 X4.681 Y98.44
G1 X3.845 Y101.558 E651.47513
G1 F1800 E650.47513
G0 F7200 X188.25 Y101.75
; TYPE:WALL-INNER
G1 F1800 E651.47513
G1 F7200 X188.25 Y98.251 E651.61333
G1 X199.25 Y98.251 E652.04779
G1 X199.25 Y101.75 E652.18599
G1 X188.7 Y101.75 E652.60267
G0 X187.75 Y102.25
; TYPE:WALL-OUTER
G1 F5040 X187.75 Y97.751 E652.78037
G1 X199.75 Y97.751 E653.25432
G1 X199.75 Y102.25 E653.43202
G1 X188.2 Y102.25 E653.8882
G0 F7200 X190.195 Y101.558
; TYPE:FILL
G1 X191.031 Y98.439 E654.01574
G0 X190.365 Y98.441
G1 X193.483 Y101.559 E654.1899
G0 X195.371 Y101.559
G1 X196.207 Y98.44 E654.31744
G0 X197.435 Y98.44
G1 X199.059 Y100.064 E654.40815
G0 X192.85 Y98.44
G1 X188.439 Y99.622 E654.58851
; LAYER:23
G0 X187.06 Y99.999 Z4.6
; TYPE:SUPPORT
G1 F3600 X12.94 Y100 E661.46563
G0 F7200 X12.94 Y98
G1 F3600 X187.06 Y97.999 E668.34274
G0 F7200 X187.06 Y101.999
G1 F3600 X12.94 Y102 E675.21986
G1 F1800 E674.21986
G0 F7200 X11.751 Y101.75
; TYPE:WALL-INNER
G1 F1800 E675.21986
G1 F7200 X0.751 Y101.75 E675.65432
G1 X0.751 Y98.251 E675.79252
G1 X11.751 Y98.251 E676.22698
G1 X11.751 Y101.3 E676.3474
G0 X12.251 Y102.25
; TYPE:WALL-OUTER
G1 F5040 X0.251 Y102.25 E676.82136
G1 X0.251 Y97.751 E676.99905
G1 X12.251 Y97.751 E677.47301
G1 X12.251 Y101.8 E677.63293
G0 F7200 X11.561 Y100.429
; TYPE:FILL
G1 X7.346 Y101.559 E677.80529
G0 X9.021 Y101.559
G1 X9.857 Y98.44 E677.93282
G0 X9.635 Y101.558
G1 X6.516 Y98.44 E678.10701
G0 X4.681 Y98.44
G1 X3.845 Y101.558 E678.23451
G1 F1800 E677.23451
G0 F7200 X188.25 Y101.75
; TYPE:WALL-INNER
G1 F1800 E678.23451
G1 F7200 X188.25 Y98.251 E678.37271
G1 X199.25 Y98.251 E678.80717
G1 X199.25 Y101.75 E678.94537
G1 X188.7 Y101.75 E679.36206
G0 X187.75 Y102.25
; TYPE:WALL-OUTER
G1 F5040 X187.75 Y97.751 E679.53975
G1 X199.75 Y97.751 E680.01371
G1 X199.75 Y102.25 E680.1914
G1 X188.2 Y102.25 E680.64759
G0 F7200 X190.195 Y101.558
; TYPE:FILL
G1 X191.031 Y98.439 E680.77512
G0 X190.365 Y98.441
G1 X193.483 Y101.559 E680.94928
G0 X195.371 Y101.559
G1 X196.207 Y98.44 E681.07682
G0 X197.435 Y98.44
G1 X199.059 Y100.064 E681.16753
G0 X192.85 Y98.44
G1 X188.439 Y99.622 E681.3479
; LAYER:24
G0 X187.06 Y99.999 Z4.8
; TYPE:SUPPORT
G1 F3600 X12.94 Y100 E688.22501
G0 F7200 X12.94 Y98
G1 F3600 X187.06 Y97.999 E695.10213
G0 F7200 X187.06 Y101.999
G1 F3600 X12.94 Y102 E701.97924
G1 F1800 E700.97924
G0 F7200 X11.751 Y101.75
; TYPE:WALL-INNER
G1 F1800 E701.97924
G1 F7200 X0.751 Y101.75 E702.4137
G1 X0.751 Y98.251 E702.5519
G1 X11.751 Y98.251 E702.98636
G1 X11.751 Y101.3 E703.10679
G0 X12.251 Y102.25
; TYPE:WALL-OUTER
G1 F5040 X0.251 Y102.25 E703.58074
G1 X0.251 Y97.751 E703.75844
G1 X12.251 Y97.751 E704.23239
G1 X12.251 Y101.8 E704.39231
G0 F7200 X11.561 Y100.429
; TYPE:FILL
G1 X7.346 Y101.559 E704.56467
G0 X9.021 Y101.559
G1 X9.857 Y98.44 E704.69221
G0 X9.635 Y101.558
G1 X6.516 Y98.44 E704.8664
G0 X4.681 Y98.44
G1 X3.845 Y101.558 E704.9939
G1 F1800 E703.9939
G0 F7200 X188.25 Y101.75
; TYPE:WALL-INNER
G1 F1800 E704.9939
G1 F7200 X188.25 Y98.251 E705.13209
G1 X199.25 Y98.251 E705.56655
G1 X199.25 Y101.75 E705.70475
G1 X188.7 Y101.75 E706.12144
G0 X187.75 Y102.25
; TYPE:WALL-OUTER
G1 F5040 X187.75 Y97.751 E706.29913
G1 X199.75 Y97.751 E706.77309
G1 X199.75 Y102.25 E706.95078
G1 X188.2 Y102.25 E707.40697
G0 F7200 X190.195 Y101.558
; TYPE:FILL
G1 X191.031 Y98.439 E707.53451
G0 X190.365 Y98.441
G1 X193.483 Y101.559 E707.70867
G0 X195.371 Y101.559
G1 X196.207 Y98.44 E707.8362
G0 X197.435 Y98.44
G1 X199.059 Y100.064 E707.92691
G0 X192.85 Y98.44
G1 X188.439 Y99.622 E708.10728
; LAYER:25
G0 X187.06 Y99.999 Z5
; TYPE:SUPPORT
G1 F3600 X12.94 Y100 E714.98439
G0 F7200 X12.94 Y98
G1 F3600 X187.06 Y97.999 E721.86151
G0 F7200 X187.06 Y101.999
G1 F3600 X12.94 Y102 E728.73862
G1 F1800 E727.73862
G0 F7200 X11.751 Y101.75
; TYPE:WALL-INNER
G1 F1800 E728.73862
G1 F7200 X0.751 Y101.75 E729.17309
G1 X0.751 Y98.251 E729.31128
G1 X11.751 Y98.251 E729.74574
G1 X11.751 Y101.3 E729.86617
G0 X12.251 Y102.25
; TYPE:WALL-OUTER
G1 F5040 X0.251 Y102.25 E730.34013
G1 X0.251 Y97.751 E730.51782
G1 X12.251 Y97.751 E730.99178
G1 X12.251 Y101.8 E731.1517
G0 F7200 X11.561 Y100.429
; TYPE:FILL
G1 X7.346 Y101.559 E731.32405
G0 X9.021 Y101.559
G1 X9.857 Y98.44 E731.45159
G0 X9.635 Y101.558
G1 X6.516 Y98.44 E731.62578
G0 X4.681 Y98.44
G1 X3.845 Y101.558 E731.75328
G1 F1800 E730.75328
G0 F7200 X188.25 Y101.75
; TYPE:WALL-INNER
G1 F1800 E731.75328
G1 F7200 X188.25 Y98.251 E731.89148
G1 X199.25 Y98.251 E732.32594
G1 X199.25 Y101.75 E732.46414
G1 X188.7 Y101.75 E732.88082
G0 X187.75 Y102.25
; TYPE:WALL-OUTER
G1 F5040 X187.75 Y97.751 E733.05852
G1 X199.75 Y97.751 E733.53247
G1 X199.75 Y102.25 E733.71017
G1 X188.2 Y102.25 E734.16635
G0 F7200 X190.195 Y101.558
; TYPE:FILL
G1 X191.031 Y98.439 E734.29389
G0 X190.365 Y98.441
G1 X193.483 Y101.559 E734.46805
G0 X195.371 Y101.559
G1 X196.207 Y98.44 E734.59559
G0 X197.435 Y98.44
G1 X199.059 Y100.064 E734.6863
G0 X192.85 Y98.44
G1 X188.439 Y99.622 E734.86666
; LAYER:26
G0 X187.06 Y99.999 Z5.2
; TYPE:SUPPORT
G1 F3600 X12.94 Y100 E741.74378
G0 F7200 X12.94 Y98
G1 F3600 X187.06 Y97.999 E748.62089
G0 F7200 X187.06 Y101.999
G1 F3600 X12.94 Y102 E755.49801
G1 F1800 E754.49801
G0 F7200 X11.751 Y101.75
; TYPE:WALL-INNER
G1 F1800 E755.49801
G1 F7200 X0.751 Y101.75 E755.93247
G1 X0.751 Y98.251 E756.07067
G1 X11.751 Y98.251 E756.50513
G1 X11.751 Y101.3 E756.62555
G0 X12.251 Y102.25
; TYPE:WALL-OUTER
G1 F5040 X0.251 Y102.25 E757.09951
G1 X0.251 Y97.751 E757.2772
G1 X12.251 Y97.751 E757.75116
G1 X12.251 Y101.8 E757.91108
G0 F7200 X11.561 Y100.429
; TYPE:FILL
G1 X7.346 Y101.559 E758.08344
G0 X9.021 Y101.559
G1 X9.857 Y98.44 E758.21097
G0 X9.635 Y101.558
G1 X6.516 Y98.44 E758.38516
G0 X4.681 Y98.44
G1 X3.845 Y101.558 E758.51266
G1 F1800 E757.51266
G0 F7200 X188.25 Y101.75
; TYPE:WALL-INNER
G1 F1800 E758.51266
G1 F7200 X188.25 Y98.251 E758.65086
G1 X199.25 Y98.251 E759.08532
G1 X199.25 Y101.75 E759.22352
G1 X188.7 Y101.75 E759.64021
G0 X187.75 Y102.25
; TYPE:WALL-OUTER
G1 F5040 X187.75 Y97.751 E759.8179
G1 X199.75 Y97.751 E760.29186
G1 X199.75 Y102.25 E760.46955
G1 X188.2 Y102.25 E760.92573
G0 F7200 X190.195 Y101.558
; TYPE:FILL
G1 X191.031 Y98.439 E761.05327
G0 X190.365 Y98.441
G1 X193.483 Y101.559 E761.22743
G0 X195.371 Y101.559
G1 X196.207 Y98.44 E761.35497
G0 X197.435 Y98.44
G1 X199.059 Y100.064 E761.44568
G0 X192.85 Y98.44
G1 X188.439 Y99.622 E761.62605
; LAYER:27
G0 X187.06 Y99.999 Z5.4
; TYPE:SUPPORT
G1 F3600 X12.94 Y100 E768.50316
G0 F7200 X12.94 Y98
G1 F3600 X187.06 Y97.999 E775.38028
G0 F7200 X187.06 Y101.999
G1 F3600 X12.94 Y102 E782.25739
G1 F1800 E781.25739
G0 F7200 X11.751 Y101.75
; TYPE:WALL-INNER
G1 F1800 E782.25739
G1 F7200 X0.751 Y101.75 E782.69185
G1 X0.751 Y98.251 E782.83005
G1 X11.751 Y98.251 E783.26451
G1 X11.751 Y101.3 E783.38493
G0 X12.251 Y102.25
; TYPE:WALL-OUTER
G1 F5040 X0.251 Y102.25 E783.85889
G1 X0.251 Y97.751 E784.03659
G1 X12.251 Y97.751 E784.51054
G1 X12.251 Y101.8 E784.67046
G0 F7200 X11.561 Y100.429
; TYPE:FILL
G1 X7.346 Y101.559 E784.84282
G0 X9.021 Y101.559
G1 X9.857 Y98.44 E784.97036
G0 X9.635 Y101.558
G1 X6.516 Y98.44 E785.14455
G0 X4.681 Y98.44
G1 X3.845 Y101.558 E785.27204
G1 F1800 E784.27204
G0 F7200 X188.25 Y101.75
; TYPE:WALL-INNER
G1 F1800 E785.27204
G1 F7200 X188.25 Y98.251 E785.41024
G1 X199.25 Y98.251 E785.8447
G1 X199.25 Y101.75 E785.9829
G1 X188.7 Y101.75 E786.39959
G0 X187.75 Y102.25
; TYPE:WALL-OUTER
G1 F5040 X187.75 Y97.751 E786.57728
G1 X199.75 Y97.751 E787.05124
G1 X199.75 Y102.25 E787.22893
G1 X188.2 Y102.25 E787.68512
G0 F7200 X190.195 Y101.558
; TYPE:FILL
G1 X191.031 Y98.439 E787.81266
G0 X190.365 Y98.441
G1 X193.483 Y101.559 E787.98682
G0 X195.371 Y101.559
G1 X196.207 Y98.44 E788.11435
G0 X197.435 Y98.44
G1 X199.059 Y100.064 E788.20506
G0 X192.85 Y98.44
G1 X188.439 Y99.622 E788.38543
; LAYER:28
G0 X187.06 Y99.999 Z5.6
; TYPE:SUPPORT
G1 F3600 X12.94 Y100 E795.26254
G0 F7200 X12.94 Y98
G1 F3600 X187.06 Y97.999 E802.13966
G0 F7200 X187.06 Y101.999
G1 F3600 X12.94 Y102 E809.01677
G1 F1800 E808.01677
G0 F7200 X11.751 Y101.75
; TYPE:WALL-INNER
G1 F1800 E809.01677
G1 F7200 X0.751 Y101.75 E809.45123
G1 X0.751 Y98.251 E809.58943
G1 X11.751 Y98.251 E810.02389
G1 X11.751 Y101.3 E810.14432
G0 X12.251 Y102.25
; TYPE:WALL-OUTER
G1 F5040 X0.251 Y102.25 E810.61827
G1 X0.251 Y97.751 E810.79597
G1 X12.251 Y97.751 E811.26993
G1 X12.251 Y101.8 E811.42985
G0 F7200 X11.561 Y100.429
; TYPE:FILL
G1 X7.346 Y101.559 E811.6022
G0 X9.021 Y101.559
G1 X9.857 Y98.44 E811.72974
G0 X9.635 Y101.558
G1 X6.516 Y98.44 E811.90393
G0 X4.681 Y98.44
G1 X3.845 Y101.558 E812.03143
G1 F1800 E811.03143
G0 F7200 X188.25 Y101.75
; TYPE:WALL-INNER
G1 F1800 E812.03143
G1 F7200 X188.25 Y98.251 E812.16963
G1 X199.25 Y98.251 E812.60409
G1 X199.25 Y101.75 E812.74228
G1 X188.7 Y101.75 E813.15897
G0 X187.75 Y102.25
; TYPE:WALL-OUTER
G1 F5040 X187.75 Y97.751 E813.33667
G1 X199.75 Y97.751 E813.81062
G1 X199.75 Y102.25 E813.98832
G1 X188.2 Y102.25 E814.4445
G0 F7200 X190.195 Y101.558
; TYPE:FILL
G1 X191.031 Y98.439 E814.57204
G0 X190.365 Y98.441
G1 X193.483 Y101.559 E814.7462
G0 X195.371 Y101.559
G1 X196.207 Y98.44 E814.87374
G0 X197.435 Y98.44
G1 X199.059 Y100.064 E814.96445
G0 X192.85 Y98.44
G1 X188.439 Y99.622 E815.14481
; LAYER:29
G0 X187.06 Y99.999 Z5.8
; TYPE:SUPPORT
G1 F3600 X12.94 Y100 E822.02193
G0 F7200 X12.94 Y98
G1 F3600 X187.06 Y97.999 E828.89904
G0 F7200 X187.06 Y101.999
G1 F3600 X12.94 Y102 E835.77616
G1 F1800 E834.77616
G0 F7200 X11.751 Y101.75
; TYPE:WALL-INNER
G1 F1800 E835.77616
G1 F7200 X0.751 Y101.75 E836.21062
G1 X0.751 Y98.251 E836.34882
G1 X11.751 Y98.251 E836.78328
G1 X11.751 Y101.3 E836.9037
G0 X12.251 Y102.25
; TYPE:WALL-OUTER
G1 F5040 X0.251 Y102.25 E837.37766
G1 X0.251 Y97.751 E837.55535
G1 X12.251 Y97.751 E838.02931
G1 X12.251 Y101.8 E838.18923
G0 F7200 X11.561 Y100.429
; TYPE:FILL
G1 X7.346 Y101.559 E838.36159
G0 X9.021 Y101.559
G1 X9.857 Y98.44 E838.48912
G0 X9.635 Y101.558
G1 X6.516 Y98.44 E838.66331
G0 X4.681 Y98.44
G1 X3.845 Y101.558 E838.79081
G1 F1800 E837.79081
G0 F7200 X188.25 Y101.75
; TYPE:WALL-INNER
G1 F1800 E838.79081
G1 F7200 X188.25 Y98.251 E838.92901
G1 X199.25 Y98.251 E839.36347
G1 X199.25 Y101.75 E839.50167
G1 X188.7 Y101.75 E839.91835
G0 X187.75 Y102.25
; TYPE:WALL-OUTER
G1 F5040 X187.75 Y97.751 E840.09605
G1 X199.75 Y97.751 E840.57001
G1 X199.75 Y102.25 E840.7477
G1 X188.2 Y102.25 E841.20388
G0 F7200 X190.195 Y101.558
; TYPE:FILL
G1 X191.031 Y98.439 E841.33142
G0 X190.365 Y98.441
G1 X193.483 Y101.559 E841.50558
G0 X195.371 Y101.559
G1 X196.207 Y98.44 E841.63312
G0 X197.435 Y98.44
G1 X199.059 Y100.064 E841.72383
G0 X192.85 Y98.44
G1 X188.439 Y99.622 E841.9042
; LAYER:30
G0 X187.06 Y99.999 Z6
; TYPE:SUPPORT
G1 F3600 X12.94 Y100 E848.78131
G0 F7200 X12.94 Y98
G1 F3600 X187.06 Y97.999 E855.65843
G0 F7200 X187.06 Y101.999
G1 F3600 X12.94 Y102 E862.53554
G1 F1800 E861.53554
G0 F7200 X11.751 Y101.75
; TYPE:WALL-INNER
G1 F1800 E862.53554
G1 F7200 X0.751 Y101.75 E862.97
G1 X0.751 Y98.251 E863.1082
G1 X11.751 Y98.251 E863.54266
G1 X11.751 Y101.3 E863.66308
G0 X12.251 Y102.25
; TYPE:WALL-OUTER
G1 F5040 X0.251 Y102.25 E864.13704
G1 X0.251 Y97.751 E864.31473
G1 X12.251 Y97.751 E864.78869
G1 X12.251 Y101.8 E864.94861
G0 F7200 X11.561 Y100.429
; TYPE:FILL
G1 X7.346 Y101.559 E865.12097
G0 X9.021 Y101.559
G1 X9.857 Y98.44 E865.24851
G0 X9.635 Y101.558
G1 X6.516 Y98.44 E865.42269
G0 X4.681 Y98.44
G1 X3.845 Y101.558 E865.55019
G1 F1800 E864.55019
G0 F7200 X188.25 Y101.75
; TYPE:WALL-INNER
G1 F1800 E865.55019
G1 F7200 X188.25 Y98.251 E865.68839
G1 X199.25 Y98.251 E866.12285
G1 X199.25 Y101.75 E866.26105
G1 X188.7 Y101.75 E866.67774
G0 X187.75 Y102.25
; TYPE:WALL-OUTER
G1 F5040 X187.75 Y97.751 E866.85543
G1 X199.75 Y97.751 E867.32939
G1 X199.75 Y102.25 E867.50708
G1 X188.2 Y102.25 E867.96327
G0 F7200 X190.195 Y101.558
; TYPE:FILL
G1 X191.031 Y98.439 E868.0908
G0 X190.365 Y98.441
G1 X193.483 Y101.559 E868.26496
G0 X195.371 Y101.559
G1 X196.207 Y98.44 E868.3925
G0 X197.435 Y98.44
G1 X199.059 Y100.064 E868.48321
G0 X192.85 Y98.44
G1 X188.439 Y99.622 E868.66358
; LAYER:31
G0 X187.06 Y99.999 Z6.2
; TYPE:SUPPORT
G1 F3600 X12.94 Y100 E875.54069
G0 F7200 X12.94 Y98
G1 F3600 X187.06 Y97.999 E882.41781
G0 F7200 X187.06 Y101.999
G1 F3600 X12.94 Y102 E889.29492
G1 F1800 E888.29492
G0 F7200 X11.751 Y101.75
; TYPE:WALL-INNER
G1 F1800 E889.29492
G1 F7200 X0.751 Y101.75 E889.72938
G1 X0.751 Y98.251 E889.86758
G1 X11.751 Y98.251 E890.30204
G1 X11.751 Y101.3 E890.42247
G0 X12.251 Y102.25
; TYPE:WALL-OUTER
G1 F5040 X0.251 Y102.25 E890.89642
G1 X0.251 Y97.751 E891.07412
G1 X12.251 Y97.751 E891.54807
G1 X12.251 Y101.8 E891.708
G0 F7200 X11.561 Y100.429
; TYPE:FILL
G1 X7.346 Y101.559 E891.88035
G0 X9.021 Y101.559
G1 X9.857 Y98.44 E892.00789
G0 X9.635 Y101.558
G1 X6.516 Y98.44 E892.18208
G0 X4.681 Y98.44
G1 X3.845 Y101.558 E892.30958
G1 F1800 E891.30958
G0 F7200 X188.25 Y101.75
; TYPE:WALL-INNER
G1 F1800 E892.30958
G1 F7200 X188.25 Y98.251 E892.44778
G1 X199.25 Y98.251 E892.88224
G1 X199.25 Y101.75 E893.02043
G1 X188.7 Y101.75 E893.43712
G0 X187.75 Y102.25
; TYPE:WALL-OUTER
G1 F5040 X187.75 Y97.751 E893.61482
G1 X199.75 Y97.751 E894.08877
G1 X199.75 Y102.25 E894.26647
G1 X188.2 Y102.25 E894.72265
G0 F7200 X190.195 Y101.558
; TYPE:FILL
G1 X191.031 Y98.439 E894.85019
G0 X190.365 Y98.441
G1 X193.483 Y101.559 E895.02435
G0 X195.371 Y101.559
G1 X196.207 Y98.44 E895.15189
G0 X197.435 Y98.44
G1 X199.059 Y100.064 E895.2426
G0 X192.85 Y98.44
G1 X188.439 Y99.622 E895.42296
; LAYER:32
G0 X187.06 Y99.999 Z6.4
; TYPE:SUPPORT
G1 F3600 X12.94 Y100 E902.30008
G0 F7200 X12.94 Y98
G1 F3600 X187.06 Y97.999 E909.17719
G0 F7200 X187.06 Y101.999
G1 F3600 X12.94 Y102 E916.05431
G1 F1800 E915.05431
G0 F7200 X11.751 Y101.75
; TYPE:WALL-INNER
G1 F1800 E916.05431
G1 F7200 X0.751 Y101.75 E916.48877
G1 X0.751 Y98.251 E916.62696
G1 X11.751 Y98.251 E917.06143
G1 X11.751 Y101.3 E917.18185
G0 X12.251 Y102.25
; TYPE:WALL-OUTER
G1 F5040 X0.251 Y102.25 E917.65581
G1 X0.251 Y97.751 E917.8335
G1 X12.251 Y97.751 E918.30746
G1 X12.251 Y101.8 E918.46738
G0 F7200 X11.561 Y100.429
; TYPE:FILL
G1 X7.346 Y101.559 E918.63974
G0 X9.021 Y101.559
G1 X9.857 Y98.44 E918.76727
G0 X9.635 Y101.558
G1 X6.516 Y98.44 E918.94146
G0 X4.681 Y98.44
G1 X3.845 Y101.558 E919.06896
G1 F1800 E918.06896
G0 F7200 X188.25 Y101.75
; TYPE:WALL-INNER
G1 F1800 E919.06896
G1 F7200 X188.25 Y98.251 E919.20716
G1 X199.25 Y98.251 E919.64162
G1 X199.25 Y101.75 E919.77982
G1 X188.7 Y101.75 E920.1965
G0 X187.75 Y102.25
; TYPE:WALL-OUTER
G1 F5040 X187.75 Y97.751 E920.3742
G1 X199.75 Y97.751 E920.84816
G1 X199.75 Y102.25 E921.02585
G1 X188.2 Y102.25 E921.48203
G0 F7200 X190.195 Y101.558
; TYPE:FILL
G1 X191.031 Y98.439 E921.60957
G0 X190.365 Y98.441
G1 X193.483 Y101.559 E921.78373
G0 X195.371 Y101.559
G1 X196.207 Y98.44 E921.91127
G0 X197.435 Y98.44
G1 X199.059 Y100.064 E922.00198
G0 X192.85 Y98.44
G1 X188.439 Y99.622 E922.18234
; LAYER:33
G0 X187.06 Y99.999 Z6.6
; TYPE:SUPPORT
G1 F3600 X12.94 Y100 E929.05946
G0 F7200 X12.94 Y98
G1 F3600 X187.06 Y97.999 E935.93657
G0 F7200 X187.06 Y101.999
G1 F3600 X12.94 Y102 E942.81369
G1 F1800 E941.81369
G0 F7200 X11.751 Y101.75
; TYPE:WALL-INNER
G1 F1800 E942.81369
G1 F7200 X0.751 Y101.75 E943.24815
G1 X0.751 Y98.251 E943.38635
G1 X11.751 Y98.251 E943.82081
G1 X11.751 Y101.3 E943.94123
G0 X12.251 Y102.25
; TYPE:WALL-OUTER
G1 F5040 X0.251 Y102.25 E944.41519
G1 X0.251 Y97.751 E944.59288
G1 X12.251 Y97.751 E945.06684
G1 X12.251 Y101.8 E945.22676
G0 F7200 X11.561 Y100.429
; TYPE:FILL
G1 X7.346 Y101.559 E945.39912
G0 X9.021 Y101.559
G1 X9.857 Y98.44 E945.52666
G0 X9.635 Y101.558
G1 X6.516 Y98.44 E945.70084
G0 X4.681 Y98.44
G1 X3.845 Y101.558 E945.82834
G1 F1800 E944.82834
G0 F7200 X188.25 Y101.75
; TYPE:WALL-INNER
G1 F1800 E945.82834
G1 F7200 X188.25 Y98.251 E945.96654
G1 X199.25 Y98.251 E946.401
G1 X199.25 Y101.75 E946.5392
G1 X188.7 Y101.75 E946.95589
G0 X187.75 Y102.25
; TYPE:WALL-OUTER
G1 F5040 X187.75 Y97.751 E947.13358
G1 X199.75 Y97.751 E947.60754
G1 X199.75 Y102.25 E947.78523
G1 X188.2 Y102.25 E948.24142
G0 F7200 X190.195 Y101.558
; TYPE:FILL
G1 X191.031 Y98.439 E948.36895
G0 X190.365 Y98.441
G1 X193.483 Y101.559 E948.54311
G0 X195.371 Y101.559
G1 X196.207 Y98.44 E948.67065
G0 X197.435 Y98.44
G1 X199.059 Y100.064 E948.76136
G0 X192.85 Y98.44
G1 X188.439 Y99.622 E948.94173
; LAYER:34
G1 F1800 E947.94173
G0 F7200 X11.751 Y98.251 Z6.8
; TYPE:WALL-INNER
G1 F1800 E948.94173
G1 F1560 X11.751 Y101.75 E949.07993
G1 X0.751 Y101.75 E949.51439
G1 X0.751 Y98.251 E949.65258
G1 X11.301 Y98.251 E950.06927
G0 F7200 X12.251 Y97.751
; TYPE:WALL-OUTER
G1 F1080 X12.251 Y102.25 E950.24697
G1 X0.251 Y102.25 E950.72092
G1 X0.251 Y97.751 E950.89862
G1 X11.801 Y97.751 E951.3548
G0 F7200 X9.857 Y98.44
; TYPE:FILL
G1 F1560 X9.021 Y101.559 E951.48234
G0 F7200 X9.635 Y101.558
G1 F1560 X6.516 Y98.44 E951.65653
G0 F7200 X4.681 Y98.44
G1 F1560 X3.845 Y101.558 E951.78403
G0 F7200 X7.346 Y101.559
G1 F1560 X11.561 Y100.429 E951.95638
G1 F1800 E950.95638
G0 F7200 X188.25 Y101.75
; TYPE:WALL-INNER
G1 F1800 E951.95638
G1 F1560 X188.25 Y98.251 E952.09458
G1 X199.25 Y98.251 E952.52904
G1 X199.25 Y101.75 E952.66724
G1 X188.7 Y101.75 E953.08393
G0 F7200 X187.75 Y102.25
; TYPE:WALL-OUTER
G1 F1080 X187.75 Y97.751 E953.26162
G1 X199.75 Y97.751 E953.73558
G1 X199.75 Y102.25 E953.91327
G1 X188.2 Y102.25 E954.36945
G0 F7200 X190.195 Y101.558
; TYPE:FILL
G1 F1560 X191.031 Y98.439 E954.49699
G0 F7200 X190.365 Y98.441
G1 F1560 X193.483 Y101.559 E954.67115
G0 F7200 X195.371 Y101.559
G1 F1560 X196.207 Y98.44 E954.79869
G0 F7200 X197.435 Y98.44
G1 F1560 X199.059 Y100.064 E954.8894
G0 F7200 X192.85 Y98.44
G1 F1560 X188.439 Y99.622 E955.06977
; LAYER:35
M106 S255
M106 S178
G0 F7200 X188.31 Y99.499 Z7
; TYPE:BRIDGE
G1 F3600 X11.69 Y99.5 E962.04562
G0 F7200 X11.69 Y99
G1 F3600 X188.31 Y98.999 E969.02148
G0 F7200 X188.31 Y98.499
G1 F3600 X11.69 Y98.5 E975.99733
G0 F7200 X11.69 Y100
G1 F3600 X188.31 Y99.999 E982.97319
G0 F7200 X188.31 Y100.499
G1 F3600 X11.69 Y100.5 E989.94905
G0 F7200 X11.69 Y101
G1 F3600 X188.31 Y100.999 E996.9249
G0 F7200 X188.31 Y101.499
G1 F3600 X11.69 Y101.5 E1003.90076
G1 F1800 E1002.90076
G0 F7200 X0.751 Y101.75
; TYPE:WALL-INNER
G1 F1800 E1003.90076
G1 F7200 X0.751 Y98.251 E1004.03896
G1 X199.25 Y98.251 E1011.87895
G1 X199.25 Y101.75 E1012.01715
G1 X1.201 Y101.75 E1019.83938
G0 X0.251 Y102.25
; TYPE:WALL-OUTER
G1 F5040 X0.251 Y97.751 E1020.01707
G1 X199.75 Y97.751 E1027.89656
G1 X199.75 Y102.25 E1028.07426
G1 X0.701 Y102.25 E1035.93598
G0 F7200 X2.564 Y101.559
; TYPE:FILL
G1 X0.941 Y99.936 E1036.02664
G0 X3.845 Y101.558
G1 X4.681 Y98.44 E1036.15413
G0 X6.515 Y98.439
G1 X9.635 Y101.558 E1036.32838
G0 X9.021 Y101.559
G1 X9.857 Y98.44 E1036.45592
G0 X12.311 Y100.228
G1 X7.346 Y101.559 E1036.65894
G1 F1800 E1035.65894
G0 F7200 X187.689 Y99.823
G1 F1800 E1036.65894
G1 F7200 X192.85 Y98.44 E1036.86997
G0 X191.03 Y98.44
G1 X190.195 Y101.558 E1036.99746
G0 X190.365 Y98.441
G1 X193.484 Y101.56 E1037.17168
G0 X195.371 Y101.559
G1 X196.207 Y98.44 E1037.29922
G0 X197.435 Y98.44
G1 X199.059 Y100.064 E1037.38993
; LAYER:36
G0 X199.25 Y101.75 Z7.2
; TYPE:WALL-INNER
G1 X0.751 Y101.75 E1045.22992
G1 X0.751 Y98.251 E1045.36812
G1 X199.25 Y98.251 E1053.20812
G1 X199.25 Y101.3 E1053.32855
G0 X199.75 Y102.25
; TYPE:WALL-OUTER
G1 F5040 X0.251 Y102.25 E1061.20804
G1 X0.251 Y97.751 E1061.38573
G1 X199.75 Y97.751 E1069.26523
G1 X199.75 Y101.8 E1069.42515
G0 F7200 X199.059 Y100.064
; TYPE:FILL
G1 X197.435 Y98.44 E1069.51586
G0 X196.207 Y98.44
G1 X195.371 Y101.559 E1069.6434
G0 X193.484 Y101.56
G1 X190.365 Y98.441 E1069.81761
G0 X191.03 Y98.44
G1 X190.195 Y101.558 E1069.9451
G0 X188.309 Y101.335
G1 X185.415 Y98.441 E1070.10675
G0 X184.708 Y98.441
G1 X187.827 Y101.56 E1070.28097
G0 X187.12 Y101.56
G1 X184.001 Y98.441 E1070.45518
G0 X183.294 Y98.441
G1 X186.413 Y101.56 E1070.6294
G0 X185.706 Y101.56
G1 X182.586 Y98.441 E1070.80364
G0 X181.879 Y98.441
G1 X184.998 Y101.56 E1070.97786
G0 X184.291 Y101.56
G1 X181.172 Y98.441 E1071.15207
G0 X180.465 Y98.441
G1 X183.584 Y101.56 E1071.32629
G0 X182.877 Y101.56
G1 X179.758 Y98.441 E1071.50051
G0 X179.051 Y98.441
G1 X182.17 Y101.56 E1071.67472
G0 X181.463 Y101.56
G1 X178.344 Y98.441 E1071.84894
G0 X177.637 Y98.441
G1 X180.756 Y101.56 E1072.02315
G0 X180.049 Y101.56
G1 X176.93 Y98.441 E1072.19737
G0 X176.223 Y98.441
G1 X179.342 Y101.56 E1072.37159
G0 X178.634 Y101.56
G1 X175.515 Y98.441 E1072.5458
G0 X174.808 Y98.441
G1 X177.927 Y101.56 E1072.72002
G0 X177.22 Y101.56
G1 X174.101 Y98.441 E1072.89423
G0 X173.394 Y98.441
G1 X176.513 Y101.56 E1073.06845
G0 X175.806 Y101.56
G1 X172.687 Y98.441 E1073.24267
G0 X171.98 Y98.441
G1 X175.099 Y101.56 E1073.41688
G0 X174.392 Y101.56
G1 X171.273 Y98.441 E1073.5911
G0 X170.566 Y98.441
G1 X173.685 Y101.56 E1073.76531
G0 X172.978 Y101.56
G1 X169.859 Y98.441 E1073.93953
G0 X169.151 Y98.441
G1 X172.271 Y101.56 E1074.11377
G0 X171.563 Y101.56
G1 X168.444 Y98.441 E1074.28799
G0 X167.737 Y98.441
G1 X170.856 Y101.56 E1074.46221
G0 X170.149 Y101.56
G1 X167.03 Y98.441 E1074.63642
G0 X166.323 Y98.441
G1 X169.442 Y101.56 E1074.81064
G0 X168.735 Y101.56
G1 X165.616 Y98.441 E1074.98485
G0 X164.909 Y98.441
G1 X168.028 Y101.56 E1075.15907
G0 X167.321 Y101.56
G1 X164.202 Y98.441 E1075.33329
G0 X163.495 Y98.441
G1 X166.614 Y101.56 E1075.5075
G0 X165.907 Y101.56
G1 X162.788 Y98.441 E1075.68172
G0 X162.08 Y98.441
G1 X165.199 Y101.56 E1075.85593
G0 X164.492 Y101.56
G1 X161.373 Y98.441 E1076.03015
G0 X160.666 Y98.441
G1 X163.785 Y101.56 E1076.20437
G0 X163.078 Y101.56
G1 X159.959 Y98.441 E1076.37858
G0 X159.252 Y98.441
G1 X162.371 Y101.56 E1076.5528
G0 X161.664 Y101.56
G1 X158.545 Y98.441 E1076.72701
G0 X157.838 Y98.441
G1 X160.957 Y101.56 E1076.90123
G0 X160.25 Y101.56
G1 X157.131 Y98.441 E1077.07545
G0 X156.424 Y98.441
G1 X159.543 Y101.56 E1077.24966
G0 X158.835 Y101.56
G1 X155.716 Y98.441 E1077.42388
G0 X155.009 Y98.441
G1 X158.128 Y101.56 E1077.59809
G0 X157.421 Y101.56
G1 X154.302 Y98.441 E1077.77231
G0 X153.595 Y98.441
G1 X156.714 Y101.56 E1077.94653
G0 X156.007 Y101.56
G1 X152.888 Y98.441 E1078.12074
G0 X152.181 Y98.441
G1 X155.3 Y101.56 E1078.29496
G0 X154.593 Y101.56
G1 X151.474 Y98.441 E1078.46917
G0 X150.767 Y98.441
G1 X153.886 Y101.56 E1078.64339
G0 X153.179 Y101.56
G1 X150.06 Y98.441 E1078.81761
G0 X149.352 Y98.441
G1 X152.472 Y101.56 E1078.99185
G0 X151.764 Y101.56
G1 X148.645 Y98.441 E1079.16607
G0 X147.938 Y98.441
G1 X151.057 Y101.56 E1079.34028
G0 X150.35 Y101.56
G1 X147.231 Y98.441 E1079.5145
G0 X146.524 Y98.441
G1 X149.643 Y101.56 E1079.68871
G0 X148.936 Y101.56
G1 X145.817 Y98.441 E1079.86293
G0 X145.11 Y98.441
G1 X148.229 Y101.56 E1080.03715
G0 X147.522 Y101.56
G1 X144.403 Y98.441 E1080.21136
G0 X143.696 Y98.441
G1 X146.815 Y101.56 E1080.38558
G0 X146.108 Y101.56
G1 X142.989 Y98.441 E1080.55979
G0 X142.281 Y98.441
G1 X145.4 Y101.56 E1080.73401
G0 X144.693 Y101.56
G1 X141.574 Y98.441 E1080.90823
G0 X140.867 Y98.441
G1 X143.986 Y101.559 E1081.08241
G0 X143.278 Y101.559
G1 X140.16 Y98.441 E1081.25657
G0 X139.453 Y98.441
G1 X142.571 Y101.559 E1081.43073
G0 X141.864 Y101.559
G1 X138.746 Y98.441 E1081.60489
G0 X138.039 Y98.441
G1 X141.157 Y101.559 E1081.77905
G0 X140.45 Y101.559
G1 X137.332 Y98.441 E1081.95321
G0 X136.625 Y98.441
G1 X139.743 Y101.559 E1082.12737
G0 X139.036 Y101.559
G1 X135.917 Y98.441 E1082.30156
G0 X135.21 Y98.441
G1 X138.329 Y101.559 E1082.47575
G0 X137.622 Y101.559
G1 X134.503 Y98.441 E1082.64994
G0 X133.796 Y98.441
G1 X136.914 Y101.559 E1082.8241
G0 X136.207 Y101.559
G1 X133.089 Y98.441 E1082.99826
G0 X132.382 Y98.441
G1 X135.5 Y101.559 E1083.17242
G0 X134.793 Y101.559
G1 X131.675 Y98.441 E1083.34658
G0 X130.968 Y98.441
G1 X134.086 Y101.559 E1083.52074
G0 X133.379 Y101.559
G1 X130.261 Y98.441 E1083.6949
G0 X129.553 Y98.441
G1 X132.672 Y101.559 E1083.86909
G0 X131.965 Y101.559
G1 X128.846 Y98.441 E1084.04328
G0 X128.139 Y98.441
G1 X131.258 Y101.559 E1084.21746
G0 X130.551 Y101.559
G1 X127.432 Y98.441 E1084.39165
G0 X126.725 Y98.441
G1 X129.843 Y101.559 E1084.56581
G0 X129.136 Y101.559
G1 X126.018 Y98.441 E1084.73997
G0 X125.311 Y98.441
G1 X128.429 Y101.559 E1084.91413
G0 X127.722 Y101.559
G1 X124.604 Y98.441 E1085.08829
G0 X123.897 Y98.441
G1 X127.015 Y101.559 E1085.26245
G0 X126.308 Y101.559
G1 X123.19 Y98.441 E1085.43661
G0 X122.482 Y98.441
G1 X125.601 Y101.559 E1085.6108
G0 X124.894 Y101.559
G1 X121.775 Y98.441 E1085.78499
G0 X121.068 Y98.441
G1 X124.187 Y101.559 E1085.95918
G0 X123.479 Y101.559
G1 X120.361 Y98.441 E1086.13334
G0 X119.654 Y98.441
G1 X122.772 Y101.559 E1086.3075
G0 X122.065 Y101.559
G1 X118.947 Y98.441 E1086.48166
G0 X118.24 Y98.441
G1 X121.358 Y101.559 E1086.65582
G0 X120.651 Y101.559
G1 X117.533 Y98.441 E1086.82998
G0 X116.826 Y98.441
G1 X119.944 Y101.559 E1087.00414
G0 X119.237 Y101.559
G1 X116.118 Y98.441 E1087.17833
G0 X115.411 Y98.441
G1 X118.53 Y101.559 E1087.35251
G0 X117.823 Y101.559
G1 X114.704 Y98.441 E1087.5267
G0 X113.997 Y98.441
G1 X117.115 Y101.559 E1087.70086
G0 X116.408 Y101.559
G1 X113.29 Y98.441 E1087.87502
G0 X112.583 Y98.441
G1 X115.701 Y101.559 E1088.04918
G0 X114.994 Y101.559
G1 X111.876 Y98.441 E1088.22334
G0 X111.169 Y98.441
G1 X114.287 Y101.559 E1088.3975
G0 X113.58 Y101.559
G1 X110.462 Y98.441 E1088.57166
G0 X109.754 Y98.441
G1 X112.873 Y101.559 E1088.74585
G0 X112.166 Y101.559
G1 X109.047 Y98.441 E1088.92004
G0 X108.34 Y98.441
G1 X111.459 Y101.559 E1089.09423
G0 X110.752 Y101.559
G1 X107.633 Y98.441 E1089.26841
G0 X106.926 Y98.441
G1 X110.044 Y101.559 E1089.44257
G0 X109.337 Y101.559
G1 X106.219 Y98.441 E1089.61674
G0 X105.512 Y98.441
G1 X108.63 Y101.559 E1089.7909
G0 X107.923 Y101.559
G1 X104.805 Y98.441 E1089.96506
G0 X104.098 Y98.441
G1 X107.216 Y101.559 E1090.13922
G0 X106.509 Y101.559
G1 X103.391 Y98.441 E1090.31338
G0 X102.683 Y98.441
G1 X105.802 Y101.559 E1090.48756
G0 X105.095 Y101.559
G1 X101.976 Y98.441 E1090.66175
G0 X101.269 Y98.441
G1 X104.388 Y101.559 E1090.83594
G0 X103.68 Y101.559
G1 X100.562 Y98.441 E1091.0101
G0 X99.854 Y98.44
G1 X102.973 Y101.559 E1091.18432
G0 X102.266 Y101.559
G1 X99.147 Y98.44 E1091.35853
G0 X98.44 Y98.44
G1 X101.559 Y101.559 E1091.53275
G0 X100.852 Y101.559
G1 X97.733 Y98.44 E1091.70696
G0 X97.026 Y98.44
G1 X100.145 Y101.559 E1091.88118
G0 X99.438 Y101.559
G1 X96.319 Y98.44 E1092.0554
G0 X95.612 Y98.44
G1 X98.731 Y101.559 E1092.22961
G0 X98.024 Y101.559
G1 X94.905 Y98.44 E1092.40383
G0 X94.197 Y98.44
G1 X97.316 Y101.559 E1092.57804
G0 X96.609 Y101.559
G1 X93.49 Y98.44 E1092.75226
G0 X92.783 Y98.44
G1 X95.902 Y101.559 E1092.92648
G0 X95.195 Y101.559
G1 X92.076 Y98.44 E1093.10069
G0 X91.369 Y98.44
G1 X94.488 Y101.559 E1093.27491
G0 X93.781 Y101.559
G1 X90.662 Y98.44 E1093.44912
G0 X89.955 Y98.44
G1 X93.074 Y101.559 E1093.62334
G0 X92.367 Y101.559
G1 X89.248 Y98.44 E1093.79756
G0 X88.541 Y98.44
G1 X91.66 Y101.559 E1093.97177
G0 X90.953 Y101.559
G1 X87.833 Y98.44 E1094.14602
G0 X87.126 Y98.44
G1 X90.245 Y101.559 E1094.32023
G0 X89.538 Y101.559
G1 X86.419 Y98.44 E1094.49445
G0 X85.712 Y98.44
G1 X88.831 Y101.559 E1094.66866
G0 X88.124 Y101.559
G1 X85.005 Y98.44 E1094.84288
G0 X84.298 Y98.44
G1 X87.417 Y101.559 E1095.0171
G0 X86.71 Y101.559
G1 X83.591 Y98.44 E1095.19131
G0 X82.884 Y98.44
G1 X86.003 Y101.559 E1095.36553
G0 X85.296 Y101.559
G1 X82.177 Y98.44 E1095.53974
G0 X81.47 Y98.44
G1 X84.589 Y101.559 E1095.71396
G0 X83.881 Y101.559
G1 X80.762 Y98.44 E1095.88818
G0 X80.055 Y98.44
G1 X83.174 Y101.559 E1096.06239
G0 X82.467 Y101.559
G1 X79.348 Y98.44 E1096.23661
G0 X78.641 Y98.44
G1 X81.76 Y101.559 E1096.41082
G0 X81.053 Y101.559
G1 X77.934 Y98.44 E1096.58504
G0 X77.227 Y98.44
G1 X80.346 Y101.559 E1096.75926
G0 X79.639 Y101.559
G1 X76.52 Y98.44 E1096.93347
G0 X75.813 Y98.44
G1 X78.932 Y101.559 E1097.10769
G0 X78.225 Y101.559
G1 X75.106 Y98.44 E1097.2819
G0 X74.398 Y98.44
G1 X77.517 Y101.559 E1097.45612
G0 X76.81 Y101.559
G1 X73.691 Y98.44 E1097.63034
G0 X72.984 Y98.44
G1 X76.103 Y101.559 E1097.80455
G0 X75.396 Y101.559
G1 X72.277 Y98.44 E1097.97877
G0 X71.57 Y98.44
G1 X74.689 Y101.559 E1098.15298
G0 X73.982 Y101.559
G1 X70.863 Y98.44 E1098.3272
G0 X70.156 Y98.44
G1 X73.275 Y101.559 E1098.50142
G0 X72.568 Y101.559
G1 X69.449 Y98.44 E1098.67563
G0 X68.742 Y98.44
G1 X71.861 Y101.559 E1098.84985
G0 X71.154 Y101.559
G1 X68.034 Y98.44 E1099.02409
G0 X67.327 Y98.44
G1 X70.446 Y101.559 E1099.19831
G0 X69.739 Y101.559
G1 X66.62 Y98.44 E1099.37252
G0 X65.913 Y98.44
G1 X69.032 Y101.559 E1099.54674
G0 X68.325 Y101.559
G1 X65.206 Y98.44 E1099.72095
G0 X64.499 Y98.44
G1 X67.618 Y101.559 E1099.89517
G0 X66.911 Y101.559
G1 X63.792 Y98.44 E1100.06939
G0 X63.085 Y98.44
G1 X66.204 Y101.559 E1100.2436
G0 X65.497 Y101.559
G1 X62.378 Y98.44 E1100.41782
G0 X61.671 Y98.44
G1 X64.79 Y101.559 E1100.59203
G0 X64.082 Y101.559
G1 X60.963 Y98.44 E1100.76625
G0 X60.256 Y98.44
G1 X63.375 Y101.559 E1100.94047
G0 X62.668 Y101.559
G1 X59.549 Y98.44 E1101.11468
G0 X58.842 Y98.44
G1 X61.961 Y101.559 E1101.2889
G0 X61.254 Y101.559
G1 X58.135 Y98.44 E1101.46311
G0 X57.428 Y98.44
G1 X60.547 Y101.559 E1101.63733
G0 X59.84 Y101.559
G1 X56.721 Y98.44 E1101.81155
G0 X56.014 Y98.44
G1 X59.133 Y101.559 E1101.98576
G0 X58.426 Y101.559
G1 X55.307 Y98.44 E1102.15998
G0 X54.599 Y98.44
G1 X57.719 Y101.559 E1102.33422
G0 X57.011 Y101.559
G1 X53.892 Y98.44 E1102.50844
G0 X53.185 Y98.44
G1 X56.304 Y101.559 E1102.68265
G0 X55.596 Y101.558
G1 X52.478 Y98.44 E1102.85681
G0 X51.771 Y98.44
G1 X54.889 Y101.558 E1103.03097
G0 X54.182 Y101.558
G1 X51.064 Y98.44 E1103.20514
G0 X50.357 Y98.44
G1 X53.475 Y101.558 E1103.3793
G0 X52.768 Y101.558
G1 X49.65 Y98.44 E1103.55346
G0 X48.943 Y98.44
G1 X52.061 Y101.558 E1103.72762
G0 X51.354 Y101.558
G1 X48.235 Y98.44 E1103.9018
G0 X47.528 Y98.44
G1 X50.647 Y101.558 E1104.07599
G0 X49.94 Y101.558
G1 X46.821 Y98.44 E1104.25018
G0 X46.114 Y98.44
G1 X49.233 Y101.558 E1104.42437
G0 X48.525 Y101.558
G1 X45.407 Y98.44 E1104.59853
G0 X44.7 Y98.44
G1 X47.818 Y101.558 E1104.77269
G0 X47.111 Y101.558
G1 X43.993 Y98.44 E1104.94685
G0 X43.286 Y98.44
G1 X46.404 Y101.558 E1105.12101
G0 X45.697 Y101.558
G1 X42.579 Y98.44 E1105.29517
G0 X41.872 Y98.44
G1 X44.99 Y101.558 E1105.46933
G0 X44.283 Y101.558
G1 X41.164 Y98.44 E1105.64352
G0 X40.457 Y98.44
G1 X43.576 Y101.558 E1105.8177
G0 X42.869 Y101.558
G1 X39.75 Y98.44 E1105.99189
G0 X39.043 Y98.44
G1 X42.161 Y101.558 E1106.16605
G0 X41.454 Y101.558
G1 X38.336 Y98.44 E1106.34021
G0 X37.629 Y98.44
G1 X40.747 Y101.558 E1106.51437
G0 X40.04 Y101.558
G1 X36.922 Y98.44 E1106.68853
G0 X36.215 Y98.44
G1 X39.333 Y101.558 E1106.86269
G0 X38.626 Y101.558
G1 X35.508 Y98.44 E1107.03685
G0 X34.8 Y98.44
G1 X37.919 Y101.558 E1107.21104
G0 X37.212 Y101.558
G1 X34.093 Y98.44 E1107.38523
G0 X33.386 Y98.44
G1 X36.505 Y101.558 E1107.55942
G0 X35.797 Y101.558
G1 X32.679 Y98.44 E1107.73358
G0 X31.972 Y98.44
G1 X35.09 Y101.558 E1107.90774
G0 X34.383 Y101.558
G1 X31.265 Y98.44 E1108.0819
G0 X30.558 Y98.44
G1 X33.676 Y101.558 E1108.25606
G0 X32.969 Y101.558
G1 X29.851 Y98.44 E1108.43022
G0 X29.144 Y98.44
G1 X32.262 Y101.558 E1108.60438
G0 X31.555 Y101.558
G1 X28.437 Y98.44 E1108.77854
G0 X27.729 Y98.44
G1 X30.848 Y101.558 E1108.95273
G0 X30.141 Y101.558
G1 X27.022 Y98.44 E1109.12691
G0 X26.315 Y98.44
G1 X29.434 Y101.558 E1109.3011
G0 X28.726 Y101.558
G1 X25.608 Y98.44 E1109.47526
G0 X24.901 Y98.44
G1 X28.019 Y101.558 E1109.64942
G0 X27.312 Y101.558
G1 X24.194 Y98.44 E1109.82358
G0 X23.487 Y98.44
G1 X26.605 Y101.558 E1109.99774
G0 X25.898 Y101.558
G1 X22.78 Y98.44 E1110.1719
G0 X22.073 Y98.44
G1 X25.191 Y101.558 E1110.34606
G0 X24.484 Y101.558
G1 X21.365 Y98.44 E1110.52025
G0 X20.658 Y98.44
G1 X23.777 Y101.558 E1110.69444
G0 X23.07 Y101.558
G1 X19.951 Y98.44 E1110.86863
G0 X19.244 Y98.44
G1 X22.362 Y101.558 E1111.04279
G0 X21.655 Y101.558
G1 X18.537 Y98.44 E1111.21695
G0 X17.83 Y98.44
G1 X20.948 Y101.558 E1111.39111
G0 X20.241 Y101.558
G1 X17.123 Y98.44 E1111.56527
G0 X16.416 Y98.44
G1 X19.534 Y101.558 E1111.73943
G0 X18.827 Y101.558
G1 X15.709 Y98.44 E1111.91359
G0 X15.001 Y98.44
G1 X18.12 Y101.558 E1112.08778
G0 X17.413 Y101.558
G1 X14.294 Y98.44 E1112.26196
G0 X13.587 Y98.44
G1 X16.706 Y101.558 E1112.43615
G0 X15.998 Y101.558
G1 X12.88 Y98.44 E1112.61031
G0 X12.173 Y98.44
G1 X15.291 Y101.558 E1112.78447
G0 X14.584 Y101.558
G1 X11.691 Y98.665 E1112.94607
G0 X11.691 Y99.372
G1 X13.877 Y101.558 E1113.06817
G0 X13.17 Y101.558
G1 X11.691 Y100.079 E1113.15078
G0 X12.311 Y100.228
G1 X7.346 Y101.559 E1113.3538
G0 X9.021 Y101.559
G1 X9.857 Y98.44 E1113.48134
G0 X11.691 Y100.786
G1 X12.463 Y101.558 E1113.52446
G0 X11.756 Y101.558
G1 X11.691 Y101.493 E1113.52809
G0 X9.635 Y101.558
G1 X6.515 Y98.439 E1113.70234
G0 X4.681 Y98.44
G1 X3.845 Y101.558 E1113.82984
G0 X2.564 Y101.559
G1 X0.941 Y99.936 E1113.92049
G1 F1800 E1112.92049
G0 F7200 X186.122 Y98.441
G1 F1800 E1113.92049
G1 F7200 X188.309 Y100.628 E1114.04265
G0 X188.308 Y99.92
G1 X186.829 Y98.441 E1114.12526
G0 X187.536 Y98.441
G1 X188.308 Y99.213 E1114.16838
G0 X188.308 Y98.506
G1 X188.243 Y98.441 E1114.17201
G0 X187.689 Y99.823
G1 X192.85 Y98.44 E1114.38304
; LAYER:37
G0 X199.25 Y98.251 Z7.4
; TYPE:WALL-INNER
G1 X199.25 Y101.75 E1114.52124
G1 X0.751 Y101.75 E1122.36124
G1 X0.751 Y98.251 E1122.49944
G1 X198.8 Y98.251 E1130.32166
G0 X199.75 Y97.751
; TYPE:WALL-OUTER
G1 F5040 X199.75 Y102.25 E1130.49936
G1 X0.251 Y102.25 E1138.37885
G1 X0.251 Y97.751 E1138.55655
G1 X199.3 Y97.751 E1146.41827
G0 F7200 X199.059 Y100.064
; TYPE:FILL
G1 X197.435 Y98.44 E1146.50898
G0 X196.207 Y98.44
G1 X195.371 Y101.559 E1146.63652
G0 X193.484 Y101.56
G1 X190.365 Y98.441 E1146.81073
G0 X191.03 Y98.44
G1 X190.195 Y101.558 E1146.93822
G0 X188.309 Y100.897
G1 X187.646 Y101.56 E1146.97525
G0 X186.939 Y101.56
G1 X188.309 Y100.189 E1147.0518
G0 X188.308 Y99.483
G1 X186.232 Y101.56 E1147.16779
G0 X185.525 Y101.56
G1 X188.308 Y98.776 E1147.32327
G0 X187.936 Y98.441
G1 X184.817 Y101.56 E1147.49748
G0 X184.11 Y101.56
G1 X187.229 Y98.441 E1147.6717
G0 X186.522 Y98.441
G1 X183.403 Y101.56 E1147.84591
G0 X182.696 Y101.56
G1 X185.815 Y98.441 E1148.02013
G0 X185.108 Y98.441
G1 X181.989 Y101.56 E1148.19435
G0 X181.282 Y101.56
G1 X184.401 Y98.441 E1148.36856
G0 X183.694 Y98.441
G1 X180.575 Y101.56 E1148.54278
G0 X179.868 Y101.56
G1 X182.987 Y98.441 E1148.71699
G0 X182.28 Y98.441
G1 X179.161 Y101.56 E1148.89121
G0 X178.453 Y101.56
G1 X181.573 Y98.441 E1149.06545
G0 X180.865 Y98.441
G1 X177.746 Y101.56 E1149.23967
G0 X177.039 Y101.56
G1 X180.158 Y98.441 E1149.41389
G0 X179.451 Y98.441
G1 X176.332 Y101.56 E1149.5881
G0 X175.625 Y101.56
G1 X178.744 Y98.441 E1149.76232
G0 X178.037 Y98.441
G1 X174.918 Y101.56 E1149.93653
G0 X174.211 Y101.56
G1 X177.33 Y98.441 E1150.11075
G0 X176.623 Y98.441
G1 X173.504 Y101.56 E1150.28497
G0 X172.797 Y101.56
G1 X175.916 Y98.441 E1150.45918
G0 X175.209 Y98.441
G1 X172.089 Y101.56 E1150.63343
G0 X171.382 Y101.56
G1 X174.501 Y98.441 E1150.80764
G0 X173.794 Y98.441
G1 X170.675 Y101.56 E1150.98186
G0 X169.968 Y101.56
G1 X173.087 Y98.441 E1151.15607
G0 X172.38 Y98.441
G1 X169.261 Y101.56 E1151.33029
G0 X168.554 Y101.56
G1 X171.673 Y98.441 E1151.50451
G0 X170.966 Y98.441
G1 X167.847 Y101.56 E1151.67872
G0 X167.14 Y101.56
G1 X170.259 Y98.441 E1151.85294
G0 X169.552 Y98.441
G1 X166.433 Y101.56 E1152.02715
G0 X165.726 Y101.56
G1 X168.845 Y98.441 E1152.20137
G0 X168.137 Y98.441
G1 X165.018 Y101.56 E1152.37559
G0 X164.311 Y101.56
G1 X167.43 Y98.441 E1152.5498
G0 X166.723 Y98.441
G1 X163.604 Y101.56 E1152.72402
G0 X162.897 Y101.56
G1 X166.016 Y98.441 E1152.89823
G0 X165.309 Y98.441
G1 X162.19 Y101.56 E1153.07245
G0 X161.483 Y101.56
G1 X164.602 Y98.441 E1153.24667
G0 X163.895 Y98.441
G1 X160.776 Y101.56 E1153.42088
G0 X160.069 Y101.56
G1 X163.188 Y98.441 E1153.5951
G0 X162.481 Y98.441
G1 X159.362 Y101.56 E1153.76931
G0 X158.654 Y101.56
G1 X161.774 Y98.441 E1153.94356
G0 X161.066 Y98.441
G1 X157.947 Y101.56 E1154.11777
G0 X157.24 Y101.56
G1 X160.359 Y98.441 E1154.29199
G0 X159.652 Y98.441
G1 X156.533 Y101.56 E1154.46621
G0 X155.826 Y101.56
G1 X158.945 Y98.441 E1154.64042
G0 X158.238 Y98.441
G1 X155.119 Y101.56 E1154.81464
G0 X154.412 Y101.56
G1 X157.531 Y98.441 E1154.98885
G0 X156.824 Y98.441
G1 X153.705 Y101.56 E1155.16307
G0 X152.998 Y101.56
G1 X156.117 Y98.441 E1155.33729
G0 X155.41 Y98.441
G1 X152.291 Y101.56 E1155.5115
G0 X151.583 Y101.56
G1 X154.702 Y98.441 E1155.68572
G0 X153.995 Y98.441
G1 X150.876 Y101.56 E1155.85993
G0 X150.169 Y101.56
G1 X153.288 Y98.441 E1156.03415
G0 X152.581 Y98.441
G1 X149.462 Y101.56 E1156.20837
G0 X148.755 Y101.56
G1 X151.874 Y98.441 E1156.38258
G0 X151.167 Y98.441
G1 X148.048 Y101.56 E1156.5568
G0 X147.341 Y101.56
G1 X150.46 Y98.441 E1156.73101
G0 X149.753 Y98.441
G1 X146.634 Y101.56 E1156.90523
G0 X145.927 Y101.56
G1 X149.046 Y98.441 E1157.07945
G0 X148.338 Y98.441
G1 X145.219 Y101.56 E1157.25366
G0 X144.512 Y101.56
G1 X147.631 Y98.441 E1157.42788
G0 X146.924 Y98.441
G1 X143.806 Y101.559 E1157.60204
G0 X143.099 Y101.559
G1 X146.217 Y98.441 E1157.7762
G0 X145.51 Y98.441
G1 X142.392 Y101.559 E1157.95036
G0 X141.685 Y101.559
G1 X144.803 Y98.441 E1158.12452
G0 X144.096 Y98.441
G1 X140.978 Y101.559 E1158.29868
G0 X140.27 Y101.559
G1 X143.389 Y98.441 E1158.47287
G0 X142.682 Y98.441
G1 X139.563 Y101.559 E1158.64705
G0 X138.856 Y101.559
G1 X141.975 Y98.441 E1158.82124
G0 X141.267 Y98.441
G1 X138.149 Y101.559 E1158.9954
G0 X137.442 Y101.559
G1 X140.56 Y98.441 E1159.16956
G0 X139.853 Y98.441
G1 X136.735 Y101.559 E1159.34372
G0 X136.028 Y101.559
G1 X139.146 Y98.441 E1159.51788
G0 X138.439 Y98.441
G1 X135.321 Y101.559 E1159.69204
G0 X134.614 Y101.559
G1 X137.732 Y98.441 E1159.8662
G0 X137.025 Y98.441
G1 X133.906 Y101.559 E1160.04039
G0 X133.199 Y101.559
G1 X136.318 Y98.441 E1160.21458
G0 X135.611 Y98.441
G1 X132.492 Y101.559 E1160.38877
G0 X131.785 Y101.559
G1 X134.903 Y98.441 E1160.56293
G0 X134.196 Y98.441
G1 X131.078 Y101.559 E1160.73709
G0 X130.371 Y101.559
G1 X133.489 Y98.441 E1160.91125
G0 X132.782 Y98.441
G1 X129.664 Y101.559 E1161.08541
G0 X128.957 Y101.559
G1 X132.075 Y98.441 E1161.25957
G0 X131.368 Y98.441
G1 X128.25 Y101.559 E1161.43373
G0 X127.542 Y101.559
G1 X130.661 Y98.441 E1161.60792
G0 X129.954 Y98.441
G1 X126.835 Y101.559 E1161.7821
G0 X126.128 Y101.559
G1 X129.247 Y98.441 E1161.95629
G0 X128.539 Y98.441
G1 X125.421 Y101.559 E1162.13045
G0 X124.714 Y101.559
G1 X127.832 Y98.441 E1162.30461
G0 X127.125 Y98.441
G1 X124.007 Y101.559 E1162.47877
G0 X123.3 Y101.559
G1 X126.418 Y98.441 E1162.65293
G0 X125.711 Y98.441
G1 X122.593 Y101.559 E1162.82709
G0 X121.886 Y101.559
G1 X125.004 Y98.441 E1163.00125
G0 X124.297 Y98.441
G1 X121.179 Y101.559 E1163.17541
G0 X120.471 Y101.559
G1 X123.59 Y98.441 E1163.3496
G0 X122.883 Y98.441
G1 X119.764 Y101.559 E1163.52379
G0 X119.057 Y101.559
G1 X122.176 Y98.441 E1163.69798
G0 X121.468 Y98.441
G1 X118.35 Y101.559 E1163.87214
G0 X117.643 Y101.559
G1 X120.761 Y98.441 E1164.0463
G0 X120.054 Y98.441
G1 X116.936 Y101.559 E1164.22046
G0 X116.229 Y101.559
G1 X119.347 Y98.441 E1164.39462
G0 X118.64 Y98.441
G1 X115.522 Y101.559 E1164.56878
G0 X114.815 Y101.559
G1 X117.933 Y98.441 E1164.74294
G0 X117.226 Y98.441
G1 X114.107 Y101.559 E1164.91713
G0 X113.4 Y101.559
G1 X116.519 Y98.441 E1165.09131
G0 X115.812 Y98.441
G1 X112.693 Y101.559 E1165.2655
G0 X111.986 Y101.559
G1 X115.104 Y98.441 E1165.43966
G0 X114.397 Y98.441
G1 X111.279 Y101.559 E1165.61382
G0 X110.572 Y101.559
G1 X113.69 Y98.441 E1165.78798
G0 X112.983 Y98.441
G1 X109.865 Y101.559 E1165.96214
G0 X109.158 Y101.559
G1 X112.276 Y98.441 E1166.1363
G0 X111.569 Y98.441
G1 X108.451 Y101.559 E1166.31046
G0 X107.743 Y101.559
G1 X110.862 Y98.441 E1166.48465
G0 X110.155 Y98.441
G1 X107.036 Y101.559 E1166.65884
G0 X106.329 Y101.559
G1 X109.448 Y98.441 E1166.83303
G0 X108.741 Y98.441
G1 X105.622 Y101.559 E1167.00721
G0 X104.915 Y101.559
G1 X108.033 Y98.441 E1167.18138
G0 X107.326 Y98.441
G1 X104.208 Y101.559 E1167.35554
G0 X103.501 Y101.559
G1 X106.619 Y98.441 E1167.5297
G0 X105.912 Y98.441
G1 X102.794 Y101.559 E1167.70386
G0 X102.087 Y101.559
G1 X105.205 Y98.441 E1167.87802
G0 X104.498 Y98.441
G1 X101.38 Y101.559 E1168.05218
G0 X100.672 Y101.559
G1 X103.791 Y98.441 E1168.22636
G0 X103.084 Y98.441
G1 X99.965 Y101.559 E1168.40055
G0 X99.258 Y101.559
G1 X102.377 Y98.441 E1168.57474
G0 X101.669 Y98.441
G1 X98.551 Y101.559 E1168.7489
G0 X97.844 Y101.559
G1 X100.962 Y98.441 E1168.92306
G0 X100.255 Y98.441
G1 X97.137 Y101.559 E1169.09722
G0 X96.43 Y101.559
G1 X99.549 Y98.44 E1169.27144
G0 X98.842 Y98.44
G1 X95.723 Y101.559 E1169.44565
G0 X95.016 Y101.559
G1 X98.135 Y98.44 E1169.61987
G0 X97.428 Y98.44
G1 X94.308 Y101.559 E1169.79411
G0 X93.601 Y101.559
G1 X96.72 Y98.44 E1169.96833
G0 X96.013 Y98.44
G1 X92.894 Y101.559 E1170.14254
G0 X92.187 Y101.559
G1 X95.306 Y98.44 E1170.31676
G0 X94.599 Y98.44
G1 X91.48 Y101.559 E1170.49098
G0 X90.773 Y101.559
G1 X93.892 Y98.44 E1170.66519
G0 X93.185 Y98.44
G1 X90.066 Y101.559 E1170.83941
G0 X89.359 Y101.559
G1 X92.478 Y98.44 E1171.01362
G0 X91.771 Y98.44
G1 X88.652 Y101.559 E1171.18784
G0 X87.944 Y101.559
G1 X91.064 Y98.44 E1171.36208
G0 X90.356 Y98.44
G1 X87.237 Y101.559 E1171.5363
G0 X86.53 Y101.559
G1 X89.649 Y98.44 E1171.71052
G0 X88.942 Y98.44
G1 X85.823 Y101.559 E1171.88473
G0 X85.116 Y101.559
G1 X88.235 Y98.44 E1172.05895
G0 X87.528 Y98.44
G1 X84.409 Y101.559 E1172.23316
G0 X83.702 Y101.559
G1 X86.821 Y98.44 E1172.40738
G0 X86.114 Y98.44
G1 X82.995 Y101.559 E1172.5816
G0 X82.288 Y101.559
G1 X85.407 Y98.44 E1172.75581
G0 X84.7 Y98.44
G1 X81.581 Y101.559 E1172.93003
G0 X80.873 Y101.559
G1 X83.992 Y98.44 E1173.10424
G0 X83.285 Y98.44
G1 X80.166 Y101.559 E1173.27846
G0 X79.459 Y101.559
G1 X82.578 Y98.44 E1173.45268
G0 X81.871 Y98.44
G1 X78.752 Y101.559 E1173.62689
G0 X78.045 Y101.559
G1 X81.164 Y98.44 E1173.80111
G0 X80.457 Y98.44
G1 X77.338 Y101.559 E1173.97532
G0 X76.631 Y101.559
G1 X79.75 Y98.44 E1174.14954
G0 X79.043 Y98.44
G1 X75.924 Y101.559 E1174.32376
G0 X75.217 Y101.559
G1 X78.336 Y98.44 E1174.49797
G0 X77.629 Y98.44
G1 X74.509 Y101.559 E1174.67222
G0 X73.802 Y101.559
G1 X76.921 Y98.44 E1174.84643
G0 X76.214 Y98.44
G1 X73.095 Y101.559 E1175.02065
G0 X72.388 Y101.559
G1 X75.507 Y98.44 E1175.19486
G0 X74.8 Y98.44
G1 X71.681 Y101.559 E1175.36908
G0 X70.974 Y101.559
G1 X74.093 Y98.44 E1175.5433
G0 X73.386 Y98.44
G1 X70.267 Y101.559 E1175.71751
G0 X69.56 Y101.559
G1 X72.679 Y98.44 E1175.89173
G0 X71.972 Y98.44
G1 X68.853 Y101.559 E1176.06594
G0 X68.146 Y101.559
G1 X71.265 Y98.44 E1176.24016
G0 X70.557 Y98.44
G1 X67.438 Y101.559 E1176.41438
G0 X66.731 Y101.559
G1 X69.85 Y98.44 E1176.58859
G0 X69.143 Y98.44
G1 X66.024 Y101.559 E1176.76281
G0 X65.317 Y101.559
G1 X68.436 Y98.44 E1176.93702
G0 X67.729 Y98.44
G1 X64.61 Y101.559 E1177.11124
G0 X63.903 Y101.559
G1 X67.022 Y98.44 E1177.28546
G0 X66.315 Y98.44
G1 X63.196 Y101.559 E1177.45967
G0 X62.489 Y101.559
G1 X65.608 Y98.44 E1177.63389
G0 X64.901 Y98.44
G1 X61.782 Y101.559 E1177.8081
G0 X61.074 Y101.559
G1 X64.193 Y98.44 E1177.98232
G0 X63.486 Y98.44
G1 X60.367 Y101.559 E1178.15654
G0 X59.66 Y101.559
G1 X62.779 Y98.44 E1178.33075
G0 X62.072 Y98.44
G1 X58.953 Y101.559 E1178.50497
G0 X58.246 Y101.559
G1 X61.365 Y98.44 E1178.67918
G0 X60.658 Y98.44
G1 X57.539 Y101.559 E1178.8534
G0 X56.832 Y101.559
G1 X59.951 Y98.44 E1179.02762
G0 X59.244 Y98.44
G1 X56.125 Y101.559 E1179.20183
G0 X55.418 Y101.558
G1 X58.537 Y98.44 E1179.37602
G0 X57.83 Y98.44
G1 X54.711 Y101.558 E1179.55021
G0 X54.004 Y101.558
G1 X57.122 Y98.44 E1179.72437
G0 X56.415 Y98.44
G1 X53.297 Y101.558 E1179.89853
G0 X52.59 Y101.558
G1 X55.708 Y98.44 E1180.07269
G0 X55.001 Y98.44
G1 X51.883 Y101.558 E1180.24685
G0 X51.176 Y101.558
G1 X54.294 Y98.44 E1180.42101
G0 X53.587 Y98.44
G1 X50.469 Y101.558 E1180.59517
G0 X49.761 Y101.558
G1 X52.88 Y98.44 E1180.76936
G0 X52.173 Y98.44
G1 X49.054 Y101.558 E1180.94354
G0 X48.347 Y101.558
G1 X51.466 Y98.44 E1181.11773
G0 X50.758 Y98.44
G1 X47.64 Y101.558 E1181.29189
G0 X46.933 Y101.558
G1 X50.051 Y98.44 E1181.46605
G0 X49.344 Y98.44
G1 X46.226 Y101.558 E1181.64021
G0 X45.519 Y101.558
G1 X48.637 Y98.44 E1181.81437
G0 X47.93 Y98.44
G1 X44.812 Y101.558 E1181.98853
G0 X44.105 Y101.558
G1 X47.223 Y98.44 E1182.16269
G0 X46.516 Y98.44
G1 X43.397 Y101.558 E1182.33688
G0 X42.69 Y101.558
G1 X45.809 Y98.44 E1182.51107
G0 X45.102 Y98.44
G1 X41.983 Y101.558 E1182.68526
G0 X41.276 Y101.558
G1 X44.394 Y98.44 E1182.85942
G0 X43.687 Y98.44
G1 X40.569 Y101.558 E1183.03358
G0 X39.862 Y101.558
G1 X42.98 Y98.44 E1183.20774
G0 X42.273 Y98.44
G1 X39.155 Y101.558 E1183.3819
G0 X38.448 Y101.558
G1 X41.566 Y98.44 E1183.55606
G0 X40.859 Y98.44
G1 X37.741 Y101.558 E1183.73022
G0 X37.034 Y101.558
G1 X40.152 Y98.44 E1183.90438
G0 X39.445 Y98.44
G1 X36.326 Y101.558 E1184.07857
G0 X35.619 Y101.558
G1 X38.738 Y98.44 E1184.25275
G0 X38.031 Y98.44
G1 X34.912 Y101.558 E1184.42694
G0 X34.205 Y101.558
G1 X37.323 Y98.44 E1184.6011
G0 X36.616 Y98.44
G1 X33.498 Y101.558 E1184.77526
G0 X32.791 Y101.558
G1 X35.909 Y98.44 E1184.94942
G0 X35.202 Y98.44
G1 X32.084 Y101.558 E1185.12358
G0 X31.377 Y101.558
G1 X34.495 Y98.44 E1185.29774
G0 X33.788 Y98.44
G1 X30.67 Y101.558 E1185.4719
G0 X29.962 Y101.558
G1 X33.081 Y98.44 E1185.64609
G0 X32.374 Y98.44
G1 X29.255 Y101.558 E1185.82028
G0 X28.548 Y101.558
G1 X31.667 Y98.44 E1185.99447
G0 X30.959 Y98.44
G1 X27.841 Y101.558 E1186.16863
G0 X27.134 Y101.558
G1 X30.252 Y98.44 E1186.34279
G0 X29.545 Y98.44
G1 X26.427 Y101.558 E1186.51695
G0 X25.72 Y101.558
G1 X28.838 Y98.44 E1186.69111
G0 X28.131 Y98.44
G1 X25.013 Y101.558 E1186.86527
G0 X24.306 Y101.558
G1 X27.424 Y98.44 E1187.03943
G0 X26.717 Y98.44
G1 X23.598 Y101.558 E1187.21362
G0 X22.891 Y101.558
G1 X26.01 Y98.44 E1187.3878
G0 X25.303 Y98.44
G1 X22.184 Y101.558 E1187.56199
G0 X21.477 Y101.558
G1 X24.596 Y98.44 E1187.73618
G0 X23.888 Y98.44
G1 X20.77 Y101.558 E1187.91034
G0 X20.063 Y101.558
G1 X23.181 Y98.44 E1188.0845
G0 X22.474 Y98.44
G1 X19.356 Y101.558 E1188.25866
G0 X18.649 Y101.558
G1 X21.767 Y98.44 E1188.43282
G0 X21.06 Y98.44
G1 X17.942 Y101.558 E1188.60698
G0 X17.235 Y101.558
G1 X20.353 Y98.44 E1188.78114
G0 X19.646 Y98.44
G1 X16.527 Y101.558 E1188.95533
G0 X15.82 Y101.558
G1 X18.939 Y98.44 E1189.12952
G0 X18.232 Y98.44
G1 X15.113 Y101.558 E1189.30371
G0 X14.406 Y101.558
G1 X17.524 Y98.44 E1189.47787
G0 X16.817 Y98.44
G1 X13.699 Y101.558 E1189.65203
G0 X12.992 Y101.558
G1 X16.11 Y98.44 E1189.82619
G0 X15.403 Y98.44
G1 X12.285 Y101.558 E1190.00035
G0 X11.691 Y101.445
G1 X14.696 Y98.44 E1190.16819
G0 X13.989 Y98.44
G1 X11.691 Y100.738 E1190.29655
G0 X11.691 Y100.031
G1 X13.282 Y98.44 E1190.38542
G0 X12.575 Y98.44
G1 X11.691 Y99.324 E1190.4348
G0 X11.691 Y98.617
G1 X11.868 Y98.44 E1190.44468
G0 X12.311 Y100.228
G1 X7.346 Y101.559 E1190.64771
G0 X9.021 Y101.559
G1 X9.857 Y98.44 E1190.77524
G0 X9.635 Y101.558
G1 X6.515 Y98.439 E1190.94949
G0 X4.681 Y98.44
G1 X3.845 Y101.558 E1191.07699
G0 X2.564 Y101.559
G1 X0.941 Y99.936 E1191.16764
G1 F1800 E1190.16764
G0 F7200 X187.689 Y99.823
G1 F1800 E1191.16764
G1 F7200 X192.85 Y98.44 E1191.37868
; LAYER:38
G0 X199.25 Y98.251 Z7.6
; TYPE:WALL-INNER
G1 X199.25 Y101.75 E1191.51687
G1 X0.751 Y101.75 E1199.35687
G1 X0.751 Y98.251 E1199.49507
G1 X198.8 Y98.251 E1207.31729
G0 X199.75 Y97.751
; TYPE:WALL-OUTER
G1 F5040 X199.75 Y102.25 E1207.49499
G1 X0.251 Y102.25 E1215.37448
G1 X0.251 Y97.751 E1215.55218
G1 X199.3 Y97.751 E1223.4139
G0 F7200 X199.059 Y100.064
; TYPE:FILL
G1 X197.435 Y98.44 E1223.50461
G0 X196.207 Y98.44
G1 X195.371 Y101.559 E1223.63215
G0 X193.484 Y101.56
G1 X190.365 Y98.441 E1223.80636
G0 X191.03 Y98.44
G1 X190.195 Y101.558 E1223.93385
G0 X188.309 Y101.335
G1 X185.415 Y98.441 E1224.0955
G0 X184.708 Y98.441
G1 X187.827 Y101.56 E1224.26972
G0 X187.12 Y101.56
G1 X184.001 Y98.441 E1224.44393
G0 X183.294 Y98.441
G1 X186.413 Y101.56 E1224.61815
G0 X185.706 Y101.56
G1 X182.586 Y98.441 E1224.79239
G0 X181.879 Y98.441
G1 X184.998 Y101.56 E1224.96661
G0 X184.291 Y101.56
G1 X181.172 Y98.441 E1225.14082
G0 X180.465 Y98.441
G1 X183.584 Y101.56 E1225.31504
G0 X182.877 Y101.56
G1 X179.758 Y98.441 E1225.48926
G0 X179.051 Y98.441
G1 X182.17 Y101.56 E1225.66347
G0 X181.463 Y101.56
G1 X178.344 Y98.441 E1225.83769
G0 X177.637 Y98.441
G1 X180.756 Y101.56 E1226.0119
G0 X180.049 Y101.56
G1 X176.93 Y98.441 E1226.18612
G0 X176.223 Y98.441
G1 X179.342 Y101.56 E1226.36034
G0 X178.634 Y101.56
G1 X175.515 Y98.441 E1226.53455
G0 X174.808 Y98.441
G1 X177.927 Y101.56 E1226.70877
G0 X177.22 Y101.56
G1 X174.101 Y98.441 E1226.88298
G0 X173.394 Y98.441
G1 X176.513 Y101.56 E1227.0572
G0 X175.806 Y101.56
G1 X172.687 Y98.441 E1227.23142
G0 X171.98 Y98.441
G1 X175.099 Y101.56 E1227.40563
G0 X174.392 Y101.56
G1 X171.273 Y98.441 E1227.57985
G0 X170.566 Y98.441
G1 X173.685 Y101.56 E1227.75406
G0 X172.978 Y101.56
G1 X169.859 Y98.441 E1227.92828
G0 X169.151 Y98.441
G1 X172.271 Y101.56 E1228.10252
G0 X171.563 Y101.56
G1 X168.444 Y98.441 E1228.27674
G0 X167.737 Y98.441
G1 X170.856 Y101.56 E1228.45096
G0 X170.149 Y101.56
G1 X167.03 Y98.441 E1228.62517
G0 X166.323 Y98.441
G1 X169.442 Y101.56 E1228.79939
G0 X168.735 Y101.56
G1 X165.616 Y98.441 E1228.9736
G0 X164.909 Y98.441
G1 X168.028 Y101.56 E1229.14782
G0 X167.321 Y101.56
G1 X164.202 Y98.441 E1229.32204
G0 X163.495 Y98.441
G1 X166.614 Y101.56 E1229.49625
G0 X165.907 Y101.56
G1 X162.788 Y98.441 E1229.67047
G0 X162.08 Y98.441
G1 X165.199 Y101.56 E1229.84468
G0 X164.492 Y101.56
G1 X161.373 Y98.441 E1230.0189
G0 X160.666 Y98.441
G1 X163.785 Y101.56 E1230.19312
G0 X163.078 Y101.56
G1 X159.959 Y98.441 E1230.36733
G0 X159.252 Y98.441
G1 X162.371 Y101.56 E1230.54155
G0 X161.664 Y101.56
G1 X158.545 Y98.441 E1230.71576
G0 X157.838 Y98.441
G1 X160.957 Y101.56 E1230.88998
G0 X160.25 Y101.56
G1 X157.131 Y98.441 E1231.0642
G0 X156.424 Y98.441
G1 X159.543 Y101.56 E1231.23841
G0 X158.835 Y101.56
G1 X155.716 Y98.441 E1231.41263
G0 X155.009 Y98.441
G1 X158.128 Y101.56 E1231.58684
G0 X157.421 Y101.56
G1 X154.302 Y98.441 E1231.76106
G0 X153.595 Y98.441
G1 X156.714 Y101.56 E1231.93528
G0 X156.007 Y101.56
G1 X152.888 Y98.441 E1232.10949
G0 X152.181 Y98.441
G1 X155.3 Y101.56 E1232.28371
G0 X154.593 Y101.56
G1 X151.474 Y98.441 E1232.45792
G0 X150.767 Y98.441
G1 X153.886 Y101.56 E1232.63214
G0 X153.179 Y101.56
G1 X150.06 Y98.441 E1232.80636
G0 X149.352 Y98.441
G1 X152.472 Y101.56 E1232.9806
G0 X151.764 Y101.56
G1 X148.645 Y98.441 E1233.15482
G0 X147.938 Y98.441
G1 X151.057 Y101.56 E1233.32903
G0 X150.35 Y101.56
G1 X147.231 Y98.441 E1233.50325
G0 X146.524 Y98.441
G1 X149.643 Y101.56 E1233.67746
G0 X148.936 Y101.56
G1 X145.817 Y98.441 E1233.85168
G0 X145.11 Y98.441
G1 X148.229 Y101.56 E1234.0259
G0 X147.522 Y101.56
G1 X144.403 Y98.441 E1234.20011
G0 X143.696 Y98.441
G1 X146.815 Y101.56 E1234.37433
G0 X146.108 Y101.56
G1 X142.989 Y98.441 E1234.54854
G0 X142.281 Y98.441
G1 X145.4 Y101.56 E1234.72276
G0 X144.693 Y101.56
G1 X141.574 Y98.441 E1234.89697
G0 X140.867 Y98.441
G1 X143.986 Y101.559 E1235.07116
G0 X143.278 Y101.559
G1 X140.16 Y98.441 E1235.24532
G0 X139.453 Y98.441
G1 X142.571 Y101.559 E1235.41948
G0 X141.864 Y101.559
G1 X138.746 Y98.441 E1235.59364
G0 X138.039 Y98.441
G1 X141.157 Y101.559 E1235.7678
G0 X140.45 Y101.559
G1 X137.332 Y98.441 E1235.94196
G0 X136.625 Y98.441
G1 X139.743 Y101.559 E1236.11612
G0 X139.036 Y101.559
G1 X135.917 Y98.441 E1236.29031
G0 X135.21 Y98.441
G1 X138.329 Y101.559 E1236.4645
G0 X137.622 Y101.559
G1 X134.503 Y98.441 E1236.63869
G0 X133.796 Y98.441
G1 X136.914 Y101.559 E1236.81285
G0 X136.207 Y101.559
G1 X133.089 Y98.441 E1236.98701
G0 X132.382 Y98.441
G1 X135.5 Y101.559 E1237.16117
G0 X134.793 Y101.559
G1 X131.675 Y98.441 E1237.33533
G0 X130.968 Y98.441
G1 X134.086 Y101.559 E1237.50949
G0 X133.379 Y101.559
G1 X130.261 Y98.441 E1237.68365
G0 X129.553 Y98.441
G1 X132.672 Y101.559 E1237.85784
G0 X131.965 Y101.559
G1 X128.846 Y98.441 E1238.03202
G0 X128.139 Y98.441
G1 X131.258 Y101.559 E1238.20621
G0 X130.551 Y101.559
G1 X127.432 Y98.441 E1238.3804
G0 X126.725 Y98.441
G1 X129.843 Y101.559 E1238.55456
G0 X129.136 Y101.559
G1 X126.018 Y98.441 E1238.72872
G0 X125.311 Y98.441
G1 X128.429 Y101.559 E1238.90288
G0 X127.722 Y101.559
G1 X124.604 Y98.441 E1239.07704
G0 X123.897 Y98.441
G1 X127.015 Y101.559 E1239.2512
G0 X126.308 Y101.559
G1 X123.19 Y98.441 E1239.42536
G0 X122.482 Y98.441
G1 X125.601 Y101.559 E1239.59955
G0 X124.894 Y101.559
G1 X121.775 Y98.441 E1239.77374
G0 X121.068 Y98.441
G1 X124.187 Y101.559 E1239.94793
G0 X123.479 Y101.559
G1 X120.361 Y98.441 E1240.12209
G0 X119.654 Y98.441
G1 X122.772 Y101.559 E1240.29625
G0 X122.065 Y101.559
G1 X118.947 Y98.441 E1240.47041
G0 X118.24 Y98.441
G1 X121.358 Y101.559 E1240.64457
G0 X120.651 Y101.559
G1 X117.533 Y98.441 E1240.81873
G0 X116.826 Y98.441
G1 X119.944 Y101.559 E1240.99289
G0 X119.237 Y101.559
G1 X116.118 Y98.441 E1241.16707
G0 X115.411 Y98.441
G1 X118.53 Y101.559 E1241.34126
G0 X117.823 Y101.559
G1 X114.704 Y98.441 E1241.51545
G0 X113.997 Y98.441
G1 X117.115 Y101.559 E1241.68961
G0 X116.408 Y101.559
G1 X113.29 Y98.441 E1241.86377
G0 X112.583 Y98.441
G1 X115.701 Y101.559 E1242.03793
G0 X114.994 Y101.559
G1 X111.876 Y98.441 E1242.21209
G0 X111.169 Y98.441
G1 X114.287 Y101.559 E1242.38625
G0 X113.58 Y101.559
G1 X110.462 Y98.441 E1242.56041
G0 X109.754 Y98.441
G1 X112.873 Y101.559 E1242.7346
G0 X112.166 Y101.559
G1 X109.047 Y98.441 E1242.90879
G0 X108.34 Y98.441
G1 X111.459 Y101.559 E1243.08298
G0 X110.752 Y101.559
G1 X107.633 Y98.441 E1243.25716
G0 X106.926 Y98.441
G1 X110.044 Y101.559 E1243.43132
G0 X109.337 Y101.559
G1 X106.219 Y98.441 E1243.60548
G0 X105.512 Y98.441
G1 X108.63 Y101.559 E1243.77964
G0 X107.923 Y101.559
G1 X104.805 Y98.441 E1243.9538
G0 X104.098 Y98.441
G1 X107.216 Y101.559 E1244.12796
G0 X106.509 Y101.559
G1 X103.391 Y98.441 E1244.30212
G0 X102.683 Y98.441
G1 X105.802 Y101.559 E1244.47631
G0 X105.095 Y101.559
G1 X101.976 Y98.441 E1244.6505
G0 X101.269 Y98.441
G1 X104.388 Y101.559 E1244.82469
G0 X103.68 Y101.559
G1 X100.562 Y98.441 E1244.99885
G0 X99.854 Y98.44
G1 X102.973 Y101.559 E1245.17306
G0 X102.266 Y101.559
G1 X99.147 Y98.44 E1245.34728
G0 X98.44 Y98.44
G1 X101.559 Y101.559 E1245.5215
G0 X100.852 Y101.559
G1 X97.733 Y98.44 E1245.69571
G0 X97.026 Y98.44
G1 X100.145 Y101.559 E1245.86993
G0 X99.438 Y101.559
G1 X96.319 Y98.44 E1246.04414
G0 X95.612 Y98.44
G1 X98.731 Y101.559 E1246.21836
G0 X98.024 Y101.559
G1 X94.905 Y98.44 E1246.39258
G0 X94.197 Y98.44
G1 X97.316 Y101.559 E1246.56679
G0 X96.609 Y101.559
G1 X93.49 Y98.44 E1246.74101
G0 X92.783 Y98.44
G1 X95.902 Y101.559 E1246.91522
G0 X95.195 Y101.559
G1 X92.076 Y98.44 E1247.08944
G0 X91.369 Y98.44
G1 X94.488 Y101.559 E1247.26366
G0 X93.781 Y101.559
G1 X90.662 Y98.44 E1247.43787
G0 X89.955 Y98.44
G1 X93.074 Y101.559 E1247.61209
G0 X92.367 Y101.559
G1 X89.248 Y98.44 E1247.7863
G0 X88.541 Y98.44
G1 X91.66 Y101.559 E1247.96052
G0 X90.953 Y101.559
G1 X87.833 Y98.44 E1248.13476
G0 X87.126 Y98.44
G1 X90.245 Y101.559 E1248.30898
G0 X89.538 Y101.559
G1 X86.419 Y98.44 E1248.4832
G0 X85.712 Y98.44
G1 X88.831 Y101.559 E1248.65741
G0 X88.124 Y101.559
G1 X85.005 Y98.44 E1248.83163
G0 X84.298 Y98.44
G1 X87.417 Y101.559 E1249.00584
G0 X86.71 Y101.559
G1 X83.591 Y98.44 E1249.18006
G0 X82.884 Y98.44
G1 X86.003 Y101.559 E1249.35428
G0 X85.296 Y101.559
G1 X82.177 Y98.44 E1249.52849
G0 X81.47 Y98.44
G1 X84.589 Y101.559 E1249.70271
G0 X83.881 Y101.559
G1 X80.762 Y98.44 E1249.87692
G0 X80.055 Y98.44
G1 X83.174 Y101.559 E1250.05114
G0 X82.467 Y101.559
G1 X79.348 Y98.44 E1250.22536
G0 X78.641 Y98.44
G1 X81.76 Y101.559 E1250.39957
G0 X81.053 Y101.559
G1 X77.934 Y98.44 E1250.57379
G0 X77.227 Y98.44
G1 X80.346 Y101.559 E1250.748
G0 X79.639 Y101.559
G1 X76.52 Y98.44 E1250.92222
G0 X75.813 Y98.44
G1 X78.932 Y101.559 E1251.09644
G0 X78.225 Y101.559
G1 X75.106 Y98.44 E1251.27065
G0 X74.398 Y98.44
G1 X77.517 Y101.559 E1251.44487
G0 X76.81 Y101.559
G1 X73.691 Y98.44 E1251.61908
G0 X72.984 Y98.44
G1 X76.103 Y101.559 E1251.7933
G0 X75.396 Y101.559
G1 X72.277 Y98.44 E1251.96752
G0 X71.57 Y98.44
G1 X74.689 Y101.559 E1252.14173
G0 X73.982 Y101.559
G1 X70.863 Y98.44 E1252.31595
G0 X70.156 Y98.44
G1 X73.275 Y101.559 E1252.49016
G0 X72.568 Y101.559
G1 X69.449 Y98.44 E1252.66438
G0 X68.742 Y98.44
G1 X71.861 Y101.559 E1252.8386
G0 X71.154 Y101.559
G1 X68.034 Y98.44 E1253.01284
G0 X67.327 Y98.44
G1 X70.446 Y101.559 E1253.18706
G0 X69.739 Y101.559
G1 X66.62 Y98.44 E1253.36127
G0 X65.913 Y98.44
G1 X69.032 Y101.559 E1253.53549
G0 X68.325 Y101.559
G1 X65.206 Y98.44 E1253.7097
G0 X64.499 Y98.44
G1 X67.618 Y101.559 E1253.88392
G0 X66.911 Y101.559
G1 X63.792 Y98.44 E1254.05814
G0 X63.085 Y98.44
G1 X66.204 Y101.559 E1254.23235
G0 X65.497 Y101.559
G1 X62.378 Y98.44 E1254.40657
G0 X61.671 Y98.44
G1 X64.79 Y101.559 E1254.58078
G0 X64.082 Y101.559
G1 X60.963 Y98.44 E1254.755
G0 X60.256 Y98.44
G1 X63.375 Y101.559 E1254.92922
G0 X62.668 Y101.559
G1 X59.549 Y98.44 E1255.10343
G0 X58.842 Y98.44
G1 X61.961 Y101.559 E1255.27765
G0 X61.254 Y101.559
G1 X58.135 Y98.44 E1255.45186
G0 X57.428 Y98.44
G1 X60.547 Y101.559 E1255.62608
G0 X59.84 Y101.559
G1 X56.721 Y98.44 E1255.8003
G0 X56.014 Y98.44
G1 X59.133 Y101.559 E1255.97451
G0 X58.426 Y101.559
G1 X55.307 Y98.44 E1256.14873
G0 X54.599 Y98.44
G1 X57.719 Y101.559 E1256.32297
G0 X57.011 Y101.559
G1 X53.892 Y98.44 E1256.49719
G0 X53.185 Y98.44
G1 X56.304 Y101.559 E1256.6714
G0 X55.596 Y101.558
G1 X52.478 Y98.44 E1256.84556
G0 X51.771 Y98.44
G1 X54.889 Y101.558 E1257.01972
G0 X54.182 Y101.558
G1 X51.064 Y98.44 E1257.19388
G0 X50.357 Y98.44
G1 X53.475 Y101.558 E1257.36804
G0 X52.768 Y101.558
G1 X49.65 Y98.44 E1257.5422
G0 X48.943 Y98.44
G1 X52.061 Y101.558 E1257.71636
G0 X51.354 Y101.558
G1 X48.235 Y98.44 E1257.89055
G0 X47.528 Y98.44
G1 X50.647 Y101.558 E1258.06474
G0 X49.94 Y101.558
G1 X46.821 Y98.44 E1258.23893
G0 X46.114 Y98.44
G1 X49.233 Y101.558 E1258.41312
G0 X48.525 Y101.558
G1 X45.407 Y98.44 E1258.58728
G0 X44.7 Y98.44
G1 X47.818 Y101.558 E1258.76144
G0 X47.111 Y101.558
G1 X43.993 Y98.44 E1258.9356
G0 X43.286 Y98.44
G1 X46.404 Y101.558 E1259.10976
G0 X45.697 Y101.558
G1 X42.579 Y98.44 E1259.28392
G0 X41.872 Y98.44
G1 X44.99 Y101.558 E1259.45808
G0 X44.283 Y101.558
G1 X41.164 Y98.44 E1259.63227
G0 X40.457 Y98.44
G1 X43.576 Y101.558 E1259.80645
G0 X42.869 Y101.558
G1 X39.75 Y98.44 E1259.98064
G0 X39.043 Y98.44
G1 X42.161 Y101.558 E1260.1548
G0 X41.454 Y101.558
G1 X38.336 Y98.44 E1260.32896
G0 X37.629 Y98.44
G1 X40.747 Y101.558 E1260.50312
G0 X40.04 Y101.558
G1 X36.922 Y98.44 E1260.67728
G0 X36.215 Y98.44
G1 X39.333 Y101.558 E1260.85144
G0 X38.626 Y101.558
G1 X35.508 Y98.44 E1261.0256
G0 X34.8 Y98.44
G1 X37.919 Y101.558 E1261.19979
G0 X37.212 Y101.558
G1 X34.093 Y98.44 E1261.37398
G0 X33.386 Y98.44
G1 X36.505 Y101.558 E1261.54817
G0 X35.797 Y101.558
G1 X32.679 Y98.44 E1261.72233
G0 X31.972 Y98.44
G1 X35.09 Y101.558 E1261.89649
G0 X34.383 Y101.558
G1 X31.265 Y98.44 E1262.07065
G0 X30.558 Y98.44
G1 X33.676 Y101.558 E1262.24481
G0 X32.969 Y101.558
G1 X29.851 Y98.44 E1262.41897
G0 X29.144 Y98.44
G1 X32.262 Y101.558 E1262.59313
G0 X31.555 Y101.558
G1 X28.437 Y98.44 E1262.76729
G0 X27.729 Y98.44
G1 X30.848 Y101.558 E1262.94148
G0 X30.141 Y101.558
G1 X27.022 Y98.44 E1263.11566
G0 X26.315 Y98.44
G1 X29.434 Y101.558 E1263.28985
G0 X28.726 Y101.558
G1 X25.608 Y98.44 E1263.46401
G0 X24.901 Y98.44
G1 X28.019 Y101.558 E1263.63817
G0 X27.312 Y101.558
G1 X24.194 Y98.44 E1263.81233
G0 X23.487 Y98.44
G1 X26.605 Y101.558 E1263.98649
G0 X25.898 Y101.558
G1 X22.78 Y98.44 E1264.16065
G0 X22.073 Y98.44
G1 X25.191 Y101.558 E1264.33481
G0 X24.484 Y101.558
G1 X21.365 Y98.44 E1264.509
G0 X20.658 Y98.44
G1 X23.777 Y101.558 E1264.68319
G0 X23.07 Y101.558
G1 X19.951 Y98.44 E1264.85738
G0 X19.244 Y98.44
