; Generated with MatterSlice 1.0
; filamentDiameter = 1.75
; extrusionWidth = 0.5
; firstLayerExtrusionWidth = 0.5
; layerThickness = 0.2
; firstLayerThickness = 0.2
; automatic settings before start_gcode
G21 ; set units to millimeters
M107 ; fan off
M190 S70 ; wait for bed temperature to be reached
M104 T0 S200 ; start heating extruder 0
T0 ; set the active extruder to 0
; settings from start_gcode
G28 ; home all axes
G1 Z5 F5000 ; lift nozzle
; automatic settings after start_gcode
M109 T0 S190 ; wait for extruder 0 to reach temperature
T0 ; set the active extruder to 0
G90 ; use absolute coordinates
G92 E0 ; reset the expected extruder position
M82 ; use absolute distance for extrusion
; Layer count: 25
; LAYER:0
M106 S178
G0 F7200 X102.261 Y69.833 Z0
; TYPE:SKIRT
G1 F1800 E0
G1 F5040 X103.763 Y69.982 E0.05961
G1 X105.253 Y70.208 E0.11914
G1 X106.728 Y70.505 E0.17856
G1 X108.193 Y70.878 E0.23827
G1 X109.635 Y71.323 E0.29788
G1 X111.055 Y71.839 E0.35755
G1 X112.448 Y72.427 E0.41727
G1 X113.8 Y73.079 E0.47655
G1 X115.122 Y73.798 E0.53599
G1 X116.414 Y74.587 E0.59578
G1 X117.66 Y75.437 E0.65536
G1 X118.862 Y76.347 E0.7149
G1 X120.02 Y77.319 E0.77461
G1 X121.125 Y78.345 E0.83417
G1 X122.176 Y79.422 E0.89361
G1 X123.176 Y80.555 E0.95329
G1 X124.117 Y81.735 E1.0129
G1 X124.996 Y82.959 E1.07242
G1 X125.816 Y84.227 E1.13206
G1 X126.57 Y85.535 E1.19169
G1 X127.255 Y86.87 E1.25096
G1 X127.878 Y88.248 E1.31069
G1 X128.429 Y89.655 E1.37037
G1 X128.909 Y91.082 E1.42983
G1 X129.319 Y92.541 E1.48969
G1 X129.653 Y94.006 E1.54904
G1 X129.915 Y95.488 E1.60848
G1 X130.104 Y96.992 E1.66835
G1 X130.216 Y98.497 E1.72795
G1 X130.253 Y100.028 E1.78844
G1 X130.214 Y101.537 E1.84806
G1 X130.101 Y103.039 E1.90755
G1 X129.911 Y104.544 E1.96746
G1 X129.646 Y106.024 E2.02685
G1 X129.312 Y107.489 E2.0862
G1 X128.9 Y108.947 E2.14604
G1 X128.418 Y110.376 E2.2056
G1 X127.865 Y111.781 E2.26524
G1 X127.241 Y113.16 E2.32502
G1 X126.554 Y114.493 E2.38425
G1 X125.799 Y115.801 E2.4439
G1 X124.98 Y117.064 E2.50335
G1 X124.101 Y118.288 E2.56287
G1 X123.153 Y119.472 E2.62278
G1 X122.155 Y120.601 E2.68229
G1 X121.104 Y121.676 E2.74167
G1 X119.997 Y122.702 E2.80129
G1 X118.837 Y123.673 E2.86103
G1 X117.635 Y124.581 E2.92053
G1 X116.389 Y125.429 E2.98006
G1 X115.098 Y126.217 E3.0398
G1 X113.773 Y126.935 E3.09932
G1 X112.42 Y127.586 E3.15862
G1 X111.026 Y128.173 E3.21836
G1 X109.607 Y128.687 E3.27797
G1 X108.163 Y129.131 E3.33764
G1 X106.697 Y129.502 E3.39737
G1 X105.223 Y129.798 E3.45675
G1 X103.732 Y130.022 E3.5163
G1 X102.231 Y130.17 E3.57587
G1 X100.726 Y130.244 E3.63538
G1 X99.215 Y130.243 E3.69506
G1 X97.709 Y130.166 E3.75462
G1 X96.208 Y130.014 E3.81421
G1 X94.717 Y129.787 E3.87378
G1 X93.243 Y129.488 E3.93318
G1 X91.779 Y129.115 E3.99285
G1 X90.336 Y128.668 E4.05252
G1 X88.917 Y128.149 E4.11219
G1 X87.527 Y127.561 E4.1718
G1 X86.177 Y126.909 E4.23102
G1 X84.853 Y126.188 E4.29056
G1 X83.561 Y125.396 E4.35041
G1 X82.315 Y124.545 E4.41001
G1 X81.115 Y123.634 E4.46952
G1 X79.96 Y122.663 E4.52911
G1 X78.855 Y121.635 E4.58872
G1 X77.802 Y120.554 E4.64833
G1 X76.809 Y119.425 E4.70771
G1 X75.867 Y118.244 E4.76738
G1 X74.987 Y117.015 E4.82708
G1 X74.169 Y115.747 E4.88668
G1 X73.417 Y114.438 E4.9463
G1 X72.734 Y113.103 E5.00553
G1 X72.112 Y111.723 E5.06532
G1 X71.563 Y110.318 E5.12489
G1 X71.084 Y108.891 E5.18435
G1 X70.675 Y107.431 E5.24423
G1 X70.343 Y105.964 E5.30364
G1 X70.082 Y104.483 E5.36303
G1 X69.896 Y102.987 E5.42257
G1 X69.786 Y101.509 E5.48111
G1 X69.748 Y100 E5.54073
G1 X69.786 Y98.495 E5.60019
G1 X69.897 Y96.992 E5.65972
G1 X70.086 Y95.488 E5.71959
G1 X70.348 Y94.006 E5.77903
G1 X70.682 Y92.541 E5.83837
G1 X71.092 Y91.082 E5.89823
G1 X71.572 Y89.655 E5.9577
G1 X72.123 Y88.248 E6.01738
G1 X72.746 Y86.87 E6.07711
G1 X73.431 Y85.535 E6.13637
G1 X74.185 Y84.227 E6.196
G1 X75.005 Y82.959 E6.25564
G1 X75.884 Y81.735 E6.31516
G1 X76.825 Y80.555 E6.37477
G1 X77.825 Y79.422 E6.43446
G1 X78.876 Y78.345 E6.49389
G1 X79.981 Y77.319 E6.55345
G1 X81.139 Y76.347 E6.61316
G1 X82.341 Y75.437 E6.67271
G1 X83.587 Y74.587 E6.73228
G1 X84.879 Y73.798 E6.79207
G1 X86.201 Y73.079 E6.85151
G1 X87.553 Y72.427 E6.91079
G1 X88.946 Y71.839 E6.97051
G1 X90.366 Y71.323 E7.03019
G1 X91.808 Y70.878 E7.08979
G1 X93.273 Y70.505 E7.1495
G1 X94.748 Y70.208 E7.20892
G1 X96.238 Y69.982 E7.26845
G1 X97.74 Y69.833 E7.32806
G1 X99.245 Y69.757 E7.38758
G1 X100.756 Y69.757 E7.44726
G1 X102.261 Y69.833 E7.50678
G0 F7200 X101.478 Y80.307
; TYPE:WALL-OUTER
G1 F5040 X102.462 Y80.405 E7.54583
G1 X103.428 Y80.551 E7.58442
G1 X104.395 Y80.746 E7.62338
G1 X105.343 Y80.987 E7.66202
G1 X106.296 Y81.281 E7.70141
G1 X107.222 Y81.618 E7.74033
G1 X108.117 Y81.996 E7.7787
G1 X109.005 Y82.424 E7.81763
G1 X109.881 Y82.9 E7.85701
G1 X110.71 Y83.406 E7.89537
G1 X111.534 Y83.969 E7.93479
G1 X112.309 Y84.556 E7.97319
G1 X113.073 Y85.197 E8.01257
G1 X113.786 Y85.859 E8.051
G1 X114.482 Y86.572 E8.09036
G1 X115.126 Y87.301 E8.12877
G1 X115.74 Y88.071 E8.16767
G1 X116.315 Y88.871 E8.20658
G1 X116.849 Y89.697 E8.24543
G1 X117.347 Y90.561 E8.28482
G1 X117.791 Y91.426 E8.32322
G1 X118.197 Y92.323 E8.36211
G1 X118.557 Y93.241 E8.40106
G1 X118.871 Y94.174 E8.43994
G1 X119.141 Y95.134 E8.47932
G1 X119.359 Y96.093 E8.51817
G1 X119.529 Y97.051 E8.5566
G1 X119.653 Y98.041 E8.596
G1 X119.725 Y99.01 E8.63438
G1 X119.75 Y100.013 E8.67401
G1 X119.724 Y101.006 E8.71324
G1 X119.651 Y101.98 E8.75182
G1 X119.528 Y102.957 E8.79071
G1 X119.355 Y103.926 E8.82959
G1 X119.136 Y104.886 E8.86848
G1 X118.865 Y105.845 E8.90784
G1 X118.554 Y106.767 E8.94627
G1 X118.189 Y107.695 E8.98566
G1 X117.782 Y108.593 E9.0246
G1 X117.338 Y109.457 E9.06297
G1 X116.845 Y110.31 E9.10188
G1 X116.305 Y111.143 E9.14109
G1 X115.728 Y111.946 E9.18014
G1 X115.121 Y112.705 E9.21853
G1 X114.468 Y113.443 E9.25745
G1 X113.771 Y114.156 E9.29683
G1 X113.059 Y114.817 E9.3352
G1 X112.296 Y115.455 E9.37448
G1 X111.518 Y116.043 E9.413
G1 X110.693 Y116.604 E9.4524
G1 X109.863 Y117.111 E9.49082
G1 X108.987 Y117.586 E9.53018
G1 X108.106 Y118.01 E9.56879
G1 X107.203 Y118.39 E9.60749
G1 X106.272 Y118.728 E9.64661
G1 X105.324 Y119.019 E9.68577
G1 X104.381 Y119.258 E9.7242
G1 X103.408 Y119.453 E9.76339
G1 X102.442 Y119.598 E9.80197
G1 X101.457 Y119.695 E9.84106
G1 X100.467 Y119.744 E9.88021
G1 X99.495 Y119.743 E9.9186
G1 X98.503 Y119.692 E9.95784
G1 X97.519 Y119.593 E9.9969
G1 X96.555 Y119.446 E10.03541
G1 X95.582 Y119.249 E10.07462
G1 X94.64 Y119.008 E10.11303
G1 X93.693 Y118.715 E10.15218
G1 X92.762 Y118.375 E10.19132
G1 X91.866 Y117.996 E10.22975
G1 X90.975 Y117.566 E10.26882
G1 X90.108 Y117.094 E10.30781
G1 X89.265 Y116.577 E10.34687
G1 X88.459 Y116.026 E10.38543
G1 X87.667 Y115.425 E10.4247
G1 X86.913 Y114.791 E10.46361
G1 X86.192 Y114.12 E10.50251
G1 X85.515 Y113.424 E10.54086
G1 X84.856 Y112.675 E10.58026
G1 X84.249 Y111.914 E10.61871
G1 X83.674 Y111.111 E10.65772
G1 X83.141 Y110.286 E10.69651
G1 X82.645 Y109.422 E10.73586
G1 X82.197 Y108.546 E10.77472
G1 X81.792 Y107.647 E10.81366
G1 X81.434 Y106.73 E10.85255
G1 X81.121 Y105.796 E10.89145
G1 X80.856 Y104.849 E10.93029
G1 X80.639 Y103.888 E10.9692
G1 X80.47 Y102.928 E11.0077
G1 X80.347 Y101.94 E11.04703
G1 X80.276 Y100.991 E11.08461
G1 X80.251 Y100.006 E11.12353
G1 X80.276 Y99.01 E11.16288
G1 X80.348 Y98.041 E11.20126
G1 X80.47 Y97.064 E11.24015
G1 X80.642 Y96.093 E11.27909
G1 X80.86 Y95.134 E11.31794
G1 X81.13 Y94.174 E11.35732
G1 X81.44 Y93.252 E11.39574
G1 X81.799 Y92.335 E11.43464
G1 X82.21 Y91.426 E11.47404
G1 X82.654 Y90.561 E11.51244
G1 X83.152 Y89.697 E11.55183
G1 X83.686 Y88.871 E11.59068
G1 X84.261 Y88.071 E11.62959
G1 X84.875 Y87.301 E11.66849
G1 X85.519 Y86.572 E11.70691
G1 X86.215 Y85.859 E11.74626
G1 X86.928 Y85.197 E11.78469
G1 X87.692 Y84.556 E11.82408
G1 X88.467 Y83.969 E11.86248
G1 X89.291 Y83.407 E11.90187
G1 X90.12 Y82.9 E11.94025
G1 X90.996 Y82.424 E11.97963
G1 X91.884 Y81.996 E12.01856
G1 X92.779 Y81.618 E12.05693
G1 X93.705 Y81.281 E12.09585
G1 X94.658 Y80.987 E12.13524
G1 X95.606 Y80.746 E12.17388
G1 X96.573 Y80.551 E12.21284
G1 X97.539 Y80.405 E12.25143
G1 X98.523 Y80.307 E12.29048
G1 X99.515 Y80.257 E12.32971
G1 X100.486 Y80.257 E12.36806
G1 X101.028 Y80.284 E12.3895
G0 F7200 X101.486 Y81.812
G1 F5040 X100.483 Y81.758 E12.42917
G1 X99.478 Y81.759 E12.46886
G1 X98.474 Y81.815 E12.50858
G1 X97.474 Y81.927 E12.54832
G1 X96.483 Y82.094 E12.58802
G1 X95.501 Y82.315 E12.62777
G1 X94.534 Y82.589 E12.66747
G1 X93.584 Y82.917 E12.70716
G1 X92.651 Y83.296 E12.74694
G1 X91.743 Y83.726 E12.78662
G1 X90.859 Y84.206 E12.82635
G1 X90.003 Y84.734 E12.86607
G1 X89.177 Y85.308 E12.9058
G1 X88.384 Y85.926 E12.94551
G1 X87.626 Y86.588 E12.98526
G1 X86.907 Y87.291 E13.02497
G1 X86.225 Y88.03 E13.06469
G1 X85.586 Y88.808 E13.10446
G1 X84.992 Y89.619 E13.14416
G1 X84.443 Y90.461 E13.18386
G1 X83.941 Y91.333 E13.2236
G1 X83.489 Y92.231 E13.26331
G1 X83.085 Y93.152 E13.30303
G1 X82.733 Y94.094 E13.34275
G1 X82.434 Y95.054 E13.38246
G1 X82.189 Y96.03 E13.42221
G1 X81.996 Y97.017 E13.46193
G1 X81.859 Y98.014 E13.50168
G1 X81.777 Y99.015 E13.54134
G1 X81.751 Y100 E13.58026
G1 X81.778 Y101.006 E13.62001
G1 X81.861 Y102.007 E13.65968
G1 X81.999 Y103.004 E13.69943
G1 X82.193 Y103.991 E13.73916
G1 X82.439 Y104.966 E13.77888
G1 X82.739 Y105.926 E13.8186
G1 X83.092 Y106.868 E13.85834
G1 X83.497 Y107.789 E13.89807
G1 X83.95 Y108.686 E13.93776
G1 X84.453 Y109.557 E13.97749
G1 X85.003 Y110.399 E14.01721
G1 X85.599 Y111.21 E14.05696
G1 X86.238 Y111.986 E14.09667
G1 X86.92 Y112.725 E14.13638
G1 X87.641 Y113.427 E14.17613
G1 X88.399 Y114.088 E14.21585
G1 X89.193 Y114.706 E14.25559
G1 X90.019 Y115.278 E14.29527
G1 X90.876 Y115.806 E14.33503
G1 X91.76 Y116.284 E14.37472
G1 X92.67 Y116.713 E14.41446
G1 X93.602 Y117.091 E14.45418
G1 X94.553 Y117.418 E14.4939
G1 X95.521 Y117.691 E14.53362
G1 X96.502 Y117.911 E14.57333
G1 X97.495 Y118.077 E14.6131
G1 X98.494 Y118.188 E14.6528
G1 X99.498 Y118.243 E14.69251
G1 X100.503 Y118.243 E14.7322
G1 X101.507 Y118.188 E14.77192
G1 X102.506 Y118.077 E14.81162
G1 X103.499 Y117.911 E14.85138
G1 X104.48 Y117.691 E14.89109
G1 X105.448 Y117.418 E14.93081
G1 X106.399 Y117.091 E14.97053
G1 X107.331 Y116.713 E15.01026
G1 X108.241 Y116.284 E15.04999
G1 X109.125 Y115.806 E15.08968
G1 X109.982 Y115.278 E15.12944
G1 X110.808 Y114.706 E15.16912
G1 X111.602 Y114.088 E15.20886
G1 X112.36 Y113.427 E15.24859
G1 X113.081 Y112.725 E15.28833
G1 X113.763 Y111.986 E15.32805
G1 X114.402 Y111.21 E15.36775
G1 X114.998 Y110.399 E15.4075
G1 X115.548 Y109.557 E15.44723
G1 X116.051 Y108.686 E15.48695
G1 X116.504 Y107.789 E15.52664
G1 X116.909 Y106.868 E15.56638
G1 X117.262 Y105.926 E15.60611
G1 X117.562 Y104.966 E15.64584
G1 X117.808 Y103.991 E15.68555
G1 X118.002 Y103.004 E15.72528
G1 X118.14 Y102.007 E15.76503
G1 X118.223 Y101.006 E15.80471
G1 X118.249 Y99.98 E15.84524
G1 X118.221 Y98.975 E15.88495
G1 X118.137 Y97.973 E15.92467
G1 X117.998 Y96.977 E15.96439
G1 X117.803 Y95.991 E16.00408
G1 X117.556 Y95.016 E16.04381
G1 X117.254 Y94.056 E16.08356
G1 X116.901 Y93.115 E16.12325
G1 X116.495 Y92.194 E16.16301
G1 X116.041 Y91.298 E16.20268
G1 X115.537 Y90.427 E16.24242
G1 X114.985 Y89.585 E16.28219
G1 X114.389 Y88.776 E16.32188
G1 X113.749 Y88 E16.36161
G1 X113.067 Y87.261 E16.40132
G1 X112.345 Y86.561 E16.44104
G1 X111.586 Y85.901 E16.48077
G1 X110.792 Y85.284 E16.52048
G1 X109.965 Y84.713 E16.56018
G1 X109.108 Y84.186 E16.59991
G1 X108.223 Y83.709 E16.63962
G1 X107.313 Y83.281 E16.67934
G1 X106.379 Y82.904 E16.71912
G1 X105.428 Y82.578 E16.75883
G1 X104.461 Y82.305 E16.79851
G1 X103.479 Y82.086 E16.83825
G1 X102.486 Y81.922 E16.878
G1 X101.934 Y81.862 E16.89993
G0 F7200 X101.527 Y81.313
; TYPE:WALL-INNER
G1 F5040 X100.496 Y81.258 E16.94071
G1 X99.464 Y81.259 E16.98147
G1 X98.432 Y81.316 E17.0223
G1 X97.405 Y81.432 E17.06312
G1 X96.386 Y81.603 E17.10393
G1 X95.378 Y81.83 E17.14474
G1 X94.384 Y82.112 E17.18554
G1 X93.408 Y82.449 E17.22633
G1 X92.45 Y82.838 E17.26716
G1 X91.517 Y83.28 E17.30794
G1 X90.608 Y83.773 E17.34878
G1 X89.729 Y84.315 E17.38957
G1 X88.88 Y84.905 E17.4304
G1 X88.065 Y85.541 E17.47123
G1 X87.287 Y86.221 E17.51205
G1 X86.548 Y86.942 E17.55282
G1 X85.848 Y87.701 E17.5936
G1 X85.191 Y88.501 E17.63449
G1 X84.581 Y89.334 E17.67527
G1 X84.016 Y90.2 E17.71611
G1 X83.501 Y91.096 E17.75693
G1 X83.036 Y92.018 E17.79771
G1 X82.622 Y92.964 E17.8385
G1 X82.26 Y93.932 E17.87932
G1 X81.953 Y94.919 E17.92014
G1 X81.701 Y95.921 E17.96095
G1 X81.503 Y96.935 E18.00175
G1 X81.362 Y97.959 E18.04258
G1 X81.278 Y98.988 E18.08336
G1 X81.251 Y100 E18.12334
G1 X81.279 Y101.033 E18.16416
G1 X81.364 Y102.062 E18.20494
G1 X81.506 Y103.087 E18.24581
G1 X81.705 Y104.1 E18.28658
G1 X81.958 Y105.102 E18.3274
G1 X82.266 Y106.089 E18.36824
G1 X82.629 Y107.057 E18.40907
G1 X83.044 Y108.002 E18.44983
G1 X83.51 Y108.924 E18.49064
G1 X84.027 Y109.819 E18.53146
G1 X84.592 Y110.684 E18.57227
G1 X85.204 Y111.517 E18.61309
G1 X85.861 Y112.315 E18.65392
G1 X86.561 Y113.074 E18.6947
G1 X87.302 Y113.795 E18.73553
G1 X88.081 Y114.474 E18.77635
G1 X88.897 Y115.109 E18.81719
G1 X89.746 Y115.697 E18.85798
G1 X90.626 Y116.239 E18.8988
G1 X91.534 Y116.73 E18.93957
G1 X92.469 Y117.171 E18.9804
G1 X93.427 Y117.56 E19.02123
G1 X94.404 Y117.895 E19.06203
G1 X95.398 Y118.176 E19.10283
G1 X96.406 Y118.402 E19.14363
G1 X97.426 Y118.572 E19.18447
G1 X98.453 Y118.687 E19.22529
G1 X99.485 Y118.743 E19.26611
G1 X100.516 Y118.743 E19.30683
G1 X101.548 Y118.687 E19.34765
G1 X102.575 Y118.572 E19.38846
G1 X103.595 Y118.402 E19.4293
G1 X104.603 Y118.176 E19.47011
G1 X105.597 Y117.895 E19.5109
G1 X106.574 Y117.56 E19.5517
G1 X107.532 Y117.171 E19.59253
G1 X108.467 Y116.73 E19.63337
G1 X109.375 Y116.239 E19.67414
G1 X110.255 Y115.697 E19.71496
G1 X111.104 Y115.109 E19.75575
G1 X111.92 Y114.474 E19.79658
G1 X112.699 Y113.795 E19.8374
G1 X113.44 Y113.074 E19.87823
G1 X114.14 Y112.315 E19.91901
G1 X114.797 Y111.517 E19.95984
G1 X115.409 Y110.684 E20.00066
G1 X115.974 Y109.819 E20.04147
G1 X116.491 Y108.924 E20.08229
G1 X116.957 Y108.002 E20.1231
G1 X117.372 Y107.057 E20.16386
G1 X117.735 Y106.089 E20.20469
G1 X118.043 Y105.102 E20.24553
G1 X118.296 Y104.1 E20.28635
G1 X118.495 Y103.087 E20.32712
G1 X118.637 Y102.062 E20.36799
G1 X118.722 Y101.033 E20.40877
G1 X118.749 Y99.979 E20.45042
G1 X118.72 Y98.947 E20.49119
G1 X118.634 Y97.918 E20.53198
G1 X118.491 Y96.894 E20.57281
G1 X118.291 Y95.881 E20.6136
G1 X118.037 Y94.879 E20.65442
G1 X117.727 Y93.893 E20.69525
G1 X117.364 Y92.926 E20.73604
G1 X116.947 Y91.98 E20.77687
G1 X116.481 Y91.059 E20.81764
G1 X115.963 Y90.164 E20.85848
G1 X115.396 Y89.3 E20.8993
G1 X114.784 Y88.469 E20.94006
G1 X114.126 Y87.671 E20.98091
G1 X113.425 Y86.912 E21.02172
G1 X112.684 Y86.192 E21.06253
G1 X111.903 Y85.514 E21.10338
G1 X111.088 Y84.881 E21.14414
G1 X110.238 Y84.294 E21.18493
G1 X109.358 Y83.753 E21.22573
G1 X108.448 Y83.262 E21.26657
G1 X107.513 Y82.822 E21.30739
G1 X106.554 Y82.435 E21.34823
G1 X105.577 Y82.101 E21.38901
G1 X104.584 Y81.82 E21.42977
G1 X103.574 Y81.595 E21.47064
G1 X102.554 Y81.427 E21.51147
G1 X101.975 Y81.363 E21.53448
G0 F7200 X101.445 Y80.805
G1 F5040 X102.379 Y80.899 E21.57156
G1 X103.356 Y81.046 E21.61058
G1 X104.275 Y81.232 E21.64761
G1 X105.212 Y81.47 E21.68579
G1 X106.136 Y81.755 E21.72399
G1 X107.03 Y82.081 E21.76157
G1 X107.911 Y82.452 E21.79933
G1 X108.792 Y82.877 E21.83796
G1 X109.625 Y83.33 E21.87541
G1 X110.434 Y83.824 E21.91285
G1 X111.242 Y84.375 E21.95148
G1 X112.001 Y84.95 E21.98908
G1 X112.741 Y85.571 E22.02724
G1 X113.438 Y86.218 E22.0648
G1 X114.124 Y86.921 E22.1036
G1 X114.742 Y87.621 E22.14048
G1 X115.342 Y88.375 E22.17854
G1 X115.906 Y89.16 E22.21671
G1 X116.422 Y89.957 E22.25421
G1 X116.914 Y90.811 E22.29314
G1 X117.343 Y91.647 E22.33025
G1 X117.737 Y92.52 E22.36808
G1 X118.087 Y93.413 E22.40596
G1 X118.396 Y94.329 E22.44415
G1 X118.657 Y95.258 E22.48226
G1 X118.868 Y96.188 E22.51992
G1 X119.035 Y97.127 E22.55759
G1 X119.154 Y98.078 E22.59545
G1 X119.225 Y99.039 E22.63351
G1 X119.25 Y100.018 E22.67219
G1 X119.224 Y100.982 E22.71028
G1 X119.152 Y101.939 E22.74818
G1 X119.032 Y102.892 E22.78612
G1 X118.865 Y103.83 E22.82375
G1 X118.652 Y104.76 E22.86143
G1 X118.39 Y105.689 E22.89955
G1 X118.081 Y106.605 E22.93774
G1 X117.73 Y107.498 E22.97563
G1 X117.334 Y108.37 E23.01346
G1 X116.891 Y109.231 E23.0517
G1 X116.417 Y110.051 E23.08911
G1 X115.898 Y110.852 E23.12681
G1 X115.331 Y111.642 E23.16521
G1 X114.738 Y112.383 E23.2027
G1 X114.089 Y113.117 E23.2414
G1 X113.434 Y113.787 E23.2784
G1 X112.717 Y114.451 E23.317
G1 X111.986 Y115.063 E23.35466
G1 X111.228 Y115.636 E23.39219
G1 X110.427 Y116.18 E23.43043
G1 X109.607 Y116.681 E23.46838
G1 X108.766 Y117.137 E23.50617
G1 X107.895 Y117.556 E23.54434
G1 X107.019 Y117.925 E23.58189
G1 X106.112 Y118.254 E23.61999
G1 X105.194 Y118.536 E23.65792
G1 X104.261 Y118.772 E23.69593
G1 X103.334 Y118.958 E23.73328
G1 X102.363 Y119.104 E23.77206
G1 X101.425 Y119.197 E23.80929
G1 X100.463 Y119.244 E23.84733
G1 X99.501 Y119.243 E23.88532
G1 X98.539 Y119.194 E23.92337
G1 X97.584 Y119.098 E23.96128
G1 X96.647 Y118.955 E23.99871
G1 X95.709 Y118.765 E24.03651
G1 X94.751 Y118.52 E24.07557
G1 X93.848 Y118.24 E24.11291
G1 X92.964 Y117.917 E24.15008
G1 X92.056 Y117.533 E24.18902
G1 X91.208 Y117.123 E24.22622
G1 X90.354 Y116.659 E24.26461
G1 X89.543 Y116.161 E24.3022
G1 X88.753 Y115.622 E24.33997
G1 X87.977 Y115.032 E24.37847
G1 X87.256 Y114.426 E24.41567
G1 X86.54 Y113.761 E24.45427
G1 X85.872 Y113.074 E24.49211
G1 X85.247 Y112.363 E24.5295
G1 X84.65 Y111.614 E24.56733
G1 X84.081 Y110.821 E24.60588
G1 X83.564 Y110.02 E24.64354
G1 X83.093 Y109.199 E24.68092
G1 X82.648 Y108.329 E24.71952
G1 X82.258 Y107.464 E24.75699
G1 X81.904 Y106.559 E24.79537
G1 X81.599 Y105.648 E24.83332
G1 X81.345 Y104.744 E24.87041
G1 X81.131 Y103.795 E24.90883
G1 X80.961 Y102.831 E24.94749
G1 X80.846 Y101.905 E24.98435
G1 X80.776 Y100.962 E25.02169
G1 X80.751 Y100 E25.0597
G1 X80.776 Y99.038 E25.09771
G1 X80.847 Y98.078 E25.13573
G1 X80.966 Y97.127 E25.17358
G1 X81.133 Y96.188 E25.21125
G1 X81.344 Y95.258 E25.24892
G1 X81.605 Y94.329 E25.28703
G1 X81.914 Y93.413 E25.32521
G1 X82.264 Y92.52 E25.3631
G1 X82.658 Y91.647 E25.40093
G1 X83.087 Y90.811 E25.43804
G1 X83.579 Y89.957 E25.47697
G1 X84.095 Y89.16 E25.51447
G1 X84.659 Y88.375 E25.55264
G1 X85.259 Y87.621 E25.5907
G1 X85.877 Y86.921 E25.62758
G1 X86.563 Y86.218 E25.66638
G1 X87.26 Y85.571 E25.70394
G1 X88 Y84.95 E25.74209
G1 X88.759 Y84.375 E25.7797
G1 X89.567 Y83.824 E25.81833
G1 X90.376 Y83.33 E25.85577
G1 X91.209 Y82.877 E25.89322
G1 X92.09 Y82.452 E25.93185
G1 X92.971 Y82.081 E25.96961
G1 X93.865 Y81.755 E26.00719
G1 X94.789 Y81.47 E26.04538
G1 X95.726 Y81.232 E26.08357
G1 X96.645 Y81.046 E26.1206
G1 X97.622 Y80.899 E26.15962
G1 X98.556 Y80.805 E26.1967
G1 X99.52 Y80.757 E26.23482
G1 X100.481 Y80.757 E26.27278
G1 X100.995 Y80.782 E26.2931
G0 F7200 X102.294 Y81.081
; TYPE:FILL
G1 F5040 X102.451 Y81.223 E26.30098
G1 X102.52 Y81.167 E26.30584
G1 X102.525 Y81.232 E26.30842
G0 F7200 X107.296 Y82.528
G1 F5040 X107.327 Y82.411 E26.3132
G0 F7200 X110.534 Y84.262
G1 F5040 X110.681 Y84.223 E26.3192
G0 F7200 X111.8 Y85.036
G1 F5040 X111.765 Y85.167 E26.32456
G0 F7200 X115.815 Y89.37
G1 F5040 X115.773 Y89.527 E26.33098
G0 F7200 X117.495 Y92.75
G1 F5040 X117.611 Y92.719 E26.33572
G0 F7200 X118.865 Y97.306
G1 F5040 X118.781 Y97.596 E26.34819
G1 X118.877 Y97.598 E26.35297
G1 X118.776 Y97.563 E26.3572
G0 F7200 X118.859 Y102.737
G1 F5040 X118.73 Y102.772 E26.36247
G0 F7200 X118.516 Y104.374
G1 F5040 X118.539 Y104.397 E26.36376
G0 F7200 X117.113 Y108.381
G1 F5040 X116.955 Y108.424 E26.37023
G0 F7200 X116.447 Y109.376
G1 F5040 X116.536 Y109.465 E26.3752
G0 F7200 X115.072 Y111.46
G1 F5040 X115.028 Y111.627 E26.38202
G0 F7200 X113.388 Y113.388
G1 F5040 X113.473 Y113.473 E26.38677
G0 F7200 X111.765 Y114.991
G1 F5040 X111.458 Y115.073 E26.39932
G0 F7200 X104.399 Y118.541
G1 F5040 X104.296 Y118.438 E26.40507
G0 F7200 X97.705 Y118.919
G1 F5040 X97.573 Y118.779 E26.41287
G1 X97.58 Y118.841 E26.41784
G1 X97.43 Y118.832 E26.42377
G0 F7200 X92.72 Y117.607
G1 F5040 X92.751 Y117.49 E26.42855
G0 F7200 X88.243 Y114.996
G1 F5040 X88.277 Y114.868 E26.43378
G0 F7200 X84.221 Y110.687
G1 F5040 X84.264 Y110.529 E26.44025
G0 F7200 X82.526 Y107.296
G1 F5040 X82.408 Y107.328 E26.44508
G0 F7200 X81.152 Y102.822
G1 F5040 X81.23 Y102.492 E26.45756
G1 X81.158 Y102.459 E26.46235
G1 X81.223 Y102.437 E26.46506
G0 F7200 X81.133 Y97.317
G1 F5040 X81.261 Y97.282 E26.4703
G0 F7200 X81.56 Y95.702
G1 F5040 X81.46 Y95.602 E26.47588
G0 F7200 X82.853 Y91.679
G1 F5040 X83.014 Y91.636 E26.48247
G0 F7200 X83.552 Y90.623
G1 F5040 X83.464 Y90.535 E26.48738
G0 F7200 X86.612 Y86.612
G1 F5040 X86.526 Y86.526 E26.49218
G0 F7200 X88.129 Y85.089
G1 F5040 X88.439 Y85.006 E26.50486
G0 F7200 X90.532 Y83.461
G1 F5040 X90.621 Y83.55 E26.50983
G0 F7200 X95.6 Y81.458
G1 F5040 X95.704 Y81.561 E26.51561
G1 F1800 E25.51561
G0 F7200 X96.352 Y84.679
; TYPE:WALL-OUTER
G1 F1800 E26.51561
G1 F5040 X97.312 Y84.483 E26.55431
G1 X98.298 Y84.344 E26.59364
G1 X99.263 Y84.268 E26.63187
G1 X100.241 Y84.253 E26.6705
G1 X101.221 Y84.299 E26.70925
G1 X102.205 Y84.406 E26.74835
G1 X103.161 Y84.571 E26.78666
G1 X104.115 Y84.798 E26.82539
G1 X105.057 Y85.085 E26.86429
G1 X105.968 Y85.425 E26.90269
G1 X106.858 Y85.823 E26.9412
G1 X107.734 Y86.281 E26.98024
G1 X108.577 Y86.792 E27.01918
G1 X109.37 Y87.341 E27.05727
G1 X110.144 Y87.952 E27.09622
G1 X110.88 Y88.612 E27.13527
G1 X111.556 Y89.3 E27.17336
G1 X112.209 Y90.051 E27.21267
G1 X112.795 Y90.816 E27.25073
G1 X113.349 Y91.643 E27.29004
G1 X113.843 Y92.489 E27.32874
G1 X114.28 Y93.357 E27.36712
G1 X114.668 Y94.265 E27.40612
G1 X114.992 Y95.173 E27.4442
G1 X115.263 Y96.115 E27.48291
G1 X115.475 Y97.071 E27.52159
G1 X115.629 Y98.054 E27.56089
G1 X115.719 Y99.021 E27.59924
G1 X115.749 Y100.012 E27.6384
G1 X115.718 Y100.991 E27.67709
G1 X115.625 Y101.976 E27.71617
G1 X115.472 Y102.944 E27.75487
G1 X115.262 Y103.889 E27.79311
G1 X114.985 Y104.846 E27.83246
G1 X114.66 Y105.754 E27.87055
G1 X114.271 Y106.661 E27.90953
G1 X113.833 Y107.529 E27.94793
G1 X113.338 Y108.375 E27.98664
G1 X112.783 Y109.201 E28.02595
G1 X112.19 Y109.973 E28.06439
G1 X111.553 Y110.703 E28.10266
G1 X110.858 Y111.408 E28.14176
G1 X110.128 Y112.06 E28.18042
G1 X109.367 Y112.661 E28.21872
G1 X108.55 Y113.226 E28.25795
G1 X107.722 Y113.726 E28.29615
G1 X106.84 Y114.186 E28.33544
G1 X105.95 Y114.582 E28.37392
G1 X105.038 Y114.922 E28.41236
G1 X104.092 Y115.209 E28.45141
G1 X103.143 Y115.432 E28.48991
G1 X102.185 Y115.597 E28.5283
G1 X101.2 Y115.704 E28.56744
G1 X100.222 Y115.748 E28.6061
G1 X99.243 Y115.731 E28.64478
G1 X98.278 Y115.654 E28.68301
G1 X97.293 Y115.514 E28.72231
G1 X96.338 Y115.318 E28.76081
G1 X95.405 Y115.064 E28.799
G1 X94.462 Y114.742 E28.83836
G1 X93.566 Y114.374 E28.87662
G1 X92.685 Y113.947 E28.91528
G1 X91.826 Y113.462 E28.95425
G1 X91.007 Y112.929 E28.99284
G1 X90.215 Y112.34 E29.03182
G1 X89.479 Y111.718 E29.06988
G1 X88.766 Y111.036 E29.10885
G1 X88.095 Y110.31 E29.1479
G1 X87.477 Y109.55 E29.18659
G1 X86.916 Y108.765 E29.2247
G1 X86.389 Y107.922 E29.26396
G1 X85.927 Y107.067 E29.30235
G1 X85.514 Y106.178 E29.34106
G1 X85.155 Y105.258 E29.38007
G1 X84.857 Y104.326 E29.41871
G1 X84.621 Y103.39 E29.45684
G1 X84.438 Y102.412 E29.49614
G1 X84.32 Y101.455 E29.53422
G1 X84.259 Y100.482 E29.57273
G1 X84.259 Y99.519 E29.61076
G1 X84.321 Y98.526 E29.65006
G1 X84.44 Y97.569 E29.68815
G1 X84.625 Y96.591 E29.72746
G1 X84.862 Y95.656 E29.76556
G1 X85.161 Y94.724 E29.80422
G1 X85.518 Y93.812 E29.8429
G1 X85.938 Y92.91 E29.8822
G1 X86.398 Y92.062 E29.9203
G1 X86.927 Y91.219 E29.95961
G1 X87.489 Y90.435 E29.99771
G1 X88.118 Y89.664 E30.03701
G1 X88.773 Y88.957 E30.07507
G1 X89.493 Y88.269 E30.11441
G1 X90.23 Y87.648 E30.15247
G1 X91.023 Y87.061 E30.19144
G1 X91.843 Y86.528 E30.23007
G1 X92.705 Y86.043 E30.26913
G1 X93.583 Y85.618 E30.30766
G1 X94.479 Y85.251 E30.3459
G1 X95.422 Y84.931 E30.38523
G1 X95.917 Y84.797 E30.40549
G0 F7200 X96.953 Y86.082
G1 F5040 X95.967 Y86.334 E30.44568
G1 X95.002 Y86.658 E30.48589
G1 X94.063 Y87.048 E30.52605
G1 X93.155 Y87.504 E30.56618
G1 X92.28 Y88.024 E30.60638
G1 X91.445 Y88.606 E30.64658
G1 X90.654 Y89.245 E30.68674
G1 X89.911 Y89.94 E30.72692
G1 X89.218 Y90.685 E30.76711
G1 X88.582 Y91.477 E30.80723
G1 X88.002 Y92.314 E30.84745
G1 X87.484 Y93.19 E30.88764
G1 X87.03 Y94.099 E30.92778
G1 X86.643 Y95.04 E30.96796
G1 X86.323 Y96.006 E31.00815
G1 X86.072 Y96.992 E31.04834
G1 X85.893 Y97.994 E31.08854
G1 X85.786 Y99.004 E31.12866
G1 X85.751 Y100 E31.16802
G1 X85.787 Y101.017 E31.20821
G1 X85.895 Y102.028 E31.24837
G1 X86.077 Y103.029 E31.28855
G1 X86.328 Y104.014 E31.3287
G1 X86.65 Y104.98 E31.36892
G1 X87.038 Y105.92 E31.40908
G1 X87.493 Y106.829 E31.44923
G1 X88.013 Y107.704 E31.48943
G1 X88.593 Y108.54 E31.52962
G1 X89.231 Y109.332 E31.56979
G1 X89.925 Y110.076 E31.60997
G1 X90.669 Y110.77 E31.65016
G1 X91.461 Y111.408 E31.69033
G1 X92.297 Y111.988 E31.73052
G1 X93.172 Y112.508 E31.77072
G1 X94.081 Y112.963 E31.81087
G1 X95.021 Y113.351 E31.85103
G1 X95.987 Y113.673 E31.89125
G1 X96.972 Y113.924 E31.93139
G1 X97.973 Y114.106 E31.97158
G1 X98.984 Y114.214 E32.01174
G1 X100 Y114.25 E32.05189
G1 X101.017 Y114.214 E32.09208
G1 X102.028 Y114.106 E32.13224
G1 X103.029 Y113.924 E32.17243
G1 X104.014 Y113.673 E32.21257
G1 X104.98 Y113.351 E32.25279
G1 X105.92 Y112.963 E32.29296
G1 X106.829 Y112.508 E32.3331
G1 X107.704 Y111.988 E32.37331
G1 X108.54 Y111.408 E32.41349
G1 X109.332 Y110.77 E32.45366
G1 X110.076 Y110.076 E32.49385
G1 X110.77 Y109.332 E32.53403
G1 X111.408 Y108.54 E32.5742
G1 X111.988 Y107.704 E32.61439
G1 X112.508 Y106.829 E32.65459
G1 X112.963 Y105.92 E32.69474
G1 X113.351 Y104.98 E32.7349
G1 X113.673 Y104.014 E32.77512
G1 X113.924 Y103.029 E32.81527
G1 X114.106 Y102.028 E32.85545
G1 X114.214 Y101.017 E32.89561
G1 X114.249 Y99.98 E32.93659
G1 X114.211 Y98.964 E32.97675
G1 X114.102 Y97.953 E33.01691
G1 X113.919 Y96.953 E33.05706
G1 X113.667 Y95.967 E33.09726
G1 X113.343 Y95.002 E33.13746
G1 X112.953 Y94.063 E33.17762
G1 X112.497 Y93.155 E33.21775
G1 X111.977 Y92.28 E33.25795
G1 X111.395 Y91.445 E33.29815
G1 X110.756 Y90.654 E33.33831
G1 X110.061 Y89.911 E33.3785
G1 X109.316 Y89.218 E33.41869
G1 X108.524 Y88.582 E33.4588
G1 X107.687 Y88.002 E33.49902
G1 X106.811 Y87.484 E33.53922
G1 X105.902 Y87.03 E33.57935
G1 X104.961 Y86.643 E33.61954
G1 X103.995 Y86.323 E33.65973
G1 X103.009 Y86.072 E33.69991
G1 X102.007 Y85.893 E33.74012
G1 X100.996 Y85.786 E33.78027
G1 X99.98 Y85.752 E33.82042
G1 X98.964 Y85.79 E33.86058
G1 X97.953 Y85.899 E33.90074
G1 X97.396 Y86 E33.9231
G0 F7200 X96.846 Y85.593
; TYPE:WALL-INNER
G1 F5040 X95.825 Y85.854 E33.96472
G1 X94.827 Y86.189 E34.0063
G1 X93.855 Y86.593 E34.04787
G1 X92.915 Y87.065 E34.08942
G1 X92.009 Y87.603 E34.13104
G1 X91.144 Y88.206 E34.17268
G1 X90.325 Y88.868 E34.21428
G1 X89.557 Y89.587 E34.25583
G1 X88.839 Y90.358 E34.29744
G1 X88.181 Y91.178 E34.33896
G1 X87.581 Y92.044 E34.38057
G1 X87.045 Y92.951 E34.42219
G1 X86.575 Y93.892 E34.46373
G1 X86.174 Y94.866 E34.50533
G1 X85.843 Y95.865 E34.5469
G1 X85.583 Y96.886 E34.58851
G1 X85.398 Y97.923 E34.63012
G1 X85.287 Y98.969 E34.67166
G1 X85.251 Y100 E34.71241
G1 X85.288 Y101.052 E34.75398
G1 X85.4 Y102.099 E34.79557
G1 X85.588 Y103.136 E34.8372
G1 X85.848 Y104.155 E34.87873
G1 X86.181 Y105.155 E34.92036
G1 X86.583 Y106.128 E34.96194
G1 X87.054 Y107.069 E35.0035
G1 X87.592 Y107.975 E35.04512
G1 X88.192 Y108.84 E35.0867
G1 X88.853 Y109.66 E35.1283
G1 X89.571 Y110.43 E35.16988
G1 X90.341 Y111.148 E35.21146
G1 X91.161 Y111.809 E35.25306
G1 X92.026 Y112.409 E35.29464
G1 X92.932 Y112.947 E35.33626
G1 X93.873 Y113.418 E35.37782
G1 X94.846 Y113.82 E35.4194
G1 X95.846 Y114.153 E35.46103
G1 X96.865 Y114.413 E35.50257
G1 X97.902 Y114.601 E35.54419
G1 X98.949 Y114.713 E35.58578
G1 X100 Y114.75 E35.62732
G1 X101.052 Y114.713 E35.66889
G1 X102.099 Y114.601 E35.71048
G1 X103.136 Y114.413 E35.75211
G1 X104.155 Y114.153 E35.79364
G1 X105.155 Y113.82 E35.83527
G1 X106.128 Y113.418 E35.87685
G1 X107.069 Y112.947 E35.91842
G1 X107.975 Y112.409 E35.96003
G1 X108.84 Y111.809 E36.00161
G1 X109.66 Y111.148 E36.04321
G1 X110.43 Y110.43 E36.08479
G1 X111.148 Y109.66 E36.12638
G1 X111.809 Y108.84 E36.16798
G1 X112.409 Y107.975 E36.20955
G1 X112.947 Y107.069 E36.25117
G1 X113.418 Y106.128 E36.29273
G1 X113.82 Y105.155 E36.33431
G1 X114.153 Y104.155 E36.37594
G1 X114.413 Y103.136 E36.41748
G1 X114.601 Y102.099 E36.4591
G1 X114.713 Y101.052 E36.50069
G1 X114.749 Y99.979 E36.5431
G1 X114.71 Y98.927 E36.58468
G1 X114.597 Y97.881 E36.62623
G1 X114.408 Y96.846 E36.66778
G1 X114.147 Y95.825 E36.70941
G1 X113.812 Y94.827 E36.75099
G1 X113.408 Y93.855 E36.79256
G1 X112.936 Y92.915 E36.8341
G1 X112.398 Y92.009 E36.87572
G1 X111.795 Y91.144 E36.91737
G1 X111.133 Y90.325 E36.95896
G1 X110.414 Y89.557 E37.00051
G1 X109.643 Y88.839 E37.04212
G1 X108.823 Y88.181 E37.08365
G1 X107.957 Y87.581 E37.12526
G1 X107.05 Y87.045 E37.16687
G1 X106.109 Y86.575 E37.20842
G1 X105.135 Y86.174 E37.25002
G1 X104.136 Y85.843 E37.29158
G1 X103.115 Y85.583 E37.3332
G1 X102.078 Y85.398 E37.3748
G1 X101.031 Y85.287 E37.41639
G1 X99.979 Y85.252 E37.45796
G1 X98.927 Y85.291 E37.49954
G1 X97.881 Y85.404 E37.54109
G1 X97.289 Y85.512 E37.56486
G0 F7200 X96.474 Y85.165
G1 F5040 X97.401 Y84.975 E37.60223
G1 X98.346 Y84.842 E37.63993
G1 X99.294 Y84.768 E37.67748
G1 X100.242 Y84.753 E37.71493
G1 X101.176 Y84.797 E37.75186
G1 X102.133 Y84.901 E37.78988
G1 X103.059 Y85.061 E37.827
G1 X103.993 Y85.283 E37.86491
G1 X104.884 Y85.555 E37.90171
G1 X105.78 Y85.89 E37.93949
G1 X106.649 Y86.278 E37.97708
G1 X107.491 Y86.718 E38.0146
G1 X108.303 Y87.21 E38.0521
G1 X109.067 Y87.739 E38.0888
G1 X109.82 Y88.334 E38.12671
G1 X110.533 Y88.973 E38.16452
G1 X111.198 Y89.649 E38.20198
G1 X111.814 Y90.358 E38.23907
G1 X112.393 Y91.113 E38.27665
G1 X112.917 Y91.895 E38.31383
G1 X113.398 Y92.718 E38.35148
G1 X113.826 Y93.569 E38.3891
G1 X114.204 Y94.453 E38.42708
G1 X114.515 Y95.326 E38.46368
G1 X114.781 Y96.252 E38.50173
G1 X114.984 Y97.166 E38.53871
G1 X115.131 Y98.104 E38.57621
G1 X115.22 Y99.051 E38.61378
G1 X115.248 Y100.018 E38.65199
G1 X115.218 Y100.968 E38.68953
G1 X115.128 Y101.915 E38.7271
G1 X114.98 Y102.852 E38.76457
G1 X114.774 Y103.776 E38.80196
G1 X114.512 Y104.681 E38.83917
G1 X114.189 Y105.585 E38.87708
G1 X113.819 Y106.449 E38.91421
G1 X113.393 Y107.292 E38.95151
G1 X112.914 Y108.109 E38.98892
G1 X112.384 Y108.898 E39.02646
G1 X111.8 Y109.659 E39.06435
G1 X111.185 Y110.364 E39.1013
G1 X110.511 Y111.047 E39.1392
G1 X109.805 Y111.678 E39.17659
G1 X109.063 Y112.264 E39.21394
G1 X108.287 Y112.8 E39.25119
G1 X107.469 Y113.294 E39.28893
G1 X106.626 Y113.734 E39.32649
G1 X105.768 Y114.116 E39.36358
G1 X104.876 Y114.448 E39.40117
G1 X103.961 Y114.726 E39.43895
G1 X103.041 Y114.942 E39.47627
G1 X102.117 Y115.102 E39.51331
G1 X101.156 Y115.206 E39.55149
G1 X100.224 Y115.248 E39.58833
G1 X99.276 Y115.231 E39.62578
G1 X98.328 Y115.156 E39.66334
G1 X97.384 Y115.022 E39.701
G1 X96.457 Y114.832 E39.73837
G1 X95.545 Y114.584 E39.7757
G1 X94.642 Y114.275 E39.8134
G1 X93.77 Y113.917 E39.85063
G1 X92.9 Y113.494 E39.88884
G1 X92.097 Y113.041 E39.92525
G1 X91.286 Y112.514 E39.96345
G1 X90.535 Y111.955 E40.00043
G1 X89.812 Y111.345 E40.03779
G1 X89.118 Y110.68 E40.07575
G1 X88.476 Y109.986 E40.11309
G1 X87.878 Y109.251 E40.15052
G1 X87.332 Y108.487 E40.18761
G1 X86.826 Y107.679 E40.22526
G1 X86.37 Y106.835 E40.26315
G1 X85.978 Y105.99 E40.29994
G1 X85.626 Y105.089 E40.33815
G1 X85.341 Y104.197 E40.37513
G1 X85.107 Y103.273 E40.41278
G1 X84.933 Y102.341 E40.45023
G1 X84.818 Y101.415 E40.48708
G1 X84.759 Y100.467 E40.5246
G1 X84.759 Y99.534 E40.56145
G1 X84.819 Y98.569 E40.59963
G1 X84.935 Y97.642 E40.63653
G1 X85.111 Y96.71 E40.67399
G1 X85.347 Y95.782 E40.71181
G1 X85.636 Y94.879 E40.74926
G1 X85.976 Y94.013 E40.78601
G1 X86.383 Y93.137 E40.82416
G1 X86.834 Y92.307 E40.86147
G1 X87.334 Y91.51 E40.89863
G1 X87.896 Y90.726 E40.93673
G1 X88.488 Y90.001 E40.97369
G1 X89.139 Y89.298 E41.01154
G1 X89.816 Y88.651 E41.04852
G1 X90.548 Y88.034 E41.08633
G1 X91.311 Y87.469 E41.12383
G1 X92.094 Y86.961 E41.1607
G1 X92.935 Y86.487 E41.19883
G1 X93.786 Y86.075 E41.23617
G1 X94.663 Y85.716 E41.2736
G1 X95.557 Y85.413 E41.31088
G1 X96.039 Y85.283 E41.3306
G0 F7200 X96.161 Y85.445
; TYPE:FILL
G1 F5040 X96.125 Y85.581 E41.33615
G0 F7200 X93.586 Y86.515
G1 F5040 X93.496 Y86.425 E41.34118
G0 F7200 X90.111 Y88.708
G1 F5040 X90.075 Y88.841 E41.34662
G0 F7200 X88.841 Y90.075
G1 F5040 X88.625 Y90.133 E41.35546
G0 F7200 X86.426 Y93.497
G1 F5040 X86.515 Y93.586 E41.36043
G0 F7200 X85.579 Y96.125
G1 F5040 X85.444 Y96.161 E41.36595
G0 F7200 X85.083 Y99.225
G1 F5040 X85.087 Y99.229 E41.36617
G0 F7200 X85.135 Y101.421
G1 F5040 X85.012 Y101.453 E41.37119
G0 F7200 X85.827 Y104.694
G1 F5040 X85.768 Y104.913 E41.38015
G0 F7200 X88.957 Y110.17
G1 F5040 X89.524 Y110.737 E41.40213
G1 X90.075 Y111.288 E41.4329
G0 F7200 X95.18 Y114.258
G1 F5040 X95.392 Y114.202 E41.44156
G0 F7200 X98.599 Y114.986
G1 F5040 X98.63 Y114.87 E41.44631
G0 F7200 X100.771 Y114.913
G1 F5040 X100.783 Y114.926 E41.44701
G0 F7200 X103.893 Y114.546
G1 F5040 X103.931 Y114.405 E41.45277
G0 F7200 X106.416 Y113.487
G1 F5040 X106.507 Y113.578 E41.45786
G0 F7200 X111.094 Y109.994
G1 F5040 X111.181 Y109.971 E41.46141
G0 F7200 X113.576 Y106.505
G1 F5040 X113.486 Y106.415 E41.46644
G0 F7200 X114.405 Y103.931
G1 F5040 X114.54 Y103.894 E41.47197
G0 F7200 X115.03 Y100.887
G1 F5040 X114.911 Y100.769 E41.47859
G0 F7200 X114.869 Y98.63
G1 F5040 X114.986 Y98.599 E41.48337
G0 F7200 X114.201 Y95.393
G1 F5040 X114.259 Y95.176 E41.49224
G0 F7200 X111.496 Y90.283
G1 F5040 X111.351 Y90.138 E41.49389
G1 X110.625 Y89.412 E41.52349
G1 X109.905 Y88.692 E41.55309
G1 X109.669 Y88.456 E41.56627
G0 F7200 X104.913 Y85.768
G1 F5040 X104.695 Y85.827 E41.57519
G0 F7200 X101.452 Y85.018
G1 F5040 X101.42 Y85.136 E41.58002
G0 F7200 X99.231 Y85.088
G1 F5040 X99.114 Y84.972 E41.58653
G1 F1800 E40.58653
G0 F7200 X99.027 Y88.292
; TYPE:WALL-OUTER
G1 F1800 E41.58653
G1 F5040 X100 Y88.251 E41.62499
G1 X100.974 Y88.292 E41.6635
G1 X101.93 Y88.411 E41.70155
G1 X102.884 Y88.611 E41.74005
G1 X103.816 Y88.888 E41.77845
G1 X104.716 Y89.24 E41.81662
G1 X105.594 Y89.669 E41.85521
G1 X106.425 Y90.164 E41.89342
G1 X107.216 Y90.728 E41.93179
G1 X107.958 Y91.357 E41.97021
G1 X108.644 Y92.043 E42.00852
G1 X109.273 Y92.785 E42.04694
G1 X109.837 Y93.576 E42.08531
G1 X110.332 Y94.407 E42.12352
G1 X110.761 Y95.285 E42.16211
G1 X111.113 Y96.185 E42.20028
G1 X111.39 Y97.117 E42.23868
G1 X111.59 Y98.071 E42.27718
G1 X111.709 Y99.027 E42.31523
G1 X111.749 Y100.019 E42.35444
G1 X111.707 Y100.991 E42.39287
G1 X111.587 Y101.942 E42.43073
G1 X111.384 Y102.902 E42.46948
G1 X111.104 Y103.837 E42.50803
G1 X110.752 Y104.734 E42.54609
G1 X110.321 Y105.614 E42.58479
G1 X109.822 Y106.446 E42.62311
G1 X109.262 Y107.23 E42.66117
G1 X108.638 Y107.964 E42.69922
G1 X107.938 Y108.662 E42.73826
G1 X107.206 Y109.281 E42.77612
G1 X106.409 Y109.846 E42.81471
G1 X105.572 Y110.344 E42.85318
G1 X104.703 Y110.766 E42.89133
G1 X103.798 Y111.118 E42.92968
G1 X102.866 Y111.394 E42.96807
G1 X101.91 Y111.592 E43.00663
G1 X100.954 Y111.71 E43.04468
G1 X99.981 Y111.749 E43.08314
G1 X99.009 Y111.707 E43.12157
G1 X98.054 Y111.586 E43.15959
G1 X97.099 Y111.384 E43.19814
G1 X96.164 Y111.104 E43.23669
G1 X95.267 Y110.752 E43.27475
G1 X94.387 Y110.321 E43.31345
G1 X93.555 Y109.822 E43.35177
G1 X92.771 Y109.262 E43.38982
G1 X92.035 Y108.636 E43.42798
G1 X91.336 Y107.935 E43.46708
G1 X90.72 Y107.206 E43.50478
G1 X90.155 Y106.409 E43.54337
G1 X89.657 Y105.572 E43.58183
G1 X89.235 Y104.703 E43.61999
G1 X88.883 Y103.798 E43.65834
G1 X88.607 Y102.866 E43.69673
G1 X88.408 Y101.904 E43.73553
G1 X88.292 Y100.973 E43.77259
G1 X88.251 Y100 E43.81105
G1 X88.292 Y99.027 E43.84952
G1 X88.411 Y98.071 E43.88757
G1 X88.611 Y97.117 E43.92606
G1 X88.888 Y96.185 E43.96447
G1 X89.24 Y95.285 E44.00264
G1 X89.669 Y94.407 E44.04123
G1 X90.164 Y93.576 E44.07943
G1 X90.728 Y92.785 E44.1178
G1 X91.357 Y92.043 E44.15622
G1 X92.043 Y91.357 E44.19454
G1 X92.785 Y90.728 E44.23296
G1 X93.576 Y90.164 E44.27133
G1 X94.407 Y89.669 E44.30953
G1 X95.285 Y89.24 E44.34813
G1 X96.185 Y88.888 E44.3863
G1 X97.117 Y88.611 E44.4247
G1 X98.071 Y88.411 E44.4632
G1 X98.58 Y88.348 E44.48346
G0 F7200 X98.706 Y89.834
G1 F5040 X97.701 Y90.013 E44.52378
G1 X96.717 Y90.292 E44.56417
G1 X95.767 Y90.667 E44.60451
G1 X94.858 Y91.135 E44.64489
G1 X94.002 Y91.691 E44.68521
G1 X93.204 Y92.33 E44.72558
G1 X92.473 Y93.044 E44.76594
G1 X91.819 Y93.828 E44.80627
G1 X91.244 Y94.675 E44.8467
G1 X90.757 Y95.572 E44.88701
G1 X90.363 Y96.515 E44.92738
G1 X90.063 Y97.492 E44.96775
G1 X89.863 Y98.494 E45.0081
G1 X89.763 Y99.49 E45.04764
G1 X89.763 Y100.511 E45.08796
G1 X89.865 Y101.527 E45.12829
G1 X90.067 Y102.53 E45.1687
G1 X90.369 Y103.506 E45.20906
G1 X90.765 Y104.448 E45.24942
G1 X91.254 Y105.345 E45.28977
G1 X91.83 Y106.189 E45.33012
G1 X92.486 Y106.972 E45.37047
G1 X93.218 Y107.686 E45.41086
G1 X94.018 Y108.322 E45.45122
G1 X94.876 Y108.877 E45.49158
G1 X95.785 Y109.343 E45.53193
G1 X96.736 Y109.716 E45.57227
G1 X97.72 Y109.993 E45.61265
G1 X98.727 Y110.17 E45.65303
G1 X99.746 Y110.247 E45.69339
G1 X100.766 Y110.222 E45.73369
G1 X101.779 Y110.095 E45.77401
G1 X102.776 Y109.867 E45.81441
G1 X103.744 Y109.542 E45.85474
G1 X104.676 Y109.122 E45.89512
G1 X105.561 Y108.61 E45.9355
G1 X106.391 Y108.014 E45.97586
G1 X107.157 Y107.338 E46.01621
G1 X107.852 Y106.589 E46.05656
G1 X108.469 Y105.774 E46.09694
G1 X109.002 Y104.903 E46.13727
G1 X109.446 Y103.981 E46.17769
G1 X109.795 Y103.022 E46.21799
G1 X110.047 Y102.031 E46.25838
G1 X110.199 Y101.021 E46.29872
G1 X110.249 Y99.979 E46.33992
G1 X110.196 Y98.96 E46.38022
G1 X110.042 Y97.951 E46.42054
G1 X109.788 Y96.96 E46.46094
G1 X109.436 Y96.001 E46.50129
G1 X108.992 Y95.081 E46.54164
G1 X108.456 Y94.211 E46.582
G1 X107.837 Y93.397 E46.62239
G1 X107.141 Y92.65 E46.66271
G1 X106.375 Y91.975 E46.70304
G1 X105.543 Y91.38 E46.74344
G1 X104.658 Y90.871 E46.78376
G1 X103.725 Y90.453 E46.82414
G1 X102.756 Y90.13 E46.86448
G1 X101.759 Y89.904 E46.90486
G1 X100.745 Y89.779 E46.94521
G1 X99.725 Y89.756 E46.98551
G1 X99.156 Y89.799 E47.00805
G0 F7200 X98.643 Y89.337
; TYPE:WALL-INNER
G1 F5040 X97.589 Y89.525 E47.05033
G1 X96.556 Y89.818 E47.09274
G1 X95.56 Y90.211 E47.13503
G1 X94.607 Y90.702 E47.17737
G1 X93.709 Y91.285 E47.21966
G1 X92.872 Y91.955 E47.26201
G1 X92.105 Y92.704 E47.30435
G1 X91.419 Y93.527 E47.34667
G1 X90.817 Y94.414 E47.38901
G1 X90.306 Y95.355 E47.4313
G1 X89.892 Y96.345 E47.47368
G1 X89.578 Y97.369 E47.51598
G1 X89.368 Y98.42 E47.55832
G1 X89.263 Y99.465 E47.5998
G1 X89.263 Y100.536 E47.6421
G1 X89.37 Y101.602 E47.68441
G1 X89.582 Y102.653 E47.72676
G1 X89.898 Y103.677 E47.76909
G1 X90.314 Y104.665 E47.81143
G1 X90.827 Y105.606 E47.85376
G1 X91.431 Y106.491 E47.89608
G1 X92.119 Y107.313 E47.93841
G1 X92.887 Y108.061 E47.98076
G1 X93.726 Y108.729 E48.02311
G1 X94.625 Y109.31 E48.06539
G1 X95.579 Y109.799 E48.10773
G1 X96.577 Y110.191 E48.15008
G1 X97.609 Y110.481 E48.19242
G1 X98.664 Y110.667 E48.23473
G1 X99.733 Y110.748 E48.27707
G1 X100.803 Y110.721 E48.31935
G1 X101.866 Y110.588 E48.36166
G1 X102.911 Y110.349 E48.404
G1 X103.927 Y110.008 E48.44633
G1 X104.905 Y109.567 E48.4887
G1 X105.833 Y109.031 E48.53103
G1 X106.703 Y108.405 E48.57336
G1 X107.506 Y107.697 E48.61564
G1 X108.235 Y106.911 E48.65798
G1 X108.882 Y106.056 E48.70033
G1 X109.441 Y105.142 E48.74265
G1 X109.907 Y104.176 E48.78501
G1 X110.274 Y103.169 E48.82734
G1 X110.538 Y102.13 E48.86968
G1 X110.697 Y101.07 E48.91202
G1 X110.75 Y99.978 E48.9552
G1 X110.694 Y98.909 E48.99748
G1 X110.533 Y97.851 E49.03975
G1 X110.266 Y96.811 E49.08215
G1 X109.897 Y95.806 E49.12444
G1 X109.431 Y94.84 E49.1668
G1 X108.869 Y93.928 E49.20911
G1 X108.22 Y93.074 E49.25148
G1 X107.49 Y92.291 E49.29376
G1 X106.686 Y91.583 E49.33607
G1 X105.814 Y90.959 E49.37842
G1 X104.885 Y90.425 E49.42074
G1 X103.907 Y89.986 E49.46308
G1 X102.891 Y89.648 E49.50537
G1 X101.845 Y89.411 E49.54773
G1 X100.782 Y89.28 E49.59004
G1 X99.712 Y89.255 E49.63231
G1 X99.092 Y89.302 E49.65687
G0 F7200 X98.149 Y88.905
G1 F5040 X99.074 Y88.79 E49.69368
G1 X100 Y88.751 E49.73029
G1 X100.927 Y88.79 E49.76693
G1 X101.852 Y88.905 E49.80375
G1 X102.757 Y89.095 E49.84027
G1 X103.649 Y89.36 E49.87703
G1 X104.523 Y89.702 E49.91409
G1 X105.356 Y90.108 E49.95069
G1 X106.15 Y90.582 E49.98722
G1 X106.911 Y91.124 E50.02412
G1 X107.622 Y91.727 E50.06094
G1 X108.274 Y92.379 E50.09736
G1 X108.877 Y93.09 E50.13418
G1 X109.419 Y93.851 E50.17108
G1 X109.893 Y94.645 E50.2076
G1 X110.299 Y95.478 E50.2442
G1 X110.641 Y96.352 E50.28127
G1 X110.906 Y97.244 E50.31802
G1 X111.096 Y98.149 E50.35455
G1 X111.211 Y99.074 E50.39136
G1 X111.249 Y100.018 E50.42868
G1 X111.21 Y100.943 E50.46525
G1 X111.093 Y101.862 E50.50184
G1 X110.9 Y102.776 E50.53873
G1 X110.631 Y103.676 E50.57583
G1 X110.296 Y104.529 E50.61203
G1 X109.881 Y105.375 E50.64925
G1 X109.405 Y106.169 E50.68581
G1 X108.868 Y106.921 E50.72231
G1 X108.267 Y107.628 E50.75896
G1 X107.602 Y108.291 E50.79604
G1 X106.898 Y108.886 E50.83245
G1 X106.135 Y109.427 E50.86939
G1 X105.34 Y109.9 E50.90593
G1 X104.497 Y110.31 E50.94295
G1 X103.632 Y110.646 E50.97961
G1 X102.741 Y110.91 E51.01631
G1 X101.834 Y111.098 E51.05289
G1 X100.909 Y111.212 E51.0897
G1 X99.983 Y111.249 E51.12631
G1 X99.058 Y111.21 E51.16287
G1 X98.134 Y111.092 E51.19966
G1 X97.225 Y110.9 E51.23636
G1 X96.325 Y110.631 E51.27346
G1 X95.472 Y110.296 E51.30966
G1 X94.626 Y109.881 E51.34687
G1 X93.832 Y109.405 E51.38344
G1 X93.077 Y108.866 E51.42008
G1 X92.373 Y108.267 E51.45658
G1 X91.71 Y107.602 E51.49367
G1 X91.114 Y106.897 E51.53013
G1 X90.574 Y106.135 E51.56702
G1 X90.101 Y105.34 E51.60356
G1 X89.691 Y104.497 E51.64058
G1 X89.355 Y103.632 E51.67723
G1 X89.091 Y102.741 E51.71394
G1 X88.904 Y101.835 E51.75048
G1 X88.79 Y100.927 E51.78662
G1 X88.751 Y100 E51.82327
G1 X88.79 Y99.074 E51.85987
G1 X88.905 Y98.149 E51.89669
G1 X89.095 Y97.244 E51.93321
G1 X89.36 Y96.352 E51.96996
G1 X89.702 Y95.478 E52.00703
G1 X90.108 Y94.645 E52.04363
G1 X90.582 Y93.851 E52.08016
G1 X91.124 Y93.09 E52.11706
G1 X91.727 Y92.379 E52.15388
G1 X92.379 Y91.727 E52.1903
G1 X93.09 Y91.124 E52.22712
G1 X93.851 Y90.582 E52.26402
G1 X94.645 Y90.108 E52.30054
G1 X95.478 Y89.702 E52.33714
G1 X96.352 Y89.36 E52.37421
G1 X97.244 Y89.095 E52.41096
G1 X97.708 Y88.998 E52.42969
G0 F7200 X100.364 Y89.079
; TYPE:FILL
G1 F5040 X100.396 Y88.957 E52.43467
G0 F7200 X103.743 Y89.601
G1 F5040 X103.845 Y89.703 E52.44037
G0 F7200 X105.225 Y90.255
G1 F5040 X105.191 Y90.381 E52.44552
G0 F7200 X109.363 Y94.129
G1 F5040 X109.483 Y94.574 E52.45229
G1 X109.766 Y94.821 E52.46713
G0 F7200 X110.184 Y96.042
G1 F5040 X110.399 Y96.257 E52.47914
G0 F7200 X111.043 Y99.655
G1 F5040 X110.924 Y99.687 E52.484
G0 F7200 X110.483 Y103.412
G1 F5040 X110.503 Y103.432 E52.48512
G0 F7200 X105.217 Y109.605
G1 F5040 X105.173 Y109.769 E52.49183
G0 F7200 X103.434 Y110.505
G1 F5040 X103.335 Y110.406 E52.49736
G0 F7200 X96.256 Y110.398
G1 F5040 X96.04 Y110.182 E52.50942
G0 F7200 X94.821 Y109.765
G1 F5040 X94.573 Y109.48 E52.51447
G1 X94.131 Y109.363 E52.53252
G0 F7200 X90.672 Y105.93
G1 F5040 X90.536 Y105.528 E52.53511
G1 X90.255 Y105.225 E52.55143
G0 F7200 X89.594 Y96.665
G1 F5040 X89.494 Y96.565 E52.55701
G0 F7200 X90.2 Y94.887
G1 F5040 X90.367 Y94.842 E52.56384
G0 F7200 X92.273 Y92.273
G1 F5040 X92.186 Y92.186 E52.5687
G0 F7200 X94.843 Y90.365
G1 F5040 X94.887 Y90.201 E52.57541
G1 F1800 E51.57541
G0 F7200 X96.123 Y93.291
; TYPE:WALL-OUTER
G1 F1800 E52.57541
G1 F5040 X96.979 Y92.865 E52.61317
G1 X97.884 Y92.546 E52.65107
G1 X98.809 Y92.344 E52.68847
G1 X99.762 Y92.255 E52.72627
G1 X100.717 Y92.285 E52.76401
G1 X101.661 Y92.431 E52.80174
G1 X102.575 Y92.691 E52.83927
G1 X103.448 Y93.061 E52.87672
G1 X104.285 Y93.544 E52.91489
G1 X105.039 Y94.113 E52.9522
G1 X105.727 Y94.78 E52.99004
G1 X106.324 Y95.522 E53.02766
G1 X106.829 Y96.338 E53.06556
G1 X107.227 Y97.203 E53.10317
G1 X107.514 Y98.108 E53.14067
G1 X107.69 Y99.047 E53.1784
G1 X107.749 Y100.027 E53.21718
G1 X107.687 Y100.964 E53.25426
G1 X107.508 Y101.912 E53.29237
G1 X107.219 Y102.815 E53.32982
G1 X106.816 Y103.686 E53.36772
G1 X106.313 Y104.493 E53.40528
G1 X105.714 Y105.234 E53.44291
G1 X105.029 Y105.895 E53.48051
G1 X104.264 Y106.47 E53.51831
G1 X103.441 Y106.942 E53.55578
G1 X102.556 Y107.313 E53.59368
G1 X101.635 Y107.574 E53.63149
G1 X100.697 Y107.717 E53.66897
G1 X99.744 Y107.744 E53.70662
G1 X98.792 Y107.653 E53.74439
G1 X97.867 Y107.448 E53.78181
G1 X96.963 Y107.127 E53.8197
G1 X96.109 Y106.699 E53.85743
G1 X95.313 Y106.169 E53.8952
G1 X94.595 Y105.551 E53.93262
G1 X93.951 Y104.841 E53.97048
G1 X93.403 Y104.062 E54.0081
G1 X92.954 Y103.223 E54.04568
G1 X92.612 Y102.335 E54.08326
G1 X92.381 Y101.401 E54.12127
G1 X92.266 Y100.477 E54.15804
G1 X92.266 Y99.524 E54.19568
G1 X92.384 Y98.574 E54.23349
G1 X92.615 Y97.653 E54.27099
G1 X92.961 Y96.761 E54.30878
G1 X93.411 Y95.922 E54.34639
G1 X93.962 Y95.144 E54.38404
G1 X94.604 Y94.44 E54.42167
G1 X95.336 Y93.813 E54.45974
G1 X95.747 Y93.54 E54.47923
G0 F7200 X96.565 Y94.781
G1 F5040 X95.753 Y95.418 E54.51999
G1 X95.057 Y96.179 E54.56072
G1 X94.495 Y97.044 E54.60146
G1 X94.083 Y97.991 E54.64225
G1 X93.834 Y98.992 E54.68299
G1 X93.75 Y100 E54.72294
G1 X93.836 Y101.029 E54.76373
G1 X94.089 Y102.029 E54.80447
G1 X94.503 Y102.975 E54.84525
G1 X95.068 Y103.839 E54.88603
G1 X95.767 Y104.599 E54.92681
G1 X96.582 Y105.233 E54.96759
G1 X97.49 Y105.725 E55.00838
G1 X98.466 Y106.059 E55.04912
G1 X99.485 Y106.23 E55.08993
G1 X100.516 Y106.23 E55.13065
G1 X101.535 Y106.059 E55.17146
G1 X102.511 Y105.725 E55.21221
G1 X103.419 Y105.233 E55.253
G1 X104.234 Y104.599 E55.29378
G1 X104.933 Y103.839 E55.33456
G1 X105.498 Y102.975 E55.37533
G1 X105.912 Y102.029 E55.41612
G1 X106.166 Y101.029 E55.45687
G1 X106.249 Y99.979 E55.49847
G1 X106.16 Y98.952 E55.53919
G1 X105.904 Y97.953 E55.57992
G1 X105.486 Y97.008 E55.62073
G1 X104.919 Y96.146 E55.66148
G1 X104.217 Y95.39 E55.70223
G1 X103.402 Y94.759 E55.74294
G1 X102.491 Y94.27 E55.78377
G1 X101.514 Y93.939 E55.82452
G1 X100.495 Y93.771 E55.86531
G1 X99.464 Y93.774 E55.90603
G1 X98.447 Y93.948 E55.94678
G1 X97.473 Y94.286 E55.9875
G1 X96.961 Y94.565 E56.01053
G0 F7200 X96.289 Y94.362
; TYPE:WALL-INNER
G1 F5040 X95.412 Y95.05 E56.05455
G1 X94.66 Y95.872 E56.09856
G1 X94.053 Y96.807 E56.14259
G1 X93.608 Y97.83 E56.18665
G1 X93.339 Y98.91 E56.23061
G1 X93.248 Y100 E56.27381
G1 X93.341 Y101.112 E56.31788
G1 X93.614 Y102.192 E56.36188
G1 X94.062 Y103.214 E56.40595
G1 X94.672 Y104.147 E56.44998
G1 X95.427 Y104.968 E56.49403
G1 X96.307 Y105.653 E56.53808
G1 X97.289 Y106.184 E56.58217
G1 X98.343 Y106.545 E56.62617
G1 X99.444 Y106.73 E56.67027
G1 X100.557 Y106.73 E56.71423
G1 X101.658 Y106.545 E56.75832
G1 X102.712 Y106.184 E56.80233
G1 X103.694 Y105.653 E56.84642
G1 X104.574 Y104.968 E56.89047
G1 X105.329 Y104.147 E56.93452
G1 X105.939 Y103.214 E56.97855
G1 X106.387 Y102.192 E57.02262
G1 X106.661 Y101.111 E57.06667
G1 X106.751 Y99.977 E57.1116
G1 X106.655 Y98.868 E57.15556
G1 X106.378 Y97.789 E57.19956
G1 X105.927 Y96.768 E57.24364
G1 X105.314 Y95.837 E57.28767
G1 X104.556 Y95.02 E57.33169
G1 X103.675 Y94.338 E57.37569
G1 X102.691 Y93.81 E57.4198
G1 X101.636 Y93.452 E57.4638
G1 X100.535 Y93.271 E57.50787
G1 X99.421 Y93.274 E57.55187
G1 X98.322 Y93.462 E57.59591
G1 X97.27 Y93.827 E57.63989
G1 X96.685 Y94.146 E57.6662
G0 F7200 X96.378 Y93.723
G1 F5040 X97.173 Y93.327 E57.70128
G1 X98.015 Y93.03 E57.73655
G1 X98.89 Y92.839 E57.77192
G1 X99.777 Y92.756 E57.80711
G1 X100.673 Y92.784 E57.84251
G1 X101.553 Y92.92 E57.87768
G1 X102.405 Y93.163 E57.91267
G1 X103.229 Y93.512 E57.94802
G1 X104.009 Y93.962 E57.98359
G1 X104.712 Y94.493 E58.01838
G1 X105.361 Y95.122 E58.05408
G1 X105.913 Y95.808 E58.08886
G1 X106.388 Y96.575 E58.12449
G1 X106.758 Y97.38 E58.15948
G1 X107.03 Y98.236 E58.19495
G1 X107.193 Y99.105 E58.22988
G1 X107.248 Y100.024 E58.26624
G1 X107.19 Y100.904 E58.30107
G1 X107.023 Y101.789 E58.33664
G1 X106.754 Y102.629 E58.37148
G1 X106.376 Y103.447 E58.40707
G1 X105.903 Y104.205 E58.44236
G1 X105.345 Y104.895 E58.47741
G1 X104.703 Y105.515 E58.51266
G1 X103.992 Y106.049 E58.54778
G1 X103.215 Y106.495 E58.58316
G1 X102.392 Y106.841 E58.61842
G1 X101.527 Y107.085 E58.65392
G1 X100.657 Y107.218 E58.68868
G1 X99.761 Y107.243 E58.72409
G1 X98.867 Y107.158 E58.75955
G1 X98.005 Y106.967 E58.79443
G1 X97.161 Y106.667 E58.8298
G1 X96.359 Y106.265 E58.86524
G1 X95.621 Y105.773 E58.90027
G1 X94.941 Y105.187 E58.93572
G1 X94.344 Y104.531 E58.97076
G1 X93.829 Y103.799 E59.00611
G1 X93.409 Y103.014 E59.04127
G1 X93.089 Y102.18 E59.07655
G1 X92.873 Y101.311 E59.11192
G1 X92.766 Y100.448 E59.14626
G1 X92.766 Y99.553 E59.18161
G1 X92.875 Y98.669 E59.21679
G1 X93.093 Y97.804 E59.25203
G1 X93.414 Y96.976 E59.2871
G1 X93.84 Y96.181 E59.32272
G1 X94.353 Y95.457 E59.35777
G1 X94.955 Y94.797 E59.39305
G1 X95.632 Y94.217 E59.42826
G1 X96.002 Y93.972 E59.44579
G0 F7200 X95.013 Y95.013
; TYPE:FILL
G1 F5040 X95.103 Y95.103 E59.45082
G0 F7200 X93.117 Y99.282
G1 F5040 X92.985 Y99.317 E59.45621
G0 F7200 X95.936 Y105.604
G1 F5040 X95.902 Y105.731 E59.4614
G0 F7200 X99.848 Y106.919
G1 F5040 X100.354 Y107.029 E59.46844
G1 X100.769 Y106.887 E59.48576
G0 F7200 X104.896 Y104.896
G1 F5040 X104.981 Y104.981 E59.49051
G0 F7200 X106.878 Y100.771
G1 F5040 X107.01 Y100.736 E59.4959
G0 F7200 X105.742 Y95.899
G1 F5040 X105.605 Y95.936 E59.50151
G0 F7200 X104.106 Y94.431
G1 F5040 X104.141 Y94.3 E59.50686
G0 F7200 X100.153 Y93.082
G1 F5040 X100.025 Y92.954 E59.51401
G1 F1800 E58.51401
G0 F7200 X100.45 Y96.28
; TYPE:WALL-OUTER
G1 F1800 E59.51401
G1 F5040 X101.331 Y96.497 E59.54985
G1 X102.127 Y96.915 E59.58536
G1 X102.805 Y97.516 E59.62114
G1 X103.318 Y98.259 E59.65681
G1 X103.64 Y99.106 E59.6926
G1 X103.746 Y100.017 E59.72882
G1 X103.633 Y100.914 E59.76453
G1 X103.309 Y101.756 E59.80016
G1 X102.794 Y102.495 E59.83574
G1 X102.112 Y103.093 E59.87156
G1 X101.311 Y103.509 E59.90721
G1 X100.434 Y103.721 E59.94285
G1 X99.53 Y103.716 E59.97855
G1 X98.658 Y103.497 E60.01406
G1 X97.859 Y103.072 E60.04981
G1 X97.184 Y102.469 E60.08556
G1 X96.677 Y101.727 E60.12105
G1 X96.361 Y100.895 E60.1562
G1 X96.253 Y100 E60.19181
G1 X96.361 Y99.106 E60.22737
G1 X96.683 Y98.259 E60.26316
G1 X97.196 Y97.516 E60.29882
G1 X97.874 Y96.915 E60.33461
G1 X98.67 Y96.497 E60.37012
G1 X99.551 Y96.28 E60.40596
G1 X100 Y96.28 E60.42369
G0 F7200 X100.251 Y97.762
G1 F5040 X99.182 Y97.902 E60.46627
G1 X98.302 Y98.522 E60.50879
G1 X97.809 Y99.46 E60.55064
G1 X97.809 Y100.541 E60.59334
G1 X98.311 Y101.497 E60.63598
G1 X99.201 Y102.111 E60.67869
G1 X100.272 Y102.241 E60.7213
G1 X101.282 Y101.858 E60.76396
G1 X102 Y101.048 E60.80672
G1 X102.252 Y99.979 E60.8501
G1 X101.985 Y98.936 E60.89262
G1 X101.262 Y98.135 E60.93524
G1 X100.674 Y97.918 E60.95999
G0 F7200 X100.308 Y97.25
; TYPE:WALL-INNER
G1 F5040 X98.995 Y97.422 E61.01229
G1 X97.915 Y98.183 E61.06448
G1 X97.309 Y99.337 E61.11596
G1 X97.309 Y100.664 E61.16837
G1 X97.926 Y101.838 E61.22075
G1 X99.018 Y102.592 E61.27316
G1 X100.334 Y102.752 E61.32552
G1 X101.575 Y102.282 E61.37794
G1 X102.458 Y101.285 E61.43054
G1 X102.767 Y99.974 E61.48374
G1 X102.439 Y98.693 E61.53596
G1 X101.551 Y97.708 E61.58834
G1 X100.731 Y97.406 E61.62286
G0 F7200 X100.391 Y96.78
G1 F5040 X101.151 Y96.968 E61.65378
G1 X101.841 Y97.33 E61.68455
G1 X102.43 Y97.851 E61.71561
G1 X102.873 Y98.493 E61.74642
G1 X103.15 Y99.222 E61.77722
G1 X103.242 Y100.016 E61.80879
G1 X103.144 Y100.791 E61.83964
G1 X102.864 Y101.521 E61.87052
G1 X102.418 Y102.159 E61.90127
G1 X101.827 Y102.678 E61.93234
G1 X101.134 Y103.037 E61.96316
G1 X100.376 Y103.221 E61.99397
G1 X99.593 Y103.216 E62.0249
G1 X98.838 Y103.026 E62.05564
G1 X98.148 Y102.66 E62.08649
G1 X97.565 Y102.138 E62.1174
G1 X97.121 Y101.489 E62.14846
G1 X96.851 Y100.779 E62.17846
G1 X96.757 Y100 E62.20945
G1 X96.851 Y99.222 E62.2404
G1 X97.128 Y98.493 E62.2712
G1 X97.571 Y97.851 E62.30201
G1 X98.16 Y97.33 E62.33307
G1 X98.85 Y96.968 E62.36385
G1 X99.61 Y96.78 E62.39477
G1 X99.941 Y96.78 E62.40784
G0 F7200 X100.791 Y97.226
; TYPE:FILL
G1 F5040 X101.085 Y97.147 E62.41987
G0 F7200 X102.873 Y99.032
G1 F5040 X102.796 Y99.322 E62.43172
G0 F7200 X102.297 Y101.999
G1 F5040 X102.025 Y102.058 E62.44348
G1 X102.112 Y102.071 E62.44934
G1 X102.007 Y102.264 E62.45802
G0 F7200 X99.259 Y102.813
G1 F5040 X99.196 Y102.829 E62.46059
G0 F7200 X97.157 Y101.048
G1 F5040 X97.185 Y100.942 E62.46492
G0 F7200 X97.935 Y97.935
G1 F5040 X97.929 Y97.87 E62.46944
G1 X98.062 Y97.668 E62.47899
; LAYER:1
G1 F1800 E61.47899
G0 F7200 X88.034 Y85.567 Z0.2
; TYPE:WALL-INNER
G1 F1800 E62.47899
G1 F7200 X87.257 Y86.25 E62.51985
G1 X86.52 Y86.972 E62.5606
G1 X85.822 Y87.734 E62.60141
G1 X85.167 Y88.534 E62.64225
G1 X84.558 Y89.369 E62.68307
G1 X83.996 Y90.236 E62.72388
G1 X83.482 Y91.132 E62.76467
G1 X83.019 Y92.055 E62.80546
G1 X82.607 Y93.003 E62.84628
G1 X82.248 Y93.972 E62.8871
G1 X81.942 Y94.96 E62.92795
G1 X81.693 Y95.961 E62.96869
G1 X81.498 Y96.976 E63.00951
G1 X81.359 Y98 E63.05033
G1 X81.277 Y99.028 E63.09106
G1 X81.251 Y100 E63.12946
G1 X81.279 Y101.033 E63.17028
G1 X81.364 Y102.062 E63.21106
G1 X81.506 Y103.087 E63.25193
G1 X81.705 Y104.1 E63.2927
G1 X81.958 Y105.102 E63.33352
G1 X82.266 Y106.089 E63.37436
G1 X82.629 Y107.057 E63.41519
G1 X83.044 Y108.002 E63.45595
G1 X83.51 Y108.924 E63.49676
G1 X84.027 Y109.819 E63.53758
G1 X84.592 Y110.684 E63.57839
G1 X85.204 Y111.517 E63.61921
G1 X85.861 Y112.315 E63.66004
G1 X86.561 Y113.074 E63.70082
G1 X87.302 Y113.795 E63.74165
G1 X88.081 Y114.474 E63.78247
G1 X88.897 Y115.109 E63.82331
G1 X89.746 Y115.697 E63.8641
G1 X90.626 Y116.239 E63.90492
G1 X91.534 Y116.73 E63.94569
G1 X92.469 Y117.171 E63.98652
G1 X93.427 Y117.56 E64.02736
G1 X94.404 Y117.895 E64.06815
G1 X95.398 Y118.176 E64.10895
G1 X96.406 Y118.402 E64.14975
G1 X97.426 Y118.572 E64.19059
G1 X98.453 Y118.687 E64.23141
G1 X99.485 Y118.743 E64.27223
G1 X100.516 Y118.743 E64.31295
G1 X101.548 Y118.687 E64.35377
G1 X102.575 Y118.572 E64.39458
G1 X103.595 Y118.402 E64.43543
G1 X104.603 Y118.176 E64.47623
G1 X105.597 Y117.895 E64.51702
G1 X106.574 Y117.56 E64.55782
G1 X107.532 Y117.171 E64.59866
G1 X108.467 Y116.73 E64.63949
G1 X109.375 Y116.239 E64.68026
G1 X110.255 Y115.697 E64.72108
G1 X111.104 Y115.109 E64.76187
G1 X111.92 Y114.474 E64.8027
G1 X112.699 Y113.795 E64.84352
G1 X113.44 Y113.074 E64.88435
G1 X114.14 Y112.315 E64.92513
G1 X114.797 Y111.517 E64.96596
G1 X115.409 Y110.684 E65.00679
G1 X115.974 Y109.819 E65.04759
G1 X116.491 Y108.924 E65.08842
G1 X116.957 Y108.002 E65.12922
G1 X117.372 Y107.057 E65.16998
G1 X117.735 Y106.089 E65.21082
G1 X118.043 Y105.102 E65.25165
G1 X118.296 Y104.1 E65.29247
G1 X118.495 Y103.087 E65.33324
G1 X118.637 Y102.062 E65.37411
G1 X118.722 Y101.032 E65.41493
G1 X118.748 Y99.939 E65.45812
G1 X118.717 Y98.906 E65.49893
G1 X118.628 Y97.877 E65.53973
G1 X118.484 Y96.854 E65.58053
G1 X118.28 Y95.84 E65.62138
G1 X118.024 Y94.84 E65.66215
G1 X117.713 Y93.854 E65.70299
G1 X117.347 Y92.888 E65.74379
G1 X116.929 Y91.944 E65.78456
G1 X116.46 Y91.023 E65.82539
G1 X115.94 Y90.13 E65.8662
G1 X115.372 Y89.267 E65.90701
G1 X114.758 Y88.436 E65.94781
G1 X114.098 Y87.64 E65.98865
G1 X113.395 Y86.883 E66.02946
G1 X112.653 Y86.166 E66.07021
G1 X111.871 Y85.488 E66.11109
G1 X111.053 Y84.857 E66.15189
G1 X110.202 Y84.272 E66.19268
G1 X109.321 Y83.733 E66.23347
G1 X108.41 Y83.244 E66.27431
G1 X107.475 Y82.807 E66.31507
G1 X106.516 Y82.421 E66.3559
G1 X105.538 Y82.089 E66.39669
G1 X104.543 Y81.811 E66.4375
G1 X103.533 Y81.588 E66.47835
G1 X102.514 Y81.421 E66.51913
G1 X101.486 Y81.311 E66.55997
G1 X100.455 Y81.258 E66.60074
G1 X99.423 Y81.261 E66.6415
G1 X98.391 Y81.322 E66.68234
G1 X97.364 Y81.439 E66.72316
G1 X96.346 Y81.612 E66.76394
G1 X95.338 Y81.841 E66.80477
G1 X94.346 Y82.126 E66.84554
G1 X93.37 Y82.464 E66.88633
G1 X92.413 Y82.856 E66.92718
G1 X91.48 Y83.3 E66.96799
G1 X90.572 Y83.795 E67.00883
G1 X89.694 Y84.339 E67.04963
G1 X88.848 Y84.931 E67.09041
G1 X88.389 Y85.289 E67.1134
G0 X88 Y84.95
G1 X88.759 Y84.375 E67.15101
G1 X89.567 Y83.824 E67.18964
G1 X90.376 Y83.33 E67.22708
G1 X91.209 Y82.877 E67.26453
G1 X92.09 Y82.452 E67.30316
G1 X92.971 Y82.081 E67.34092
G1 X93.865 Y81.755 E67.3785
G1 X94.789 Y81.47 E67.41669
G1 X95.726 Y81.232 E67.45487
G1 X96.645 Y81.046 E67.49191
G1 X97.622 Y80.899 E67.53093
G1 X98.556 Y80.805 E67.56801
G1 X99.52 Y80.757 E67.60613
G1 X100.481 Y80.757 E67.64408
G1 X101.445 Y80.805 E67.68221
G1 X102.379 Y80.899 E67.71928
G1 X103.356 Y81.046 E67.7583
G1 X104.275 Y81.232 E67.79534
G1 X105.212 Y81.47 E67.83352
G1 X106.136 Y81.755 E67.87171
G1 X107.03 Y82.081 E67.9093
G1 X107.911 Y82.452 E67.94705
G1 X108.792 Y82.877 E67.98569
G1 X109.625 Y83.33 E68.02314
G1 X110.434 Y83.824 E68.06057
G1 X111.242 Y84.375 E68.0992
G1 X112.001 Y84.95 E68.13681
G1 X112.737 Y85.567 E68.17474
G1 X113.438 Y86.218 E68.21253
G1 X114.124 Y86.921 E68.25132
G1 X114.742 Y87.621 E68.2882
G1 X115.342 Y88.375 E68.32626
G1 X115.906 Y89.16 E68.36444
G1 X116.422 Y89.957 E68.40194
G1 X116.914 Y90.811 E68.44087
G1 X117.343 Y91.647 E68.47798
G1 X117.737 Y92.52 E68.51581
G1 X118.087 Y93.413 E68.55369
G1 X118.396 Y94.329 E68.59187
G1 X118.657 Y95.258 E68.62999
G1 X118.868 Y96.188 E68.66765
G1 X119.035 Y97.127 E68.70532
G1 X119.154 Y98.078 E68.74317
G1 X119.225 Y99.028 E68.7808
G1 X119.249 Y100.056 E68.82141
G1 X119.221 Y101.018 E68.85943
G1 X119.147 Y101.977 E68.89742
G1 X119.026 Y102.922 E68.93504
G1 X118.856 Y103.867 E68.97297
G1 X118.637 Y104.815 E69.0114
G1 X118.378 Y105.725 E69.04877
G1 X118.067 Y106.64 E69.08693
G1 X117.722 Y107.513 E69.12401
G1 X117.309 Y108.419 E69.16334
G1 X116.885 Y109.241 E69.19987
G1 X116.397 Y110.082 E69.23827
G1 X115.867 Y110.897 E69.27667
G1 X115.315 Y111.66 E69.31386
G1 X114.704 Y112.421 E69.35241
G1 X114.063 Y113.144 E69.39057
G1 X113.397 Y113.821 E69.42808
G1 X112.699 Y114.466 E69.46562
G1 X111.956 Y115.085 E69.50381
G1 X111.188 Y115.664 E69.5418
G1 X110.397 Y116.2 E69.57954
G1 X109.576 Y116.698 E69.61747
G1 X108.746 Y117.146 E69.65472
G1 X107.86 Y117.57 E69.69351
G1 X106.967 Y117.943 E69.73174
G1 X106.076 Y118.265 E69.76915
G1 X105.158 Y118.546 E69.80707
G1 X104.24 Y118.776 E69.84445
G1 X103.281 Y118.966 E69.88306
G1 X102.343 Y119.105 E69.92052
G1 X101.368 Y119.2 E69.95921
G1 X100.426 Y119.244 E69.99645
G1 X99.464 Y119.241 E70.03445
G1 X98.502 Y119.19 E70.0725
G1 X97.546 Y119.091 E70.11046
G1 X96.614 Y118.948 E70.1477
G1 X95.649 Y118.75 E70.18661
G1 X94.736 Y118.515 E70.22384
G1 X93.82 Y118.23 E70.26173
G1 X92.914 Y117.897 E70.29986
G1 X92.04 Y117.525 E70.33737
G1 X91.16 Y117.097 E70.37602
G1 X90.329 Y116.643 E70.41342
G1 X89.512 Y116.139 E70.45134
G1 X88.713 Y115.592 E70.48958
G1 X87.955 Y115.014 E70.52723
G1 X87.22 Y114.393 E70.56524
G1 X86.514 Y113.734 E70.60338
G1 X85.853 Y113.053 E70.64087
G1 X85.226 Y112.337 E70.67846
G1 X84.617 Y111.568 E70.7172
G1 X84.065 Y110.795 E70.75471
G1 X83.551 Y109.996 E70.79224
G1 X83.067 Y109.15 E70.83073
G1 X82.631 Y108.294 E70.86868
G1 X82.241 Y107.423 E70.90637
G1 X81.899 Y106.542 E70.94369
G1 X81.591 Y105.618 E70.98216
G1 X81.333 Y104.689 E71.02024
G1 X81.124 Y103.758 E71.05793
G1 X80.956 Y102.793 E71.09662
G1 X80.844 Y101.869 E71.13338
G1 X80.776 Y100.962 E71.1693
G1 X80.751 Y100 E71.20731
G1 X80.776 Y99.028 E71.24572
G1 X80.847 Y98.078 E71.28334
G1 X80.966 Y97.127 E71.3212
G1 X81.133 Y96.188 E71.35886
G1 X81.344 Y95.258 E71.39653
G1 X81.605 Y94.329 E71.43464
G1 X81.914 Y93.413 E71.47282
G1 X82.264 Y92.52 E71.51071
G1 X82.658 Y91.647 E71.54854
G1 X83.087 Y90.811 E71.58565
G1 X83.579 Y89.957 E71.62458
G1 X84.095 Y89.16 E71.66208
G1 X84.659 Y88.375 E71.70025
G1 X85.259 Y87.621 E71.73831
G1 X85.877 Y86.921 E71.77519
G1 X86.563 Y86.218 E71.81399
G1 X87.264 Y85.567 E71.85177
G1 X87.655 Y85.24 E71.8719
G0 X87.692 Y84.556
; TYPE:WALL-OUTER
G1 F5040 X88.467 Y83.969 E71.9103
G1 X89.291 Y83.407 E71.9497
G1 X90.12 Y82.9 E71.98808
G1 X90.996 Y82.424 E72.02745
G1 X91.884 Y81.996 E72.06639
G1 X92.779 Y81.618 E72.10476
G1 X93.705 Y81.281 E72.14368
G1 X94.658 Y80.987 E72.18307
G1 X95.606 Y80.746 E72.22171
G1 X96.573 Y80.551 E72.26067
G1 X97.539 Y80.405 E72.29925
G1 X98.523 Y80.307 E72.33831
G1 X99.515 Y80.257 E72.37754
G1 X100.486 Y80.257 E72.41589
G1 X101.478 Y80.307 E72.45512
G1 X102.462 Y80.405 E72.49418
G1 X103.428 Y80.551 E72.53277
G1 X104.395 Y80.746 E72.57173
G1 X105.343 Y80.987 E72.61036
G1 X106.296 Y81.281 E72.64975
G1 X107.222 Y81.618 E72.68867
G1 X108.117 Y81.996 E72.72705
G1 X109.005 Y82.424 E72.76598
G1 X109.881 Y82.9 E72.80536
G1 X110.71 Y83.406 E72.84372
G1 X111.534 Y83.969 E72.88313
G1 X112.309 Y84.556 E72.92153
G1 X113.073 Y85.197 E72.96092
G1 X113.786 Y85.859 E72.99935
G1 X114.482 Y86.572 E73.0387
G1 X115.126 Y87.301 E73.07712
G1 X115.74 Y88.071 E73.11602
G1 X116.315 Y88.871 E73.15493
G1 X116.849 Y89.697 E73.19378
G1 X117.347 Y90.561 E73.23317
G1 X117.791 Y91.426 E73.27157
G1 X118.197 Y92.323 E73.31046
G1 X118.557 Y93.241 E73.3494
G1 X118.871 Y94.174 E73.38828
G1 X119.141 Y95.134 E73.42767
G1 X119.359 Y96.093 E73.46651
G1 X119.529 Y97.051 E73.50494
G1 X119.653 Y98.041 E73.54435
G1 X119.725 Y99.01 E73.58273
G1 X119.749 Y100.053 E73.62393
G1 X119.721 Y101.05 E73.66333
G1 X119.646 Y102.018 E73.70167
G1 X119.521 Y102.996 E73.74061
G1 X119.346 Y103.965 E73.77951
G1 X119.122 Y104.937 E73.8189
G1 X118.856 Y105.872 E73.8573
G1 X118.535 Y106.816 E73.89668
G1 X118.178 Y107.72 E73.93507
G1 X117.766 Y108.623 E73.97427
G1 X117.312 Y109.502 E74.01334
G1 X116.824 Y110.343 E74.05175
G1 X116.287 Y111.169 E74.09066
G1 X115.711 Y111.966 E74.1295
G1 X115.086 Y112.744 E74.16891
G1 X114.432 Y113.481 E74.20783
G1 X113.752 Y114.174 E74.24618
G1 X113.028 Y114.842 E74.28509
G1 X112.272 Y115.473 E74.32398
G1 X111.479 Y116.071 E74.36321
G1 X110.67 Y116.618 E74.40178
G1 X109.818 Y117.135 E74.44114
G1 X108.962 Y117.597 E74.47956
G1 X108.07 Y118.024 E74.51862
G1 X107.154 Y118.407 E74.55783
G1 X106.234 Y118.74 E74.59648
G1 X105.286 Y119.029 E74.63562
G1 X104.342 Y119.266 E74.67406
G1 X103.369 Y119.459 E74.71324
G1 X102.403 Y119.602 E74.75181
G1 X101.42 Y119.697 E74.79082
G1 X100.428 Y119.744 E74.83004
G1 X99.455 Y119.741 E74.86847
G1 X98.466 Y119.688 E74.90759
G1 X97.481 Y119.587 E74.9467
G1 X96.516 Y119.438 E74.98526
G1 X95.543 Y119.239 E75.02449
G1 X94.601 Y118.996 E75.06291
G1 X93.656 Y118.702 E75.102
G1 X92.725 Y118.36 E75.14117
G1 X91.825 Y117.976 E75.17982
G1 X90.933 Y117.543 E75.21898
G1 X90.081 Y117.077 E75.25734
G1 X89.232 Y116.554 E75.29672
G1 X88.427 Y116.003 E75.33525
G1 X87.641 Y115.404 E75.37428
G1 X86.894 Y114.772 E75.41293
G1 X86.165 Y114.091 E75.45233
G1 X85.488 Y113.394 E75.49071
G1 X84.831 Y112.644 E75.53009
G1 X84.219 Y111.872 E75.569
G1 X83.653 Y111.079 E75.60748
G1 X83.121 Y110.252 E75.64632
G1 X82.633 Y109.398 E75.68517
G1 X82.18 Y108.509 E75.72457
G1 X81.777 Y107.611 E75.76345
G1 X81.421 Y106.693 E75.80234
G1 X81.114 Y105.77 E75.84076
G1 X80.847 Y104.81 E75.88011
G1 X80.632 Y103.849 E75.91901
G1 X80.463 Y102.879 E75.9579
G1 X80.344 Y101.901 E75.99681
G1 X80.276 Y100.991 E76.03285
G1 X80.251 Y100.006 E76.07177
G1 X80.276 Y99.01 E76.11112
G1 X80.348 Y98.041 E76.1495
G1 X80.47 Y97.064 E76.18838
G1 X80.642 Y96.093 E76.22733
G1 X80.86 Y95.134 E76.26617
G1 X81.13 Y94.174 E76.30556
G1 X81.44 Y93.252 E76.34398
G1 X81.799 Y92.335 E76.38288
G1 X82.21 Y91.426 E76.42228
G1 X82.654 Y90.561 E76.46068
G1 X83.152 Y89.697 E76.50007
G1 X83.686 Y88.871 E76.53891
G1 X84.261 Y88.071 E76.57783
G1 X84.875 Y87.301 E76.61672
G1 X85.519 Y86.572 E76.65514
G1 X86.215 Y85.859 E76.6945
G1 X86.928 Y85.197 E76.73292
G1 X87.347 Y84.846 E76.75451
G0 F7200 X88.353 Y85.952
G1 F5040 X87.597 Y86.617 E76.79428
G1 X86.879 Y87.32 E76.83397
G1 X86.2 Y88.061 E76.87366
G1 X85.563 Y88.84 E76.91341
G1 X84.97 Y89.652 E76.95312
G1 X84.423 Y90.497 E76.99288
G1 X83.923 Y91.369 E77.03258
G1 X83.472 Y92.267 E77.07227
G1 X83.071 Y93.19 E77.11202
G1 X82.721 Y94.133 E77.15174
G1 X82.424 Y95.094 E77.19147
G1 X82.182 Y96.069 E77.23115
G1 X81.991 Y97.057 E77.27089
G1 X81.856 Y98.053 E77.31059
G1 X81.776 Y99.055 E77.35029
G1 X81.751 Y100 E77.38763
G1 X81.778 Y101.006 E77.42738
G1 X81.861 Y102.007 E77.46705
G1 X81.999 Y103.004 E77.5068
G1 X82.193 Y103.991 E77.54653
G1 X82.439 Y104.966 E77.58625
G1 X82.739 Y105.926 E77.62597
G1 X83.092 Y106.868 E77.6657
G1 X83.497 Y107.789 E77.70544
G1 X83.95 Y108.686 E77.74513
G1 X84.453 Y109.557 E77.78486
G1 X85.003 Y110.399 E77.82458
G1 X85.599 Y111.21 E77.86433
G1 X86.238 Y111.986 E77.90403
G1 X86.92 Y112.725 E77.94375
G1 X87.641 Y113.427 E77.9835
G1 X88.399 Y114.088 E78.02322
G1 X89.193 Y114.706 E78.06296
G1 X90.019 Y115.278 E78.10264
G1 X90.876 Y115.806 E78.1424
G1 X91.76 Y116.284 E78.18209
G1 X92.67 Y116.713 E78.22183
G1 X93.602 Y117.091 E78.26155
G1 X94.553 Y117.418 E78.30127
G1 X95.521 Y117.691 E78.34099
G1 X96.502 Y117.911 E78.3807
G1 X97.495 Y118.077 E78.42047
G1 X98.494 Y118.188 E78.46017
G1 X99.498 Y118.243 E78.49988
G1 X100.503 Y118.243 E78.53957
G1 X101.507 Y118.188 E78.57929
G1 X102.506 Y118.077 E78.61899
G1 X103.499 Y117.911 E78.65875
G1 X104.48 Y117.691 E78.69846
G1 X105.448 Y117.418 E78.73818
G1 X106.399 Y117.091 E78.7779
G1 X107.331 Y116.713 E78.81763
G1 X108.241 Y116.284 E78.85736
G1 X109.125 Y115.806 E78.89705
G1 X109.982 Y115.278 E78.93681
G1 X110.808 Y114.706 E78.97649
G1 X111.602 Y114.088 E79.01623
G1 X112.36 Y113.427 E79.05596
G1 X113.081 Y112.725 E79.0957
G1 X113.763 Y111.986 E79.13542
G1 X114.402 Y111.21 E79.17512
G1 X114.998 Y110.399 E79.21487
G1 X115.548 Y109.557 E79.2546
G1 X116.051 Y108.686 E79.29432
G1 X116.504 Y107.789 E79.33401
G1 X116.909 Y106.868 E79.37375
G1 X117.262 Y105.926 E79.41348
G1 X117.562 Y104.966 E79.45321
G1 X117.808 Y103.991 E79.49292
G1 X118.002 Y103.004 E79.53265
G1 X118.14 Y102.007 E79.5724
G1 X118.223 Y101.005 E79.61212
G1 X118.248 Y99.94 E79.65419
G1 X118.218 Y98.935 E79.6939
G1 X118.131 Y97.934 E79.73359
G1 X117.991 Y96.938 E79.77331
G1 X117.793 Y95.951 E79.81307
G1 X117.543 Y94.977 E79.85279
G1 X117.24 Y94.018 E79.89251
G1 X116.884 Y93.078 E79.93221
G1 X116.477 Y92.159 E79.97191
G1 X116.021 Y91.262 E80.01165
G1 X115.515 Y90.393 E80.05137
G1 X114.962 Y89.553 E80.09109
G1 X114.364 Y88.745 E80.13079
G1 X113.722 Y87.97 E80.17054
G1 X113.038 Y87.233 E80.21025
G1 X112.315 Y86.535 E80.24995
G1 X111.554 Y85.875 E80.28973
G1 X110.758 Y85.261 E80.32944
G1 X109.93 Y84.691 E80.36914
G1 X109.072 Y84.167 E80.40885
G1 X108.186 Y83.691 E80.44857
G1 X107.276 Y83.266 E80.48824
G1 X106.342 Y82.89 E80.52801
G1 X105.39 Y82.567 E80.56771
G1 X104.422 Y82.296 E80.60742
G1 X103.439 Y82.079 E80.64718
G1 X102.447 Y81.917 E80.68688
G1 X101.447 Y81.81 E80.7266
G1 X100.443 Y81.758 E80.7663
G1 X99.438 Y81.761 E80.806
G1 X98.434 Y81.82 E80.84572
G1 X97.435 Y81.934 E80.88543
G1 X96.443 Y82.103 E80.92518
G1 X95.463 Y82.326 E80.96488
G1 X94.497 Y82.603 E81.00457
G1 X93.547 Y82.932 E81.04427
G1 X92.615 Y83.313 E81.08404
G1 X91.707 Y83.745 E81.12376
G1 X90.824 Y84.227 E81.16349
G1 X89.969 Y84.757 E81.20322
G1 X89.145 Y85.333 E81.24293
G1 X88.708 Y85.674 E81.26482
G0 F7200 X88.129 Y85.089
; TYPE:FILL
G1 X88.442 Y85.005 E81.27762
G0 X86.614 Y86.614
G1 X86.527 Y86.527 E81.28248
G0 X85.086 Y88.142
G1 X85.081 Y88.16 E81.28322
G0 X83.464 Y90.535
G1 X83.553 Y90.624 E81.28819
G0 X83.014 Y91.636
G1 X82.853 Y91.679 E81.29477
G0 X81.46 Y95.602
G1 X81.561 Y95.703 E81.30041
G0 X81.263 Y97.282
G1 X81.133 Y97.317 E81.30573
G0 X81.227 Y102.468
G1 X81.172 Y102.508 E81.31051
G1 X81.153 Y102.82 E81.32285
G0 X82.407 Y107.328
G1 X82.525 Y107.296 E81.32768
G0 X84.264 Y110.529
G1 X84.221 Y110.687 E81.33415
G0 X88.277 Y114.868
G1 X88.244 Y114.994 E81.33929
G0 X92.751 Y117.491
G1 X92.72 Y117.608 E81.34407
G0 X97.462 Y118.823
G1 X97.595 Y118.782 E81.35008
G1 X97.557 Y118.839 E81.35497
G1 X97.702 Y118.915 E81.36143
G0 X104.296 Y118.438
G1 X104.397 Y118.54 E81.3671
G0 X111.518 Y115.057
G1 X111.762 Y114.992 E81.37708
G0 X113.388 Y113.388
G1 X113.472 Y113.472 E81.38177
G0 X115.041 Y111.577
G1 X115.072 Y111.461 E81.38651
G0 X116.955 Y108.424
G1 X117.113 Y108.381 E81.39298
G0 X118.73 Y102.772
G1 X118.857 Y102.738 E81.39817
G0 X118.914 Y97.701
G1 X118.775 Y97.572 E81.40598
G1 X118.838 Y97.583 E81.41087
G1 X118.865 Y97.306 E81.42186
G0 X117.61 Y92.719
G1 X117.494 Y92.75 E81.4266
G0 X115.773 Y89.528
G1 X115.815 Y89.37 E81.43306
G0 X111.765 Y85.166
G1 X111.8 Y85.036 E81.43838
G0 X110.681 Y84.223
G1 X110.526 Y84.264 E81.44471
G0 X107.295 Y82.529
G1 X107.327 Y82.411 E81.44954
G0 X102.812 Y81.155
G1 X102.648 Y81.133 E81.45016
G1 X102.451 Y81.222 E81.45486
G1 X102.295 Y81.081 E81.46317
G0 X95.704 Y81.562
G1 X95.6 Y81.458 E81.46897
G0 X91.677 Y82.86
G1 X91.636 Y83.013 E81.47523
G0 X90.622 Y83.551
G1 X90.532 Y83.461 E81.48026
G1 F1800 E80.48026
G0 F7200 X92.094 Y86.961
; TYPE:WALL-INNER
G1 F1800 E81.48026
G1 F7200 X92.935 Y86.487 E81.51839
G1 X93.786 Y86.075 E81.55573
G1 X94.663 Y85.716 E81.59316
G1 X95.557 Y85.413 E81.63044
G1 X96.474 Y85.165 E81.66796
G1 X97.401 Y84.975 E81.70533
G1 X98.346 Y84.842 E81.74303
G1 X99.294 Y84.768 E81.78058
G1 X100.242 Y84.753 E81.81803
G1 X101.176 Y84.797 E81.85496
G1 X102.133 Y84.901 E81.89298
G1 X103.059 Y85.061 E81.9301
G1 X103.993 Y85.283 E81.96801
G1 X104.884 Y85.555 E82.00481
G1 X105.78 Y85.89 E82.04259
G1 X106.649 Y86.278 E82.08018
G1 X107.491 Y86.718 E82.1177
G1 X108.303 Y87.21 E82.1552
G1 X109.067 Y87.739 E82.1919
G1 X109.82 Y88.334 E82.22981
G1 X110.533 Y88.973 E82.26762
G1 X111.198 Y89.649 E82.30508
G1 X111.82 Y90.365 E82.34254
G1 X112.392 Y91.112 E82.3797
G1 X112.917 Y91.895 E82.41693
G1 X113.398 Y92.718 E82.45458
G1 X113.826 Y93.569 E82.4922
G1 X114.204 Y94.453 E82.53018
G1 X114.515 Y95.326 E82.56678
G1 X114.781 Y96.252 E82.60483
G1 X114.984 Y97.166 E82.64181
G1 X115.131 Y98.104 E82.67931
G1 X115.22 Y99.051 E82.71688
G1 X115.247 Y100.055 E82.75655
G1 X115.214 Y101.004 E82.79405
G1 X115.121 Y101.964 E82.83215
G1 X114.974 Y102.875 E82.86859
G1 X114.764 Y103.812 E82.90652
G1 X114.5 Y104.716 E82.94372
G1 X114.174 Y105.621 E82.98171
G1 X113.805 Y106.473 E83.01838
G1 X113.367 Y107.336 E83.0566
G1 X112.887 Y108.15 E83.09393
G1 X112.362 Y108.927 E83.13096
G1 X111.776 Y109.686 E83.16884
G1 X111.159 Y110.391 E83.20584
G1 X110.486 Y111.071 E83.24363
G1 X109.776 Y111.702 E83.28114
G1 X109.032 Y112.285 E83.31848
G1 X108.256 Y112.819 E83.35568
G1 X107.425 Y113.319 E83.39399
G1 X106.606 Y113.742 E83.43039
G1 X105.724 Y114.133 E83.4685
G1 X104.833 Y114.461 E83.506
G1 X103.926 Y114.734 E83.54341
G1 X103.006 Y114.949 E83.58073
G1 X102.082 Y115.105 E83.61774
G1 X101.12 Y115.207 E83.65595
G1 X100.188 Y115.247 E83.69279
G1 X99.238 Y115.229 E83.73032
G1 X98.278 Y115.15 E83.76836
G1 X97.349 Y115.015 E83.80544
G1 X96.417 Y114.821 E83.84304
G1 X95.509 Y114.572 E83.88023
G1 X94.608 Y114.262 E83.91786
G1 X93.737 Y113.902 E83.95508
G1 X92.883 Y113.485 E83.99262
G1 X92.061 Y113.017 E84.02998
G1 X91.249 Y112.486 E84.0683
G1 X90.514 Y111.938 E84.10451
G1 X89.769 Y111.305 E84.14312
G1 X89.101 Y110.663 E84.17972
G1 X88.454 Y109.958 E84.21751
G1 X87.857 Y109.22 E84.255
G1 X87.308 Y108.448 E84.29242
G1 X86.802 Y107.635 E84.33024
G1 X86.361 Y106.815 E84.36701
G1 X85.958 Y105.943 E84.40495
G1 X85.62 Y105.069 E84.44196
G1 X85.332 Y104.162 E84.47955
G1 X85.096 Y103.215 E84.5181
G1 X84.931 Y102.321 E84.554
G1 X84.815 Y101.363 E84.59212
G1 X84.759 Y100.467 E84.62757
G1 X84.759 Y99.534 E84.66442
G1 X84.819 Y98.569 E84.70261
G1 X84.935 Y97.642 E84.73951
G1 X85.111 Y96.71 E84.77697
G1 X85.347 Y95.782 E84.81479
G1 X85.636 Y94.879 E84.85224
G1 X85.976 Y94.013 E84.88898
G1 X86.383 Y93.137 E84.92714
G1 X86.834 Y92.307 E84.96444
G1 X87.334 Y91.51 E85.0016
G1 X87.896 Y90.726 E85.0397
G1 X88.488 Y90.001 E85.07667
G1 X89.139 Y89.298 E85.11452
G1 X89.816 Y88.651 E85.1515
G1 X90.548 Y88.034 E85.18931
G1 X91.311 Y87.469 E85.22681
G1 X91.716 Y87.207 E85.24586
G0 X91.975 Y87.627
G1 X91.112 Y88.232 E85.28749
G1 X90.295 Y88.896 E85.32907
G1 X89.528 Y89.618 E85.37068
G1 X88.813 Y90.391 E85.41226
G1 X88.156 Y91.213 E85.45383
G1 X87.559 Y92.081 E85.49544
G1 X87.026 Y92.989 E85.53702
G1 X86.559 Y93.931 E85.57855
G1 X86.161 Y94.906 E85.62014
G1 X85.832 Y95.907 E85.66176
G1 X85.576 Y96.928 E85.70333
G1 X85.394 Y97.966 E85.74495
G1 X85.286 Y99.01 E85.78641
G1 X85.251 Y100 E85.82553
G1 X85.288 Y101.052 E85.86711
G1 X85.4 Y102.099 E85.9087
G1 X85.588 Y103.136 E85.95032
G1 X85.848 Y104.155 E85.99186
G1 X86.181 Y105.155 E86.03349
G1 X86.583 Y106.128 E86.07507
G1 X87.054 Y107.069 E86.11663
G1 X87.592 Y107.975 E86.15825
G1 X88.192 Y108.84 E86.19983
G1 X88.853 Y109.66 E86.24143
G1 X89.571 Y110.43 E86.28301
G1 X90.341 Y111.148 E86.32459
G1 X91.161 Y111.809 E86.36619
G1 X92.026 Y112.409 E86.40777
G1 X92.932 Y112.947 E86.44939
G1 X93.873 Y113.418 E86.49095
G1 X94.846 Y113.82 E86.53253
G1 X95.846 Y114.153 E86.57416
G1 X96.865 Y114.413 E86.6157
G1 X97.902 Y114.601 E86.65732
G1 X98.949 Y114.713 E86.69891
G1 X100 Y114.75 E86.74045
G1 X101.052 Y114.713 E86.78202
G1 X102.099 Y114.601 E86.82361
G1 X103.136 Y114.413 E86.86524
G1 X104.155 Y114.153 E86.90677
G1 X105.155 Y113.82 E86.9484
G1 X106.128 Y113.418 E86.98998
G1 X107.069 Y112.947 E87.03154
G1 X107.975 Y112.409 E87.07316
G1 X108.84 Y111.809 E87.11474
G1 X109.66 Y111.148 E87.15634
G1 X110.43 Y110.43 E87.19792
G1 X111.148 Y109.66 E87.2395
G1 X111.809 Y108.84 E87.2811
G1 X112.409 Y107.975 E87.32268
G1 X112.947 Y107.069 E87.3643
G1 X113.418 Y106.128 E87.40586
G1 X113.82 Y105.155 E87.44744
G1 X114.153 Y104.155 E87.48907
G1 X114.413 Y103.136 E87.53061
G1 X114.601 Y102.099 E87.57223
G1 X114.713 Y101.051 E87.61386
G1 X114.748 Y99.937 E87.65788
G1 X114.706 Y98.885 E87.69946
G1 X114.589 Y97.84 E87.741
G1 X114.398 Y96.804 E87.7826
G1 X114.133 Y95.785 E87.82419
G1 X113.796 Y94.788 E87.86576
G1 X113.389 Y93.816 E87.90738
G1 X112.914 Y92.878 E87.9489
G1 X112.374 Y91.975 E87.99046
G1 X111.769 Y91.112 E88.03209
G1 X111.105 Y90.295 E88.07367
G1 X110.383 Y89.528 E88.11527
G1 X109.61 Y88.813 E88.15686
G1 X108.788 Y88.156 E88.19842
G1 X107.92 Y87.559 E88.24003
G1 X107.012 Y87.026 E88.28162
G1 X106.07 Y86.559 E88.32314
G1 X105.095 Y86.161 E88.36474
G1 X104.094 Y85.832 E88.40635
G1 X103.073 Y85.576 E88.44793
G1 X102.035 Y85.394 E88.48955
G1 X100.989 Y85.286 E88.53108
G1 X99.937 Y85.253 E88.57265
G1 X98.885 Y85.295 E88.61424
G1 X97.84 Y85.412 E88.65577
G1 X96.804 Y85.603 E88.69738
G1 X95.785 Y85.868 E88.73896
G1 X94.788 Y86.205 E88.78053
G1 X93.816 Y86.612 E88.82215
G1 X92.878 Y87.087 E88.86368
G1 X92.362 Y87.396 E88.88743
G0 X92.247 Y88.047
; TYPE:WALL-OUTER
G1 F5040 X91.413 Y88.631 E88.92764
G1 X90.624 Y89.273 E88.96782
G1 X89.883 Y89.97 E89.008
G1 X89.192 Y90.717 E89.04819
G1 X88.558 Y91.511 E89.08832
G1 X87.981 Y92.35 E89.12854
G1 X87.466 Y93.227 E89.16871
G1 X87.015 Y94.137 E89.20882
G1 X86.63 Y95.079 E89.24901
G1 X86.313 Y96.046 E89.28921
G1 X86.065 Y97.032 E89.32936
G1 X85.889 Y98.035 E89.36958
G1 X85.785 Y99.045 E89.40969
G1 X85.751 Y100 E89.44743
G1 X85.787 Y101.017 E89.48762
G1 X85.895 Y102.028 E89.52778
G1 X86.077 Y103.029 E89.56796
G1 X86.328 Y104.014 E89.60811
G1 X86.65 Y104.98 E89.64833
G1 X87.038 Y105.92 E89.68849
G1 X87.493 Y106.829 E89.72864
G1 X88.013 Y107.704 E89.76884
G1 X88.593 Y108.54 E89.80903
G1 X89.231 Y109.332 E89.8492
G1 X89.925 Y110.076 E89.88939
G1 X90.669 Y110.77 E89.92957
G1 X91.461 Y111.408 E89.96974
G1 X92.297 Y111.988 E90.00993
G1 X93.172 Y112.508 E90.05013
G1 X94.081 Y112.963 E90.09028
G1 X95.021 Y113.351 E90.13044
G1 X95.987 Y113.673 E90.17066
G1 X96.972 Y113.924 E90.21081
G1 X97.973 Y114.106 E90.25099
G1 X98.984 Y114.214 E90.29115
G1 X100 Y114.25 E90.3313
G1 X101.017 Y114.214 E90.37149
G1 X102.028 Y114.106 E90.41165
G1 X103.029 Y113.924 E90.45184
G1 X104.014 Y113.673 E90.49198
G1 X104.98 Y113.351 E90.5322
G1 X105.92 Y112.963 E90.57237
G1 X106.829 Y112.508 E90.61251
G1 X107.704 Y111.988 E90.65272
G1 X108.54 Y111.408 E90.6929
G1 X109.332 Y110.77 E90.73307
G1 X110.076 Y110.076 E90.77326
G1 X110.77 Y109.332 E90.81344
G1 X111.408 Y108.54 E90.85361
G1 X111.988 Y107.704 E90.8938
G1 X112.508 Y106.829 E90.934
G1 X112.963 Y105.92 E90.97415
G1 X113.351 Y104.98 E91.01431
G1 X113.673 Y104.014 E91.05453
G1 X113.924 Y103.029 E91.09468
G1 X114.106 Y102.028 E91.13486
G1 X114.214 Y101.016 E91.17506
G1 X114.248 Y99.939 E91.21762
G1 X114.207 Y98.923 E91.25778
G1 X114.094 Y97.913 E91.29792
G1 X113.909 Y96.913 E91.33809
G1 X113.654 Y95.928 E91.37827
G1 X113.328 Y94.965 E91.41843
G1 X112.935 Y94.026 E91.45863
G1 X112.476 Y93.119 E91.49878
G1 X111.954 Y92.247 E91.53892
G1 X111.37 Y91.413 E91.57913
G1 X110.728 Y90.624 E91.61931
G1 X110.031 Y89.883 E91.65949
G1 X109.284 Y89.192 E91.69968
G1 X108.49 Y88.558 E91.73981
G1 X107.651 Y87.981 E91.78003
G1 X106.774 Y87.466 E91.8202
G1 X105.864 Y87.015 E91.86031
G1 X104.922 Y86.63 E91.9005
G1 X103.955 Y86.313 E91.9407
G1 X102.969 Y86.065 E91.98085
G1 X101.966 Y85.889 E92.02107
G1 X100.956 Y85.785 E92.06118
G1 X99.939 Y85.753 E92.10136
G1 X98.923 Y85.794 E92.14153
G1 X97.913 Y85.907 E92.18167
G1 X96.913 Y86.092 E92.22183
G1 X95.928 Y86.347 E92.26202
G1 X94.965 Y86.673 E92.30217
G1 X94.026 Y87.066 E92.34238
G1 X93.119 Y87.525 E92.38253
G1 X92.634 Y87.815 E92.40485
G0 F7200 X91.023 Y87.061
G1 F5040 X91.843 Y86.528 E92.44347
G1 X92.705 Y86.043 E92.48254
G1 X93.583 Y85.618 E92.52107
G1 X94.479 Y85.251 E92.55931
G1 X95.422 Y84.931 E92.59864
G1 X96.352 Y84.679 E92.6367
G1 X97.312 Y84.483 E92.67539
G1 X98.298 Y84.344 E92.71472
G1 X99.263 Y84.268 E92.75296
G1 X100.241 Y84.253 E92.79159
G1 X101.221 Y84.299 E92.83034
G1 X102.205 Y84.406 E92.86943
G1 X103.161 Y84.571 E92.90775
G1 X104.115 Y84.798 E92.94648
G1 X105.057 Y85.085 E92.98537
G1 X105.968 Y85.425 E93.02378
G1 X106.858 Y85.823 E93.06228
G1 X107.734 Y86.281 E93.10133
G1 X108.577 Y86.792 E93.14026
G1 X109.37 Y87.341 E93.17836
G1 X110.144 Y87.952 E93.2173
G1 X110.88 Y88.612 E93.25635
G1 X111.556 Y89.3 E93.29444
G1 X112.209 Y90.051 E93.33375
G1 X112.795 Y90.816 E93.37181
G1 X113.349 Y91.643 E93.41113
G1 X113.843 Y92.489 E93.44982
G1 X114.28 Y93.357 E93.4882
G1 X114.668 Y94.265 E93.5272
G1 X114.992 Y95.173 E93.56528
G1 X115.263 Y96.115 E93.60399
G1 X115.475 Y97.071 E93.64267
G1 X115.629 Y98.054 E93.68197
G1 X115.719 Y99.021 E93.72033
G1 X115.748 Y100.051 E93.76102
G1 X115.714 Y101.03 E93.79971
G1 X115.62 Y102.005 E93.8384
G1 X115.463 Y102.981 E93.87745
G1 X115.248 Y103.936 E93.91611
G1 X114.974 Y104.877 E93.95482
G1 X114.64 Y105.803 E93.9937
G1 X114.257 Y106.689 E94.03182
G1 X113.808 Y107.574 E94.07102
G1 X113.317 Y108.407 E94.10921
G1 X112.769 Y109.218 E94.14787
G1 X112.165 Y110.001 E94.18693
G1 X111.525 Y110.732 E94.2253
G1 X110.828 Y111.436 E94.26443
G1 X110.099 Y112.084 E94.30295
G1 X109.33 Y112.687 E94.34155
G1 X108.516 Y113.247 E94.38057
G1 X107.683 Y113.748 E94.41896
G1 X106.818 Y114.195 E94.45742
G1 X105.914 Y114.595 E94.49646
G1 X104.99 Y114.936 E94.53536
G1 X104.058 Y115.217 E94.57381
G1 X103.104 Y115.439 E94.6125
G1 X102.147 Y115.601 E94.65083
G1 X101.163 Y115.705 E94.68991
G1 X100.183 Y115.747 E94.72866
G1 X99.204 Y115.728 E94.76733
G1 X98.229 Y115.648 E94.80597
G1 X97.27 Y115.509 E94.84424
G1 X96.295 Y115.306 E94.88358
G1 X95.351 Y115.047 E94.92224
G1 X94.436 Y114.732 E94.96046
G1 X93.534 Y114.359 E94.99901
G1 X92.64 Y113.922 E95.03831
G1 X91.795 Y113.441 E95.07672
G1 X90.969 Y112.901 E95.11569
G1 X90.197 Y112.325 E95.15374
G1 X89.439 Y111.681 E95.19302
G1 X88.74 Y111.008 E95.23135
G1 X88.07 Y110.28 E95.27042
G1 X87.464 Y109.53 E95.30851
G1 X86.887 Y108.719 E95.34782
G1 X86.37 Y107.888 E95.38647
G1 X85.913 Y107.038 E95.42459
G1 X85.496 Y106.134 E95.46391
G1 X85.146 Y105.229 E95.50223
G1 X84.852 Y104.302 E95.54065
G1 X84.611 Y103.336 E95.57997
G1 X84.433 Y102.374 E95.61861
G1 X84.317 Y101.415 E95.65676
G1 X84.259 Y100.482 E95.69368
G1 X84.259 Y99.519 E95.73172
G1 X84.321 Y98.526 E95.77101
G1 X84.44 Y97.569 E95.8091
G1 X84.625 Y96.591 E95.84842
G1 X84.862 Y95.656 E95.88651
G1 X85.161 Y94.724 E95.92517
G1 X85.518 Y93.812 E95.96385
G1 X85.938 Y92.91 E96.00315
G1 X86.398 Y92.062 E96.04126
G1 X86.927 Y91.219 E96.08056
G1 X87.489 Y90.435 E96.11866
G1 X88.118 Y89.664 E96.15796
G1 X88.773 Y88.957 E96.19603
G1 X89.493 Y88.269 E96.23536
G1 X90.23 Y87.648 E96.27343
G1 X90.661 Y87.329 E96.2946
G0 F7200 X90.112 Y88.702
; TYPE:FILL
G1 X89.757 Y89.14 E96.30022
G1 X89.099 Y89.714 E96.30491
G1 X88.625 Y90.133 E96.32989
G0 X86.425 Y93.496
G1 X86.516 Y93.587 E96.33498
G0 X85.58 Y96.125
G1 X85.444 Y96.161 E96.34053
G0 X85.07 Y99.212
G1 X85.087 Y99.229 E96.34148
G0 X85.134 Y101.421
G1 X85.016 Y101.452 E96.3463
G0 X85.827 Y104.694
G1 X85.769 Y104.912 E96.35521
G0 X88.971 Y110.184
G1 X89.496 Y110.709 E96.37662
G1 X90.03 Y111.244 E96.40647
G0 X95.18 Y114.258
G1 X95.393 Y114.201 E96.41518
G0 X103.893 Y114.545
G1 X103.931 Y114.404 E96.42095
G0 X106.415 Y113.486
G1 X106.505 Y113.576 E96.42598
G0 X111.095 Y109.994
G1 X111.105 Y109.991 E96.42639
G0 X114.404 Y103.931
G1 X114.54 Y103.894 E96.43196
G0 X114.868 Y98.63
G1 X114.986 Y98.599 E96.43677
G0 X114.201 Y95.394
G1 X114.259 Y95.178 E96.44561
G0 X113.703 Y93.766
G1 X113.586 Y93.797 E96.45039
G0 X111.5 Y90.287
G1 X111.328 Y90.115 E96.45485
G1 X110.628 Y89.424 E96.48849
G1 X110.625 Y89.449 E96.49096
G1 X110.615 Y89.365 E96.49263
G1 X109.856 Y88.643 E96.52796
G1 X109.669 Y88.456 E96.53841
G0 X104.913 Y85.768
G1 X104.692 Y85.828 E96.54745
G0 X101.452 Y85.018
G1 X101.42 Y85.139 E96.55239
G0 X99.233 Y85.091
G1 X99.114 Y84.972 E96.55904
G0 X96.161 Y85.445
G1 X96.125 Y85.582 E96.56464
G0 X93.586 Y86.515
G1 X93.496 Y86.425 E96.56966
G1 F1800 E95.56966
G0 F7200 X95.478 Y89.702
; TYPE:WALL-INNER
G1 F1800 E96.56966
G1 F7200 X96.352 Y89.36 E96.60673
G1 X97.244 Y89.095 E96.64348
G1 X98.149 Y88.905 E96.68001
G1 X99.074 Y88.79 E96.71682
G1 X100 Y88.751 E96.75343
G1 X100.927 Y88.79 E96.79007
G1 X101.852 Y88.905 E96.82689
G1 X102.757 Y89.095 E96.86341
G1 X103.649 Y89.36 E96.90017
G1 X104.523 Y89.702 E96.93723
G1 X105.356 Y90.108 E96.97383
G1 X106.15 Y90.582 E97.01036
G1 X106.911 Y91.124 E97.04726
G1 X107.622 Y91.727 E97.08408
G1 X108.274 Y92.379 E97.1205
G1 X108.877 Y93.09 E97.15732
G1 X109.419 Y93.851 E97.19422
G1 X109.893 Y94.645 E97.23074
G1 X110.299 Y95.478 E97.26734
G1 X110.641 Y96.352 E97.30441
G1 X110.906 Y97.244 E97.34117
G1 X111.096 Y98.149 E97.37769
G1 X111.211 Y99.074 E97.4145
G1 X111.248 Y100.052 E97.45316
G1 X111.205 Y100.978 E97.48977
G1 X111.083 Y101.914 E97.52705
G1 X110.891 Y102.806 E97.56309
G1 X110.616 Y103.712 E97.60049
G1 X110.277 Y104.57 E97.63692
G1 X109.869 Y105.395 E97.67328
G1 X109.385 Y106.197 E97.71027
G1 X108.843 Y106.95 E97.74692
G1 X108.236 Y107.659 E97.78378
G1 X107.575 Y108.313 E97.82051
G1 X106.863 Y108.912 E97.85726
G1 X106.105 Y109.445 E97.89386
G1 X105.3 Y109.921 E97.93079
G1 X104.47 Y110.321 E97.96718
G1 X103.6 Y110.656 E98.004
G1 X102.709 Y110.916 E98.04066
G1 X101.798 Y111.101 E98.07738
G1 X100.864 Y111.213 E98.11453
G1 X99.948 Y111.248 E98.15074
G1 X99.023 Y111.205 E98.18731
G1 X98.087 Y111.083 E98.22459
G1 X97.195 Y110.891 E98.26063
G1 X96.289 Y110.616 E98.29803
G1 X95.431 Y110.277 E98.33446
G1 X94.606 Y109.869 E98.37082
G1 X93.804 Y109.385 E98.40781
G1 X93.051 Y108.843 E98.44446
G1 X92.342 Y108.236 E98.48132
G1 X91.688 Y107.575 E98.51805
G1 X91.089 Y106.863 E98.5548
G1 X90.556 Y106.105 E98.59139
G1 X90.08 Y105.3 E98.62833
G1 X89.68 Y104.47 E98.66472
G1 X89.345 Y103.6 E98.70154
G1 X89.085 Y102.709 E98.7382
G1 X88.898 Y101.79 E98.77524
G1 X88.79 Y100.927 E98.80959
G1 X88.751 Y100 E98.84624
G1 X88.79 Y99.074 E98.88285
G1 X88.905 Y98.149 E98.91966
G1 X89.095 Y97.244 E98.95619
G1 X89.36 Y96.352 E98.99294
G1 X89.702 Y95.478 E99.03001
G1 X90.108 Y94.645 E99.06661
G1 X90.582 Y93.851 E99.10313
G1 X91.124 Y93.09 E99.14003
G1 X91.727 Y92.379 E99.17685
G1 X92.379 Y91.727 E99.21327
G1 X93.09 Y91.124 E99.25009
G1 X93.851 Y90.582 E99.28699
G1 X94.645 Y90.108 E99.32352
G1 X95.073 Y89.9 E99.34231
G0 X95.522 Y90.23
G1 X94.572 Y90.725 E99.38462
G1 X93.675 Y91.312 E99.42696
G1 X92.841 Y91.985 E99.46929
G1 X92.078 Y92.738 E99.51163
G1 X91.395 Y93.562 E99.5539
G1 X90.796 Y94.452 E99.59627
G1 X90.29 Y95.395 E99.63854
G1 X89.879 Y96.385 E99.68088
G1 X89.569 Y97.411 E99.72321
G1 X89.364 Y98.461 E99.76546
G1 X89.263 Y99.465 E99.80532
G1 X89.263 Y100.536 E99.84762
G1 X89.37 Y101.602 E99.88993
G1 X89.582 Y102.653 E99.93228
G1 X89.898 Y103.677 E99.97461
G1 X90.314 Y104.665 E100.01695
G1 X90.827 Y105.606 E100.05928
G1 X91.431 Y106.491 E100.1016
G1 X92.119 Y107.313 E100.14393
G1 X92.887 Y108.061 E100.18628
G1 X93.726 Y108.729 E100.22863
G1 X94.625 Y109.31 E100.27091
G1 X95.579 Y109.799 E100.31325
G1 X96.577 Y110.191 E100.3556
G1 X97.609 Y110.481 E100.39794
G1 X98.664 Y110.667 E100.44025
G1 X99.733 Y110.748 E100.48259
G1 X100.803 Y110.721 E100.52487
G1 X101.866 Y110.588 E100.56718
G1 X102.911 Y110.349 E100.60952
G1 X103.927 Y110.008 E100.65185
G1 X104.905 Y109.567 E100.69422
G1 X105.833 Y109.031 E100.73655
G1 X106.703 Y108.405 E100.77888
G1 X107.506 Y107.697 E100.82116
G1 X108.235 Y106.911 E100.86351
G1 X108.882 Y106.056 E100.90585
G1 X109.441 Y105.142 E100.94817
G1 X109.907 Y104.176 E100.99053
G1 X110.274 Y103.169 E101.03286
G1 X110.538 Y102.13 E101.0752
G1 X110.698 Y101.069 E101.11758
G1 X110.748 Y99.936 E101.16238
G1 X110.688 Y98.867 E101.20466
G1 X110.522 Y97.809 E101.24696
G1 X110.252 Y96.771 E101.28932
G1 X109.879 Y95.767 E101.33163
G1 X109.408 Y94.804 E101.37397
G1 X108.844 Y93.893 E101.41629
G1 X108.191 Y93.043 E101.45862
G1 X107.458 Y92.261 E101.50095
G1 X106.65 Y91.558 E101.54326
G1 X105.777 Y90.938 E101.58555
G1 X104.846 Y90.407 E101.62788
G1 X103.866 Y89.972 E101.67023
G1 X102.849 Y89.638 E101.71251
G1 X101.803 Y89.406 E101.75482
G1 X100.739 Y89.279 E101.79715
G1 X99.669 Y89.258 E101.83941
G1 X98.601 Y89.344 E101.88173
G1 X97.546 Y89.537 E101.92409
G1 X96.517 Y89.834 E101.96639
G1 X95.941 Y90.063 E101.99088
G0 X95.731 Y90.685
; TYPE:WALL-OUTER
G1 F5040 X94.825 Y91.157 E102.03123
G1 X93.97 Y91.717 E102.07159
G1 X93.174 Y92.358 E102.11196
G1 X92.447 Y93.076 E102.15232
G1 X91.796 Y93.862 E102.19263
G1 X91.225 Y94.711 E102.23304
G1 X90.742 Y95.61 E102.27334
G1 X90.35 Y96.554 E102.31371
G1 X90.055 Y97.532 E102.35406
G1 X89.859 Y98.534 E102.39439
G1 X89.763 Y99.49 E102.43234
G1 X89.763 Y100.511 E102.47266
G1 X89.865 Y101.527 E102.51299
G1 X90.067 Y102.53 E102.5534
G1 X90.369 Y103.506 E102.59375
G1 X90.765 Y104.448 E102.63411
G1 X91.254 Y105.345 E102.67446
G1 X91.83 Y106.189 E102.71482
G1 X92.486 Y106.972 E102.75517
G1 X93.218 Y107.686 E102.79555
G1 X94.018 Y108.322 E102.83592
G1 X94.876 Y108.877 E102.87628
G1 X95.785 Y109.343 E102.91662
G1 X96.736 Y109.716 E102.95697
G1 X97.72 Y109.993 E102.99735
G1 X98.727 Y110.17 E103.03773
G1 X99.746 Y110.247 E103.07809
G1 X100.766 Y110.222 E103.11839
G1 X101.779 Y110.095 E103.15871
G1 X102.776 Y109.867 E103.19911
G1 X103.744 Y109.542 E103.23944
G1 X104.676 Y109.122 E103.27981
G1 X105.561 Y108.61 E103.32019
G1 X106.391 Y108.014 E103.36055
G1 X107.157 Y107.338 E103.4009
G1 X107.852 Y106.589 E103.44126
G1 X108.469 Y105.774 E103.48163
G1 X109.002 Y104.903 E103.52196
G1 X109.446 Y103.981 E103.56238
G1 X109.795 Y103.022 E103.60269
G1 X110.047 Y102.031 E103.64308
G1 X110.199 Y101.02 E103.68346
G1 X110.247 Y99.939 E103.72619
G1 X110.19 Y98.92 E103.7665
G1 X110.032 Y97.911 E103.80684
G1 X109.775 Y96.922 E103.8472
G1 X109.419 Y95.964 E103.88757
G1 X108.97 Y95.046 E103.92793
G1 X108.432 Y94.178 E103.96826
G1 X107.81 Y93.367 E104.00863
G1 X107.111 Y92.622 E104.04898
G1 X106.341 Y91.951 E104.08932
G1 X105.508 Y91.36 E104.12966
G1 X104.62 Y90.854 E104.17003
G1 X103.686 Y90.439 E104.21039
G1 X102.716 Y90.121 E104.25071
G1 X101.719 Y89.899 E104.29105
G1 X100.704 Y89.778 E104.33143
G1 X99.684 Y89.759 E104.37172
G1 X98.666 Y89.841 E104.41206
G1 X97.661 Y90.024 E104.4524
G1 X96.679 Y90.307 E104.49277
G1 X96.15 Y90.518 E104.51526
G0 F7200 X95.285 Y89.24
G1 F5040 X96.185 Y88.888 E104.55343
G1 X97.117 Y88.611 E104.59183
G1 X98.071 Y88.411 E104.63033
G1 X99.027 Y88.292 E104.66838
G1 X100 Y88.251 E104.70684
G1 X100.974 Y88.292 E104.74535
G1 X101.93 Y88.411 E104.7834
G1 X102.884 Y88.611 E104.8219
G1 X103.816 Y88.888 E104.8603
G1 X104.716 Y89.24 E104.89847
G1 X105.594 Y89.669 E104.93706
G1 X106.425 Y90.164 E104.97527
G1 X107.216 Y90.728 E105.01364
G1 X107.958 Y91.357 E105.05206
G1 X108.644 Y92.043 E105.09037
G1 X109.273 Y92.785 E105.12879
G1 X109.837 Y93.576 E105.16716
G1 X110.332 Y94.407 E105.20537
G1 X110.761 Y95.285 E105.24396
G1 X111.113 Y96.185 E105.28213
G1 X111.39 Y97.117 E105.32053
G1 X111.59 Y98.071 E105.35903
G1 X111.709 Y99.028 E105.39712
G1 X111.748 Y100.056 E105.43775
G1 X111.702 Y101.031 E105.4763
G1 X111.576 Y101.998 E105.51482
G1 X111.377 Y102.93 E105.55246
G1 X111.091 Y103.872 E105.59134
G1 X110.737 Y104.767 E105.62936
G1 X110.304 Y105.643 E105.66795
G1 X109.803 Y106.471 E105.70618
G1 X109.237 Y107.259 E105.7445
G1 X108.603 Y107.999 E105.78298
G1 X107.909 Y108.686 E105.82155
G1 X107.17 Y109.308 E105.8597
G1 X106.376 Y109.866 E105.89803
G1 X105.543 Y110.358 E105.93624
G1 X104.663 Y110.783 E105.97484
G1 X103.762 Y111.129 E106.01296
G1 X102.828 Y111.402 E106.05139
G1 X101.873 Y111.597 E106.08989
G1 X100.917 Y111.711 E106.12792
G1 X99.944 Y111.748 E106.16638
G1 X98.97 Y111.702 E106.20489
G1 X98.003 Y111.576 E106.2434
G1 X97.065 Y111.375 E106.28129
G1 X96.129 Y111.091 E106.31993
G1 X95.234 Y110.737 E106.35794
G1 X94.358 Y110.304 E106.39653
G1 X93.53 Y109.803 E106.43476
G1 X92.742 Y109.237 E106.47308
G1 X92.002 Y108.603 E106.51156
G1 X91.312 Y107.906 E106.5503
G1 X90.693 Y107.17 E106.58829
G1 X90.135 Y106.376 E106.62662
G1 X89.643 Y105.543 E106.66483
G1 X89.218 Y104.663 E106.70342
G1 X88.872 Y103.762 E106.74154
G1 X88.599 Y102.828 E106.77998
G1 X88.405 Y101.874 E106.81843
G1 X88.292 Y100.973 E106.85429
G1 X88.251 Y100 E106.89276
G1 X88.292 Y99.027 E106.93122
G1 X88.411 Y98.071 E106.96927
G1 X88.611 Y97.117 E107.00777
G1 X88.888 Y96.185 E107.04617
G1 X89.24 Y95.285 E107.08434
G1 X89.669 Y94.407 E107.12294
G1 X90.164 Y93.576 E107.16114
G1 X90.728 Y92.785 E107.19951
G1 X91.357 Y92.043 E107.23793
G1 X92.043 Y91.357 E107.27625
G1 X92.785 Y90.728 E107.31467
G1 X93.576 Y90.164 E107.35304
G1 X94.407 Y89.669 E107.39124
G1 X94.88 Y89.438 E107.41203
G0 F7200 X94.887 Y90.201
; TYPE:FILL
G1 X94.842 Y90.369 E107.4189
G0 X96.565 Y89.494
G1 X96.665 Y89.593 E107.42446
G0 X100.364 Y89.08
G1 X100.396 Y88.957 E107.42948
G0 X103.742 Y89.6
G1 X103.844 Y89.702 E107.43517
G0 X105.225 Y90.255
G1 X105.48 Y90.549 E107.4404
G1 X105.776 Y90.713 E107.45377
G0 X109.363 Y94.129
G1 X109.481 Y94.576 E107.46063
G1 X109.766 Y94.821 E107.47548
G0 X110.182 Y96.04
G1 X110.399 Y96.257 E107.4876
G0 X111.042 Y99.655
G1 X110.922 Y99.687 E107.4925
G0 X105.217 Y109.604
G1 X105.173 Y109.77 E107.49928
G0 X103.434 Y110.505
G1 X103.335 Y110.406 E107.50481
G0 X96.254 Y110.396
G1 X96.072 Y110.214 E107.51498
G0 X94.822 Y109.762
G1 X94.547 Y109.487 E107.51993
G1 X94.134 Y109.362 E107.53697
G0 X90.673 Y105.929
G1 X90.538 Y105.523 E107.53991
G1 X90.255 Y105.225 E107.55614
G0 X89.595 Y96.666
G1 X89.494 Y96.566 E107.56175
G0 X90.2 Y94.887
G1 X90.371 Y94.841 E107.56875
G0 X92.274 Y92.274
G1 X92.186 Y92.186 E107.57366
G1 F1800 E106.57366
G0 F7200 X94.955 Y94.797
; TYPE:WALL-INNER
G1 F1800 E107.57366
G1 F7200 X95.632 Y94.217 E107.60887
G1 X96.378 Y93.723 E107.64421
G1 X97.173 Y93.327 E107.67929
G1 X98.015 Y93.03 E107.71456
G1 X98.89 Y92.839 E107.74993
G1 X99.777 Y92.756 E107.78512
G1 X100.673 Y92.784 E107.82052
G1 X101.553 Y92.92 E107.85569
G1 X102.405 Y93.163 E107.89068
G1 X103.229 Y93.512 E107.92603
G1 X104.009 Y93.962 E107.96159
G1 X104.712 Y94.493 E107.99639
G1 X105.361 Y95.122 E108.03209
G1 X105.913 Y95.808 E108.06686
G1 X106.388 Y96.575 E108.1025
G1 X106.758 Y97.38 E108.13749
G1 X107.03 Y98.236 E108.17296
G1 X107.193 Y99.105 E108.20789
G1 X107.245 Y100.056 E108.2455
G1 X107.183 Y100.943 E108.28062
G1 X107.013 Y101.818 E108.31583
G1 X106.737 Y102.665 E108.35101
G1 X106.357 Y103.476 E108.38638
G1 X105.882 Y104.23 E108.42158
G1 X105.318 Y104.921 E108.45681
G1 X104.677 Y105.533 E108.49181
G1 X103.958 Y106.068 E108.52721
G1 X103.179 Y106.51 E108.56259
G1 X102.358 Y106.85 E108.59768
G1 X101.497 Y107.089 E108.63298
G1 X100.616 Y107.219 E108.66815
G1 X99.721 Y107.24 E108.70351
G1 X98.842 Y107.151 E108.7384
G1 X97.966 Y106.953 E108.77387
G1 X97.129 Y106.651 E108.80902
G1 X96.331 Y106.246 E108.84436
G1 X95.595 Y105.751 E108.8794
G1 X94.915 Y105.159 E108.91501
G1 X94.322 Y104.5 E108.95002
G1 X93.812 Y103.767 E108.98529
G1 X93.397 Y102.981 E109.0204
G1 X93.082 Y102.149 E109.05553
G1 X92.868 Y101.271 E109.09123
G1 X92.766 Y100.448 E109.12398
G1 X92.766 Y99.553 E109.15933
G1 X92.875 Y98.669 E109.19451
G1 X93.093 Y97.804 E109.22974
G1 X93.414 Y96.976 E109.26482
G1 X93.84 Y96.181 E109.30044
G1 X94.353 Y95.457 E109.33549
G1 X94.651 Y95.13 E109.35296
G0 X95.382 Y95.082
G1 X94.635 Y95.909 E109.39697
G1 X94.035 Y96.847 E109.44095
G1 X93.597 Y97.874 E109.48505
G1 X93.335 Y98.952 E109.52887
G1 X93.248 Y100 E109.5704
G1 X93.341 Y101.112 E109.61448
G1 X93.614 Y102.192 E109.65847
G1 X94.062 Y103.214 E109.70255
G1 X94.672 Y104.147 E109.74657
G1 X95.427 Y104.968 E109.79063
G1 X96.307 Y105.653 E109.83467
G1 X97.289 Y106.184 E109.87877
G1 X98.343 Y106.545 E109.92277
G1 X99.444 Y106.73 E109.96686
G1 X100.557 Y106.73 E110.01082
G1 X101.658 Y106.545 E110.05492
G1 X102.712 Y106.184 E110.09892
G1 X103.694 Y105.653 E110.14301
G1 X104.574 Y104.968 E110.18706
G1 X105.329 Y104.147 E110.23111
G1 X105.939 Y103.214 E110.27514
G1 X106.387 Y102.192 E110.31921
G1 X106.661 Y101.108 E110.36337
G1 X106.748 Y99.934 E110.40987
G1 X106.644 Y98.824 E110.4539
G1 X106.36 Y97.748 E110.49786
G1 X105.902 Y96.73 E110.54195
G1 X105.284 Y95.804 E110.58592
G1 X104.521 Y94.991 E110.62995
G1 X103.635 Y94.316 E110.67395
G1 X102.649 Y93.795 E110.71799
G1 X101.592 Y93.444 E110.76198
G1 X100.491 Y93.27 E110.80601
G1 X99.377 Y93.282 E110.85001
G1 X98.28 Y93.476 E110.89401
G1 X97.23 Y93.848 E110.93801
G1 X96.254 Y94.389 E110.98208
G1 X95.735 Y94.801 E111.00825
G0 X95.725 Y95.448
; TYPE:WALL-OUTER
G1 F5040 X95.034 Y96.214 E111.049
G1 X94.478 Y97.082 E111.08971
G1 X94.073 Y98.032 E111.1305
G1 X93.83 Y99.032 E111.17115
G1 X93.75 Y100 E111.20951
G1 X93.836 Y101.029 E111.25029
G1 X94.089 Y102.029 E111.29103
G1 X94.503 Y102.975 E111.33182
G1 X95.068 Y103.839 E111.37259
G1 X95.767 Y104.599 E111.41337
G1 X96.582 Y105.233 E111.45416
G1 X97.49 Y105.725 E111.49495
G1 X98.466 Y106.059 E111.53569
G1 X99.485 Y106.23 E111.5765
G1 X100.516 Y106.23 E111.61722
G1 X101.535 Y106.059 E111.65803
G1 X102.511 Y105.725 E111.69877
G1 X103.419 Y105.233 E111.73956
G1 X104.234 Y104.599 E111.78034
G1 X104.933 Y103.839 E111.82113
G1 X105.498 Y102.975 E111.8619
G1 X105.912 Y102.029 E111.90268
G1 X106.166 Y101.028 E111.94347
G1 X106.246 Y99.939 E111.9866
G1 X106.15 Y98.911 E112.02738
G1 X105.887 Y97.915 E112.06807
G1 X105.463 Y96.973 E112.10887
G1 X104.891 Y96.116 E112.14956
G1 X104.185 Y95.364 E112.1903
G1 X103.365 Y94.739 E112.23102
G1 X102.452 Y94.256 E112.27182
G1 X101.473 Y93.931 E112.31256
G1 X100.454 Y93.771 E112.3533
G1 X99.424 Y93.781 E112.39398
G1 X98.408 Y93.961 E112.43474
G1 X97.436 Y94.305 E112.47546
G1 X96.533 Y94.806 E112.51625
G1 X96.078 Y95.168 E112.53921
G0 F7200 X94.604 Y94.44
G1 F5040 X95.336 Y93.813 E112.57728
G1 X96.123 Y93.291 E112.61458
G1 X96.979 Y92.865 E112.65234
G1 X97.884 Y92.546 E112.69024
G1 X98.809 Y92.344 E112.72764
G1 X99.762 Y92.255 E112.76544
G1 X100.717 Y92.285 E112.80318
G1 X101.661 Y92.431 E112.84091
G1 X102.575 Y92.691 E112.87844
G1 X103.448 Y93.061 E112.91589
G1 X104.285 Y93.544 E112.95406
G1 X105.039 Y94.113 E112.99137
G1 X105.727 Y94.78 E113.02921
G1 X106.324 Y95.522 E113.06683
G1 X106.829 Y96.338 E113.10473
G1 X107.227 Y97.203 E113.14234
G1 X107.514 Y98.108 E113.17984
G1 X107.69 Y99.047 E113.21757
G1 X107.745 Y100.064 E113.2578
G1 X107.68 Y101.008 E113.29517
G1 X107.499 Y101.94 E113.33267
G1 X107.201 Y102.856 E113.37071
G1 X106.8 Y103.71 E113.40798
G1 X106.289 Y104.522 E113.44587
G1 X105.687 Y105.26 E113.48348
G1 X104.995 Y105.92 E113.52125
G1 X104.232 Y106.488 E113.55882
G1 X103.401 Y106.959 E113.59655
G1 X102.52 Y107.324 E113.63421
G1 X101.598 Y107.58 E113.67201
G1 X100.66 Y107.718 E113.70945
G1 X99.707 Y107.741 E113.74711
G1 X98.755 Y107.644 E113.7849
G1 X97.825 Y107.434 E113.82256
G1 X96.93 Y107.111 E113.86014
G1 X96.08 Y106.68 E113.89778
G1 X95.288 Y106.147 E113.93548
G1 X94.566 Y105.519 E113.97328
G1 X93.93 Y104.811 E114.01087
G1 X93.385 Y104.029 E114.04852
G1 X92.941 Y103.188 E114.08608
G1 X92.602 Y102.292 E114.12391
G1 X92.376 Y101.365 E114.1616
G1 X92.266 Y100.477 E114.19694
G1 X92.266 Y99.524 E114.23458
G1 X92.384 Y98.574 E114.27239
G1 X92.615 Y97.653 E114.30989
G1 X92.961 Y96.761 E114.34768
G1 X93.411 Y95.922 E114.38528
G1 X93.962 Y95.144 E114.42294
G1 X94.3 Y94.773 E114.44276
G0 F7200 X95.013 Y95.013
; TYPE:FILL
G1 X95.104 Y95.104 E114.44784
G0 X93.116 Y99.282
G1 X92.985 Y99.317 E114.4532
G0 X95.936 Y105.604
G1 X95.903 Y105.728 E114.45827
G0 X99.848 Y106.919
G1 X99.972 Y107.043 E114.46519
G0 X104.897 Y104.897
G1 X104.979 Y104.979 E114.46977
G0 X106.875 Y100.772
G1 X107.027 Y100.357 E114.47512
G1 X107.034 Y99.962 E114.49072
G0 X105.742 Y95.899
G1 X105.599 Y95.937 E114.49656
G0 X104.105 Y94.435
G1 X104.141 Y94.3 E114.50208
G0 X100.153 Y93.082
G1 X100.025 Y92.954 E114.50923
G1 F1800 E113.50923
G0 F7200 X100.391 Y96.78
; TYPE:WALL-INNER
G1 F1800 E114.50923
G1 F7200 X101.151 Y96.968 E114.54015
G1 X101.841 Y97.33 E114.57093
G1 X102.43 Y97.851 E114.60199
G1 X102.873 Y98.493 E114.63279
G1 X103.15 Y99.222 E114.6636
G1 X103.244 Y100 E114.69455
G1 X103.15 Y100.779 E114.72554
G1 X102.873 Y101.508 E114.75634
G1 X102.43 Y102.15 E114.78715
G1 X101.841 Y102.671 E114.81821
G1 X101.151 Y103.033 E114.84898
G1 X100.391 Y103.221 E114.8799
G1 X99.61 Y103.221 E114.91075
G1 X98.85 Y103.033 E114.94167
G1 X98.16 Y102.671 E114.97245
G1 X97.571 Y102.15 E115.00351
G1 X97.128 Y101.508 E115.03431
G1 X96.851 Y100.779 E115.06511
G1 X96.757 Y100 E115.09611
G1 X96.851 Y99.222 E115.12706
G1 X97.128 Y98.493 E115.15786
G1 X97.571 Y97.851 E115.18867
G1 X98.16 Y97.33 E115.21972
G1 X98.85 Y96.968 E115.2505
G1 X99.61 Y96.78 E115.28142
G1 X99.941 Y96.78 E115.29449
G0 X100.334 Y97.249
G1 X99.018 Y97.409 E115.34685
G1 X97.926 Y98.163 E115.39927
G1 X97.309 Y99.337 E115.45165
G1 X97.309 Y100.664 E115.50406
G1 X97.926 Y101.838 E115.55644
G1 X99.018 Y102.592 E115.60886
G1 X100.334 Y102.752 E115.66122
G1 X101.575 Y102.282 E115.71363
G1 X102.455 Y101.288 E115.76606
G1 X102.772 Y100 E115.81845
G1 X102.455 Y98.713 E115.8708
G1 X101.575 Y97.719 E115.92324
G1 X100.755 Y97.409 E115.95786
G0 X100.272 Y97.76
; TYPE:WALL-OUTER
G1 F5040 X99.201 Y97.89 E116.00047
G1 X98.311 Y98.504 E116.04318
G1 X97.809 Y99.46 E116.08583
G1 X97.809 Y100.541 E116.12852
G1 X98.311 Y101.497 E116.17117
G1 X99.201 Y102.111 E116.21388
G1 X100.272 Y102.241 E116.25649
G1 X101.282 Y101.858 E116.29915
G1 X101.999 Y101.049 E116.34185
G1 X102.257 Y100 E116.38451
G1 X101.999 Y98.952 E116.42714
G1 X101.282 Y98.143 E116.46984
G1 X100.693 Y97.92 E116.49471
G0 F7200 X100.45 Y96.28
G1 F5040 X101.331 Y96.497 E116.53055
G1 X102.127 Y96.915 E116.56606
G1 X102.805 Y97.516 E116.60184
G1 X103.318 Y98.259 E116.6375
G1 X103.64 Y99.106 E116.67329
G1 X103.748 Y100 E116.70886
G1 X103.64 Y100.895 E116.74446
G1 X103.318 Y101.742 E116.78025
G1 X102.805 Y102.485 E116.81592
G1 X102.127 Y103.086 E116.8517
G1 X101.331 Y103.504 E116.88721
G1 X100.45 Y103.721 E116.92305
G1 X99.551 Y103.721 E116.95855
G1 X98.67 Y103.504 E116.99439
G1 X97.874 Y103.086 E117.0299
G1 X97.196 Y102.485 E117.06569
G1 X96.683 Y101.742 E117.10135
G1 X96.361 Y100.895 E117.13714
G1 X96.253 Y100 E117.17274
G1 X96.361 Y99.106 E117.20831
G1 X96.683 Y98.259 E117.2441
G1 X97.196 Y97.516 E117.27976
G1 X97.874 Y96.915 E117.31554
G1 X98.67 Y96.497 E117.35105
G1 X99.551 Y96.28 E117.38689
G1 X100 Y96.28 E117.40462
G0 F7200 X100.803 Y97.222
; TYPE:FILL
G1 X101.085 Y97.147 E117.41615
G0 X102.873 Y99.032
G1 X102.798 Y99.314 E117.42767
G0 X102.302 Y101.997
G1 X102.025 Y102.058 E117.43962
G1 X102.112 Y102.071 E117.44548
G1 X102.006 Y102.269 E117.45435
G0 X99.258 Y102.813
G1 X99.18 Y102.834 E117.45754
G0 X97.156 Y101.05
G1 X97.186 Y100.939 E117.46208
G0 X98.007 Y97.875
G1 X98.062 Y97.668 E117.47054
; LAYER:2
G1 F1800 E116.47054
G0 F7200 X88.003 Y85.594 Z0.4
; TYPE:WALL-INNER
G1 F1800 E117.47054
G1 F7200 X87.228 Y86.278 E117.51137
G1 X86.491 Y87.003 E117.5522
G1 X85.796 Y87.766 E117.59296
G1 X85.142 Y88.567 E117.63381
