; Generated with MatterSlice 1.0
; filamentDiameter = 1.75
; extrusionWidth = 0.5
; firstLayerExtrusionWidth = 0.5
; layerThickness = 0.2
; firstLayerThickness = 0.2
; automatic settings before start_gcode
G21 ; set units to millimeters
M107 ; fan off
M190 S70 ; wait for bed temperature to be reached
M104 T0 S200 ; start heating extruder 0
T0 ; set the active extruder to 0
; settings from start_gcode
G28 ; home all axes
G1 Z5 F5000 ; lift nozzle
; automatic settings after start_gcode
M109 T0 S190 ; wait for extruder 0 to reach temperature
T0 ; set the active extruder to 0
G90 ; use absolute coordinates
G92 E0 ; reset the expected extruder position
M82 ; use absolute distance for extrusion
; Layer count: 75
; LAYER:0
M106 S178
G0 F7200 X101.431 Y77.308 Z0
; TYPE:SKIRT
G1 F1800 E0
G1 F5040 X102.845 Y77.442 E0.0561
G1 X104.249 Y77.663 E0.11223
G1 X105.65 Y77.976 E0.16893
G1 X107.026 Y78.376 E0.22553
G1 X108.365 Y78.857 E0.28172
G1 X109.676 Y79.424 E0.33814
G1 X110.954 Y80.075 E0.39479
G1 X112.176 Y80.798 E0.45087
G1 X113.362 Y81.602 E0.50746
G1 X114.489 Y82.477 E0.56381
G1 X115.563 Y83.422 E0.62031
G1 X116.578 Y84.438 E0.67704
G1 X117.516 Y85.502 E0.73306
G1 X118.393 Y86.631 E0.78952
G1 X119.197 Y87.814 E0.84602
G1 X119.927 Y89.05 E0.90271
G1 X120.569 Y90.31 E0.95857
G1 X121.141 Y91.627 E1.01528
G1 X121.625 Y92.976 E1.07188
G1 X122.021 Y94.334 E1.12775
G1 X122.338 Y95.745 E1.18487
G1 X122.559 Y97.157 E1.24132
G1 X122.692 Y98.563 E1.2971
G1 X122.738 Y99.995 E1.35369
G1 X122.693 Y101.431 E1.41043
G1 X122.559 Y102.845 E1.46653
G1 X122.338 Y104.249 E1.52267
G1 X122.025 Y105.65 E1.57936
G1 X121.625 Y107.026 E1.63596
G1 X121.144 Y108.365 E1.69216
G1 X120.577 Y109.676 E1.74857
G1 X119.926 Y110.954 E1.80522
G1 X119.203 Y112.176 E1.8613
G1 X118.399 Y113.362 E1.91789
G1 X117.524 Y114.489 E1.97424
G1 X116.579 Y115.563 E2.03075
G1 X115.568 Y116.574 E2.08722
G1 X114.5 Y117.515 E2.14344
G1 X113.37 Y118.393 E2.19996
G1 X112.187 Y119.197 E2.25645
G1 X110.951 Y119.927 E2.31315
G1 X109.691 Y120.569 E2.369
G1 X108.374 Y121.141 E2.42571
G1 X107.025 Y121.625 E2.48232
G1 X105.667 Y122.021 E2.53819
G1 X104.256 Y122.338 E2.5953
G1 X102.844 Y122.559 E2.65175
G1 X101.438 Y122.692 E2.70753
G1 X100.005 Y122.738 E2.76416
G1 X98.57 Y122.693 E2.82086
G1 X97.156 Y122.559 E2.87696
G1 X95.752 Y122.338 E2.9331
G1 X94.351 Y122.025 E2.9898
G1 X92.975 Y121.625 E3.04639
G1 X91.636 Y121.144 E3.10259
G1 X90.325 Y120.577 E3.159
G1 X89.047 Y119.926 E3.21565
G1 X87.825 Y119.203 E3.27173
G1 X86.639 Y118.399 E3.32832
G1 X85.512 Y117.524 E3.38468
G1 X84.438 Y116.579 E3.44118
G1 X83.427 Y115.568 E3.49765
G1 X82.486 Y114.5 E3.55387
G1 X81.608 Y113.37 E3.61039
G1 X80.804 Y112.187 E3.66688
G1 X80.074 Y110.951 E3.72358
G1 X79.432 Y109.691 E3.77943
G1 X78.86 Y108.374 E3.83614
G1 X78.376 Y107.025 E3.89275
G1 X77.98 Y105.667 E3.94862
G1 X77.663 Y104.256 E4.00574
G1 X77.442 Y102.844 E4.06218
G1 X77.309 Y101.438 E4.11796
G1 X77.263 Y100.005 E4.17459
G1 X77.308 Y98.57 E4.2313
G1 X77.442 Y97.156 E4.2874
G1 X77.663 Y95.752 E4.34353
G1 X77.976 Y94.351 E4.40023
G1 X78.376 Y92.975 E4.45683
G1 X78.857 Y91.636 E4.51302
G1 X79.424 Y90.325 E4.56944
G1 X80.075 Y89.047 E4.62608
G1 X80.798 Y87.825 E4.68216
G1 X81.602 Y86.639 E4.73876
G1 X82.477 Y85.512 E4.79511
G1 X83.422 Y84.438 E4.85161
G1 X84.433 Y83.427 E4.90808
G1 X85.501 Y82.486 E4.9643
G1 X86.631 Y81.608 E5.02082
G1 X87.814 Y80.804 E5.07731
G1 X89.05 Y80.074 E5.13401
G1 X90.31 Y79.432 E5.18986
G1 X91.627 Y78.86 E5.24658
G1 X92.976 Y78.376 E5.30318
G1 X94.334 Y77.98 E5.35905
G1 X95.745 Y77.663 E5.41617
G1 X97.157 Y77.442 E5.47262
G1 X98.563 Y77.309 E5.5284
G1 X99.995 Y77.263 E5.58499
G1 X101.431 Y77.308 E5.64173
G0 F7200 X100.768 Y87.793
; TYPE:WALL-OUTER
G1 F5040 X101.535 Y87.865 E5.67216
G1 X102.291 Y87.984 E5.70238
G1 X103.037 Y88.151 E5.73258
G1 X103.782 Y88.367 E5.76321
G1 X104.507 Y88.628 E5.79365
G1 X105.198 Y88.927 E5.82339
G1 X105.901 Y89.285 E5.85454
G1 X106.549 Y89.668 E5.88427
G1 X107.197 Y90.108 E5.91521
G1 X107.789 Y90.568 E5.94482
G1 X108.369 Y91.078 E5.97533
G1 X108.923 Y91.632 E6.00627
G1 X109.427 Y92.205 E6.03641
G1 X109.893 Y92.805 E6.06642
G1 X110.331 Y93.449 E6.09718
G1 X110.716 Y94.1 E6.12705
G1 X111.07 Y94.795 E6.15786
G1 X111.378 Y95.505 E6.18842
G1 X111.632 Y96.213 E6.21813
G1 X111.846 Y96.947 E6.24833
G1 X112.019 Y97.717 E6.2795
G1 X112.135 Y98.46 E6.3092
G1 X112.209 Y99.237 E6.34003
G1 X112.233 Y99.996 E6.37002
G1 X112.208 Y100.768 E6.40053
G1 X112.136 Y101.535 E6.43095
G1 X112.018 Y102.284 E6.4609
G1 X111.852 Y103.031 E6.49113
G1 X111.634 Y103.782 E6.52201
G1 X111.373 Y104.506 E6.55241
G1 X111.074 Y105.198 E6.58218
G1 X110.718 Y105.898 E6.6132
G1 X110.335 Y106.545 E6.6429
G1 X109.894 Y107.196 E6.67395
G1 X109.433 Y107.789 E6.70362
G1 X108.923 Y108.369 E6.73412
G1 X108.376 Y108.916 E6.76468
G1 X107.796 Y109.427 E6.79521
G1 X107.196 Y109.893 E6.82521
G1 X106.552 Y110.331 E6.85597
G1 X105.901 Y110.716 E6.88585
G1 X105.211 Y111.068 E6.91644
G1 X104.499 Y111.377 E6.9471
G1 X103.788 Y111.632 E6.97693
G1 X103.048 Y111.847 E7.00736
G1 X102.291 Y112.017 E7.03801
G1 X101.535 Y112.136 E7.06824
G1 X100.772 Y112.208 E7.0985
G1 X100.004 Y112.233 E7.12885
G1 X99.233 Y112.208 E7.15932
G1 X98.466 Y112.136 E7.18975
G1 X97.71 Y112.017 E7.21998
G1 X96.964 Y111.85 E7.25017
G1 X96.219 Y111.634 E7.28081
G1 X95.494 Y111.373 E7.31124
G1 X94.804 Y111.074 E7.34094
G1 X94.1 Y110.716 E7.37214
G1 X93.45 Y110.331 E7.40197
G1 X92.804 Y109.893 E7.4328
G1 X92.212 Y109.433 E7.46241
G1 X91.628 Y108.919 E7.49314
G1 X91.081 Y108.372 E7.52369
G1 X90.574 Y107.796 E7.554
G1 X90.108 Y107.196 E7.584
G1 X89.67 Y106.552 E7.61477
G1 X89.283 Y105.898 E7.64478
G1 X88.931 Y105.206 E7.67544
G1 X88.623 Y104.496 E7.70601
G1 X88.369 Y103.788 E7.73572
G1 X88.153 Y103.047 E7.76621
G1 X87.982 Y102.284 E7.79709
G1 X87.865 Y101.535 E7.82703
G1 X87.792 Y100.764 E7.85762
G1 X87.768 Y100.004 E7.88765
G1 X87.792 Y99.241 E7.9178
G1 X87.866 Y98.46 E7.94879
G1 X87.985 Y97.705 E7.97897
G1 X88.149 Y96.97 E8.00872
G1 X88.369 Y96.213 E8.03985
G1 X88.628 Y95.494 E8.07004
G1 X88.927 Y94.803 E8.09977
G1 X89.285 Y94.1 E8.13093
G1 X89.666 Y93.456 E8.16049
G1 X90.108 Y92.804 E8.1916
G1 X90.568 Y92.212 E8.22121
G1 X91.078 Y91.632 E8.25171
G1 X91.629 Y91.081 E8.28249
G1 X92.205 Y90.574 E8.3128
G1 X92.805 Y90.108 E8.3428
G1 X93.449 Y89.67 E8.37357
G1 X94.1 Y89.285 E8.40344
G1 X94.79 Y88.933 E8.43403
G1 X95.502 Y88.624 E8.46469
G1 X96.213 Y88.369 E8.49452
G1 X96.953 Y88.154 E8.52496
G1 X97.71 Y87.984 E8.5556
G1 X98.466 Y87.865 E8.58583
G1 X99.229 Y87.793 E8.6161
G1 X99.996 Y87.768 E8.64641
G1 X100.318 Y87.778 E8.65913
G0 F7200 X100.737 Y88.292
; TYPE:WALL-INNER
G1 F5040 X101.477 Y88.362 E8.68849
G1 X102.196 Y88.475 E8.71723
G1 X102.918 Y88.636 E8.74645
G1 X103.617 Y88.84 E8.77521
G1 X104.324 Y89.094 E8.80488
G1 X104.995 Y89.384 E8.83375
G1 X105.652 Y89.719 E8.86288
G1 X106.268 Y90.083 E8.89114
G1 X106.903 Y90.513 E8.92143
G1 X107.477 Y90.959 E8.95014
G1 X108.034 Y91.449 E8.97944
G1 X108.544 Y91.959 E9.00793
G1 X109.043 Y92.526 E9.03776
G1 X109.491 Y93.102 E9.06658
G1 X109.904 Y93.71 E9.09561
G1 X110.285 Y94.354 E9.12517
G1 X110.608 Y94.988 E9.15327
G1 X110.91 Y95.684 E9.18323
G1 X111.158 Y96.374 E9.21219
G1 X111.363 Y97.077 E9.24112
G1 X111.526 Y97.804 E9.27054
G1 X111.639 Y98.524 E9.29933
G1 X111.709 Y99.26 E9.32853
G1 X111.732 Y99.996 E9.35761
G1 X111.709 Y100.737 E9.38689
G1 X111.639 Y101.477 E9.41625
G1 X111.526 Y102.196 E9.445
G1 X111.365 Y102.918 E9.47421
G1 X111.161 Y103.617 E9.50297
G1 X110.907 Y104.324 E9.53265
G1 X110.617 Y104.995 E9.56152
G1 X110.282 Y105.652 E9.59064
G1 X109.916 Y106.271 E9.61905
G1 X109.488 Y106.903 E9.64919
G1 X109.042 Y107.477 E9.6779
G1 X108.552 Y108.034 E9.7072
G1 X108.045 Y108.541 E9.73552
G1 X107.475 Y109.043 E9.76552
G1 X106.899 Y109.491 E9.79434
G1 X106.291 Y109.904 E9.82337
G1 X105.647 Y110.285 E9.85293
G1 X105.008 Y110.61 E9.88124
G1 X104.317 Y110.91 E9.911
G1 X103.627 Y111.158 E9.93996
G1 X102.924 Y111.363 E9.96888
G1 X102.197 Y111.526 E9.9983
G1 X101.477 Y111.639 E10.02709
G1 X100.741 Y111.709 E10.05629
G1 X100.004 Y111.732 E10.08541
G1 X99.264 Y111.709 E10.11465
G1 X98.524 Y111.639 E10.14401
G1 X97.805 Y111.526 E10.17276
G1 X97.083 Y111.365 E10.20198
G1 X96.384 Y111.161 E10.23074
G1 X95.677 Y110.907 E10.26041
G1 X95.006 Y110.617 E10.28928
G1 X94.349 Y110.282 E10.31841
G1 X93.726 Y109.914 E10.34698
G1 X93.098 Y109.488 E10.37696
G1 X92.524 Y109.042 E10.40567
G1 X91.964 Y108.549 E10.43513
G1 X91.46 Y108.045 E10.46329
G1 X90.958 Y107.475 E10.49329
G1 X90.51 Y106.899 E10.52211
G1 X90.097 Y106.291 E10.55114
G1 X89.716 Y105.647 E10.58069
G1 X89.391 Y105.008 E10.60901
G1 X89.091 Y104.317 E10.63876
G1 X88.843 Y103.627 E10.66772
G1 X88.638 Y102.924 E10.69664
G1 X88.475 Y102.197 E10.72607
G1 X88.362 Y101.477 E10.75485
G1 X88.292 Y100.741 E10.78405
G1 X88.269 Y99.996 E10.81349
G1 X88.292 Y99.264 E10.84242
G1 X88.362 Y98.524 E10.87178
G1 X88.475 Y97.805 E10.90052
G1 X88.636 Y97.083 E10.92974
G1 X88.84 Y96.384 E10.9585
G1 X89.094 Y95.677 E10.98817
G1 X89.384 Y95.006 E11.01704
G1 X89.719 Y94.349 E11.04617
G1 X90.087 Y93.726 E11.07475
G1 X90.513 Y93.098 E11.10472
G1 X90.959 Y92.524 E11.13343
G1 X91.449 Y91.967 E11.16273
G1 X91.956 Y91.46 E11.19105
G1 X92.526 Y90.958 E11.22105
G1 X93.102 Y90.51 E11.24987
G1 X93.71 Y90.097 E11.2789
G1 X94.354 Y89.716 E11.30845
G1 X94.993 Y89.391 E11.33677
G1 X95.684 Y89.091 E11.36652
G1 X96.374 Y88.843 E11.39548
G1 X97.077 Y88.638 E11.4244
G1 X97.804 Y88.475 E11.45383
G1 X98.524 Y88.362 E11.48262
G1 X99.26 Y88.292 E11.51182
G1 X99.996 Y88.269 E11.5409
G1 X100.287 Y88.278 E11.5524
G0 F7200 X100.495 Y88.474
; TYPE:FILL
G1 F5040 X111.525 Y99.504 E12.16849
G0 F7200 X111.534 Y100.22
G1 F5040 X99.779 Y88.466 E12.82506
G0 F7200 X99.104 Y88.497
G1 F5040 X111.502 Y100.895 E13.51756
G0 F7200 X111.436 Y101.536
G1 F5040 X98.462 Y88.563 E14.24222
G0 F7200 X97.852 Y88.659
G1 F5040 X111.34 Y102.147 E14.99561
G0 F7200 X111.213 Y102.727
G1 F5040 X97.274 Y88.789 E15.77416
G0 F7200 X96.718 Y88.94
G1 F5040 X111.06 Y103.282 E16.57525
G0 F7200 X110.887 Y103.816
G1 F5040 X96.183 Y89.112 E17.39657
G0 F7200 X95.668 Y89.304
G1 F5040 X110.696 Y104.332 E18.23597
G0 F7200 X110.482 Y104.825
G1 F5040 X95.175 Y89.518 E19.09097
G0 F7200 X94.701 Y89.751
G1 F5040 X110.247 Y105.298 E19.95934
G0 F7200 X109.999 Y105.757
G1 F5040 X94.243 Y90 E20.83944
G0 F7200 X93.799 Y90.264
G1 F5040 X109.734 Y106.198 E21.72948
G0 F7200 X109.449 Y106.621
G1 F5040 X93.379 Y90.55 E22.62712
G0 F7200 X92.971 Y90.85
G1 F5040 X109.149 Y107.028 E23.53077
G0 F7200 X108.835 Y107.421
G1 F5040 X92.578 Y91.164 E24.43882
G0 F7200 X92.202 Y91.495
G1 F5040 X108.505 Y107.798 E25.34945
G0 F7200 X108.158 Y108.158
G1 F5040 X91.841 Y91.841 E26.26086
G0 F7200 X91.494 Y92.201
G1 F5040 X107.797 Y108.504 E27.17148
G0 F7200 X107.421 Y108.835
G1 F5040 X91.164 Y92.578 E28.07954
G0 F7200 X90.85 Y92.971
G1 F5040 X107.028 Y109.149 E28.98319
G0 F7200 X106.621 Y109.449
G1 F5040 X90.55 Y93.379 E29.88082
G0 F7200 X90.265 Y93.801
G1 F5040 X106.2 Y109.735 E30.77087
G0 F7200 X105.757 Y109.999
G1 F5040 X90.001 Y94.243 E31.65094
G0 F7200 X89.752 Y94.702
G1 F5040 X105.298 Y110.248 E32.51928
G0 F7200 X104.825 Y110.482
G1 F5040 X89.517 Y95.174 E33.37433
G0 F7200 X89.304 Y95.668
G1 F5040 X104.331 Y110.695 E34.21369
G0 F7200 X103.816 Y110.887
G1 F5040 X89.113 Y96.184 E35.03494
G0 F7200 X88.939 Y96.718
G1 F5040 X103.281 Y111.059 E35.83601
G0 F7200 X102.725 Y111.21
G1 F5040 X88.787 Y97.272 E36.61453
G0 F7200 X88.659 Y97.852
G1 F5040 X102.147 Y111.34 E37.36792
G0 F7200 X101.537 Y111.437
G1 F5040 X88.563 Y98.463 E38.0926
G0 F7200 X88.497 Y99.104
G1 F5040 X100.896 Y111.502 E38.78514
G0 F7200 X100.22 Y111.534
G1 F5040 X88.466 Y99.779 E39.4417
G0 F7200 X88.474 Y100.495
G1 F5040 X99.504 Y111.525 E40.0578
G0 F7200 X98.74 Y111.468
G1 F5040 X88.531 Y101.259 E40.62803
G0 F7200 X88.649 Y102.085
G1 F5040 X97.915 Y111.35 E41.14557
G0 F7200 X97 Y111.142
G1 F5040 X88.859 Y103.001 E41.6003
G0 F7200 X89.195 Y104.044
G1 F5040 X95.955 Y110.805 E41.97792
G0 F7200 X94.68 Y110.237
G1 F5040 X89.762 Y105.318 E42.25265
G0 F7200 X91.212 Y107.475
G1 F5040 X92.524 Y108.787 E42.32593
G1 F1800 E41.32593
G0 F7200 X111.468 Y98.74
G1 F1800 E42.32593
G1 F5040 X101.259 Y88.531 E42.89617
G0 F7200 X102.085 Y88.649
G1 F5040 X111.35 Y97.915 E43.4137
G0 F7200 X111.141 Y96.999
G1 F5040 X103 Y88.857 E43.86846
G0 F7200 X104.044 Y89.195
G1 F5040 X110.805 Y95.955 E44.24607
G0 F7200 X110.237 Y94.681
G1 F5040 X105.319 Y89.762 E44.5208
G0 F7200 X107.475 Y91.212
G1 F5040 X108.788 Y92.524 E44.59412
; LAYER:1
G0 F7200 X109.022 Y92.554 Z0.2
; TYPE:WALL-INNER
G1 F6300 X109.471 Y93.131 E44.62299
G1 X109.883 Y93.74 E44.65203
G1 X110.246 Y94.353 E44.68017
G1 X110.595 Y95.041 E44.71064
G1 X110.881 Y95.702 E44.73909
G1 X111.129 Y96.392 E44.76805
G1 X111.331 Y97.092 E44.79682
G1 X111.495 Y97.823 E44.82641
G1 X111.606 Y98.528 E44.8546
G1 X111.676 Y99.266 E44.88388
G1 X111.699 Y100.012 E44.91336
G1 X111.675 Y100.747 E44.9424
G1 X111.606 Y101.473 E44.97121
G1 X111.494 Y102.187 E44.99975
G1 X111.327 Y102.927 E45.02971
G1 X111.126 Y103.617 E45.0581
G1 X110.879 Y104.305 E45.08697
G1 X110.581 Y104.991 E45.11651
G1 X110.253 Y105.636 E45.14509
G1 X109.873 Y106.278 E45.17456
G1 X109.474 Y106.865 E45.20259
G1 X109.008 Y107.465 E45.2326
G1 X108.52 Y108.019 E45.26175
G1 X108.02 Y108.519 E45.28968
G1 X107.448 Y109.021 E45.31974
G1 X106.87 Y109.471 E45.34867
G1 X106.258 Y109.885 E45.37786
G1 X105.648 Y110.246 E45.40585
G1 X104.96 Y110.595 E45.43632
G1 X104.299 Y110.881 E45.46477
G1 X103.609 Y111.129 E45.49373
G1 X102.909 Y111.331 E45.5225
G1 X102.178 Y111.495 E45.55209
G1 X101.473 Y111.606 E45.58028
G1 X100.735 Y111.676 E45.60956
G1 X99.988 Y111.699 E45.63908
G1 X99.254 Y111.675 E45.66808
G1 X98.528 Y111.606 E45.69689
G1 X97.814 Y111.494 E45.72543
G1 X97.074 Y111.327 E45.75539
G1 X96.384 Y111.126 E45.78378
G1 X95.696 Y110.879 E45.81265
G1 X95 Y110.576 E45.84263
G1 X94.365 Y110.253 E45.87077
G1 X93.718 Y109.87 E45.90047
G1 X93.136 Y109.474 E45.92827
G1 X92.534 Y109.006 E45.95839
G1 X91.982 Y108.52 E45.98744
G1 X91.482 Y108.02 E46.01536
G1 X90.979 Y107.447 E46.04548
G1 X90.53 Y106.87 E46.07435
G1 X90.116 Y106.258 E46.10354
G1 X89.755 Y105.648 E46.13153
G1 X89.406 Y104.96 E46.162
G1 X89.12 Y104.299 E46.19045
G1 X88.872 Y103.609 E46.21941
G1 X88.667 Y102.899 E46.2486
G1 X88.504 Y102.168 E46.27818
G1 X88.395 Y101.473 E46.30596
G1 X88.325 Y100.735 E46.33524
G1 X88.302 Y99.987 E46.3648
G1 X88.327 Y99.243 E46.3942
G1 X88.395 Y98.528 E46.42257
G1 X88.507 Y97.814 E46.45111
G1 X88.674 Y97.074 E46.48108
G1 X88.875 Y96.384 E46.50946
G1 X89.122 Y95.696 E46.53833
G1 X89.425 Y95 E46.56831
G1 X89.748 Y94.365 E46.59645
G1 X90.131 Y93.718 E46.62615
G1 X90.527 Y93.136 E46.65395
G1 X90.995 Y92.534 E46.68407
G1 X91.481 Y91.982 E46.71312
G1 X91.981 Y91.482 E46.74104
G1 X92.554 Y90.979 E46.77116
G1 X93.131 Y90.53 E46.80004
G1 X93.743 Y90.116 E46.82922
G1 X94.353 Y89.755 E46.85721
G1 X95.041 Y89.406 E46.88768
G1 X95.702 Y89.12 E46.91613
G1 X96.392 Y88.872 E46.94509
G1 X97.092 Y88.67 E46.97386
G1 X97.823 Y88.506 E47.00345
G1 X98.528 Y88.395 E47.03164
G1 X99.266 Y88.325 E47.06092
G1 X100.012 Y88.302 E47.0904
G1 X100.747 Y88.326 E47.11945
G1 X101.473 Y88.395 E47.14825
G1 X102.187 Y88.507 E47.17679
G1 X102.927 Y88.674 E47.20676
G1 X103.617 Y88.875 E47.23514
G1 X104.305 Y89.122 E47.26401
G1 X105.001 Y89.425 E47.29399
G1 X105.636 Y89.748 E47.32213
G1 X106.283 Y90.131 E47.35183
G1 X106.865 Y90.527 E47.37963
G1 X107.477 Y91.002 E47.41023
G1 X108.016 Y91.478 E47.43863
G1 X108.519 Y91.981 E47.46673
G1 X108.724 Y92.215 E47.47902
G0 F7200 X109.412 Y92.24
; TYPE:WALL-OUTER
G1 F4380 X109.872 Y92.832 E47.50863
G1 X110.311 Y93.481 E47.53957
G1 X110.687 Y94.116 E47.56872
G1 X111.047 Y94.825 E47.60013
G1 X111.345 Y95.513 E47.62974
G1 X111.6 Y96.222 E47.6595
G1 X111.817 Y96.972 E47.69034
G1 X111.988 Y97.736 E47.72126
G1 X112.102 Y98.464 E47.75036
G1 X112.176 Y99.243 E47.78127
G1 X112.2 Y100.013 E47.81169
G1 X112.174 Y100.778 E47.84193
G1 X112.103 Y101.531 E47.8718
G1 X111.986 Y102.278 E47.90166
G1 X111.812 Y103.048 E47.93284
G1 X111.6 Y103.778 E47.96287
G1 X111.347 Y104.484 E47.99249
G1 X111.036 Y105.199 E48.02328
G1 X110.689 Y105.882 E48.05354
G1 X110.298 Y106.542 E48.08384
G1 X109.876 Y107.164 E48.11353
G1 X109.396 Y107.781 E48.1444
G1 X108.899 Y108.346 E48.17412
G1 X108.35 Y108.895 E48.20479
G1 X107.765 Y109.408 E48.23552
G1 X107.169 Y109.872 E48.26535
G1 X106.524 Y110.309 E48.29612
G1 X105.885 Y110.687 E48.32544
G1 X105.175 Y111.047 E48.35689
G1 X104.481 Y111.347 E48.38675
G1 X103.773 Y111.602 E48.41647
G1 X103.029 Y111.817 E48.44706
G1 X102.272 Y111.986 E48.47769
G1 X101.531 Y112.103 E48.50732
G1 X100.766 Y112.175 E48.53767
G1 X99.987 Y112.2 E48.56845
G1 X99.223 Y112.174 E48.59865
G1 X98.47 Y112.103 E48.62852
G1 X97.716 Y111.984 E48.65867
G1 X96.953 Y111.812 E48.68956
G1 X96.223 Y111.6 E48.71958
G1 X95.512 Y111.345 E48.74942
G1 X94.797 Y111.034 E48.78021
G1 X94.116 Y110.687 E48.8104
G1 X93.456 Y110.296 E48.8407
G1 X92.832 Y109.872 E48.8705
G1 X92.216 Y109.392 E48.90134
G1 X91.651 Y108.895 E48.93106
G1 X91.102 Y108.346 E48.96173
G1 X90.589 Y107.761 E48.99246
G1 X90.129 Y107.169 E49.02207
G1 X89.69 Y106.52 E49.05301
G1 X89.312 Y105.882 E49.0823
G1 X88.954 Y105.176 E49.11357
G1 X88.654 Y104.481 E49.14347
G1 X88.399 Y103.773 E49.17319
G1 X88.184 Y103.028 E49.20381
G1 X88.013 Y102.265 E49.2347
G1 X87.898 Y101.531 E49.26404
G1 X87.825 Y100.758 E49.29471
G1 X87.801 Y99.987 E49.32517
G1 X87.827 Y99.219 E49.35552
G1 X87.899 Y98.464 E49.38548
G1 X88.015 Y97.723 E49.4151
G1 X88.19 Y96.947 E49.44652
G1 X88.401 Y96.223 E49.47631
G1 X88.654 Y95.517 E49.50593
G1 X88.965 Y94.802 E49.53672
G1 X89.314 Y94.116 E49.56712
G1 X89.703 Y93.459 E49.59728
G1 X90.125 Y92.837 E49.62697
G1 X90.605 Y92.22 E49.65784
G1 X91.102 Y91.655 E49.68756
G1 X91.651 Y91.106 E49.71823
G1 X92.236 Y90.593 E49.74896
G1 X92.832 Y90.129 E49.77879
G1 X93.477 Y89.692 E49.80956
G1 X94.116 Y89.314 E49.83889
G1 X94.825 Y88.954 E49.87029
G1 X95.52 Y88.654 E49.90019
G1 X96.228 Y88.399 E49.92991
G1 X96.972 Y88.184 E49.9605
G1 X97.729 Y88.015 E49.99113
G1 X98.47 Y87.898 E50.02076
G1 X99.235 Y87.826 E50.05111
G1 X100.013 Y87.801 E50.08186
G1 X100.778 Y87.827 E50.11209
G1 X101.531 Y87.898 E50.14196
G1 X102.285 Y88.017 E50.17211
G1 X103.048 Y88.189 E50.203
G1 X103.778 Y88.401 E50.23303
G1 X104.487 Y88.655 E50.26277
G1 X105.204 Y88.967 E50.29366
G1 X105.885 Y89.314 E50.32384
G1 X106.545 Y89.705 E50.35414
G1 X107.169 Y90.129 E50.38394
G1 X107.792 Y90.614 E50.41512
G1 X108.355 Y91.111 E50.44478
G1 X108.899 Y91.655 E50.47517
G1 X109.115 Y91.901 E50.4881
G0 F7200 X108.863 Y92.662
; TYPE:FILL
G1 F6300 X92.661 Y108.864 E51.39308
G0 F7200 X92.285 Y108.533
G1 F6300 X108.532 Y92.285 E52.30061
G0 F7200 X108.189 Y91.921
G1 F6300 X91.921 Y108.189 E53.20928
G0 F7200 X91.571 Y107.833
G1 F6300 X107.833 Y91.571 E54.11762
G0 F7200 X107.457 Y91.239
G1 F6300 X91.24 Y107.456 E55.02344
G0 F7200 X90.923 Y107.066
G1 F6300 X107.065 Y90.924 E55.92507
G0 F7200 X106.662 Y90.619
G1 F6300 X90.619 Y106.663 E56.8212
G0 F7200 X90.334 Y106.241
G1 F6300 X106.242 Y90.333 E57.70977
G0 F7200 X105.801 Y90.067
G1 F6300 X90.066 Y105.802 E58.58867
G0 F7200 X89.815 Y105.346
G1 F6300 X105.346 Y89.814 E59.4562
G0 F7200 X104.875 Y89.578
G1 F6300 X89.577 Y104.876 E60.31069
G0 F7200 X89.363 Y104.383
G1 F6300 X104.383 Y89.363 E61.14965
G0 F7200 X103.871 Y89.168
G1 F6300 X89.168 Y103.871 E61.97091
G0 F7200 X88.992 Y103.34
G1 F6300 X103.34 Y88.992 E62.77234
G0 F7200 X102.787 Y88.838
G1 F6300 X88.837 Y102.788 E63.55153
G0 F7200 X88.707 Y102.21
G1 F6300 X102.21 Y88.707 E64.30576
G0 F7200 X101.604 Y88.607
G1 F6300 X88.607 Y101.604 E65.03173
G0 F7200 X88.537 Y100.967
G1 F6300 X100.967 Y88.537 E65.72602
G0 F7200 X100.296 Y88.501
G1 F6300 X88.501 Y100.296 E66.38485
G0 F7200 X88.505 Y99.585
G1 F6300 X99.584 Y88.505 E67.00371
G0 F7200 X98.825 Y88.557
G1 F6300 X88.557 Y98.825 E67.57724
G0 F7200 X88.668 Y98.007
G1 F6300 X98.007 Y88.669 E68.09886
G0 F7200 X97.105 Y88.863
G1 F6300 X88.861 Y97.107 E68.55933
G0 F7200 X89.186 Y96.075
G1 F6300 X96.073 Y89.188 E68.94402
G0 F7200 X94.828 Y89.726
G1 F6300 X89.724 Y94.83 E69.22911
G0 F7200 X90.96 Y92.887
G1 F6300 X92.886 Y90.96 E69.33672
G0 F7200 X109.173 Y93.058
G1 F6300 X93.058 Y109.173 E70.23684
G0 F7200 X93.469 Y109.47
G1 F6300 X109.47 Y93.469 E71.1306
G0 F7200 X109.753 Y93.893
G1 F6300 X93.893 Y109.752 E72.01645
G0 F7200 X94.337 Y110.015
G1 F6300 X110.016 Y94.337 E72.8922
G0 F7200 X110.259 Y94.801
G1 F6300 X94.8 Y110.26 E73.75568
G0 F7200 X95.278 Y110.489
G1 F6300 X110.49 Y95.277 E74.60537
G0 F7200 X110.703 Y95.771
G1 F6300 X95.771 Y110.703 E75.43941
G0 F7200 X96.291 Y110.89
G1 F6300 X110.89 Y96.291 E76.25486
G0 F7200 X111.058 Y96.831
G1 F6300 X96.831 Y111.057 E77.0495
G0 F7200 X97.393 Y111.203
G1 F6300 X111.203 Y97.393 E77.82088
G0 F7200 X111.326 Y97.977
G1 F6300 X97.977 Y111.326 E78.5665
G0 F7200 X98.589 Y111.42
G1 F6300 X111.42 Y98.59 E79.28317
G0 F7200 X111.481 Y99.236
G1 F6300 X99.236 Y111.481 E79.96713
G0 F7200 X99.919 Y111.505
G1 F6300 X111.505 Y99.919 E80.61428
G0 F7200 X111.487 Y100.644
G1 F6300 X100.644 Y111.487 E81.21993
G0 F7200 X101.418 Y111.42
G1 F6300 X111.42 Y101.418 E81.77861
G0 F7200 X111.28 Y102.265
G1 F6300 X102.266 Y111.279 E82.2821
G0 F7200 X103.206 Y111.046
G1 F6300 X111.046 Y103.206 E82.72001
G0 F7200 X110.683 Y104.277
G1 F6300 X104.276 Y110.684 E83.07788
G0 F7200 X105.633 Y110.034
G1 F6300 X110.035 Y105.632 E83.32376
; LAYER:2
G0 F7200 X110.221 Y105.624 Z0.4
; TYPE:WALL-INNER
G1 F6240 X109.833 Y106.278 E83.3538
G1 X109.448 Y106.845 E83.38087
G1 X108.968 Y107.462 E83.41174
G1 X108.504 Y107.987 E83.43941
G1 X107.991 Y108.5 E83.46807
G1 X107.421 Y109.001 E83.49804
G1 X106.858 Y109.439 E83.52622
G1 X106.233 Y109.861 E83.556
G1 X105.626 Y110.221 E83.58387
G1 X104.945 Y110.565 E83.61401
G1 X104.284 Y110.851 E83.64245
G1 X103.607 Y111.094 E83.67086
G1 X102.872 Y111.307 E83.70109
G1 X102.174 Y111.461 E83.72932
G1 X101.466 Y111.573 E83.75763
G1 X100.732 Y111.643 E83.78675
G1 X99.982 Y111.665 E83.81639
G1 X99.247 Y111.641 E83.84543
G1 X98.535 Y111.573 E83.87368
G1 X97.808 Y111.458 E83.90275
G1 X97.082 Y111.294 E83.93215
G1 X96.404 Y111.098 E83.96003
G1 X95.711 Y110.849 E83.98911
G1 X95.014 Y110.545 E84.01914
G1 X94.377 Y110.221 E84.04737
G1 X93.723 Y109.833 E84.0774
G1 X93.156 Y109.448 E84.10447
G1 X92.539 Y108.968 E84.13535
G1 X92.014 Y108.504 E84.16302
G1 X91.499 Y107.989 E84.19179
G1 X91 Y107.421 E84.22165
G1 X90.562 Y106.858 E84.24982
G1 X90.14 Y106.233 E84.27961
G1 X89.78 Y105.626 E84.30748
G1 X89.436 Y104.945 E84.33762
G1 X89.15 Y104.284 E84.36606
G1 X88.907 Y103.607 E84.39447
G1 X88.694 Y102.872 E84.4247
G1 X88.537 Y102.16 E84.45349
G1 X88.428 Y101.466 E84.48124
G1 X88.358 Y100.73 E84.51044
G1 X88.336 Y99.979 E84.54011
G1 X88.36 Y99.247 E84.56904
G1 X88.428 Y98.535 E84.59729
G1 X88.543 Y97.808 E84.62636
G1 X88.707 Y97.082 E84.65576
G1 X88.903 Y96.404 E84.68363
G1 X89.152 Y95.711 E84.71272
G1 X89.456 Y95.014 E84.74275
G1 X89.78 Y94.377 E84.77098
G1 X90.168 Y93.723 E84.80101
G1 X90.553 Y93.156 E84.82808
G1 X91.033 Y92.539 E84.85896
G1 X91.497 Y92.014 E84.88663
G1 X92.016 Y91.495 E84.91562
G1 X92.58 Y91 E84.94526
G1 X93.143 Y90.562 E84.97343
G1 X93.768 Y90.14 E85.00322
G1 X94.375 Y89.78 E85.03109
G1 X95.056 Y89.436 E85.06122
G1 X95.717 Y89.15 E85.08967
G1 X96.394 Y88.907 E85.11808
G1 X97.129 Y88.694 E85.1483
G1 X97.827 Y88.54 E85.17654
G1 X98.535 Y88.428 E85.20485
G1 X99.269 Y88.358 E85.23397
G1 X100.018 Y88.336 E85.26356
G1 X100.754 Y88.36 E85.29265
G1 X101.466 Y88.428 E85.3209
G1 X102.193 Y88.543 E85.34997
G1 X102.919 Y88.707 E85.37937
G1 X103.597 Y88.903 E85.40724
G1 X104.29 Y89.152 E85.43633
G1 X104.987 Y89.456 E85.46636
G1 X105.624 Y89.78 E85.49459
G1 X106.278 Y90.168 E85.52462
G1 X106.845 Y90.553 E85.55169
G1 X107.452 Y91.026 E85.58208
G1 X108.009 Y91.519 E85.61146
G1 X108.502 Y92.012 E85.639
G1 X109.001 Y92.58 E85.66886
G1 X109.439 Y93.143 E85.69703
G1 X109.861 Y93.768 E85.72682
G1 X110.221 Y94.375 E85.75469
G1 X110.565 Y95.056 E85.78483
G1 X110.851 Y95.717 E85.81327
G1 X111.094 Y96.394 E85.84168
G1 X111.307 Y97.129 E85.87191
G1 X111.461 Y97.827 E85.90014
G1 X111.573 Y98.535 E85.92845
G1 X111.643 Y99.269 E85.95757
G1 X111.665 Y100.018 E85.98717
G1 X111.641 Y100.754 E86.01625
G1 X111.573 Y101.466 E86.0445
G1 X111.459 Y102.189 E86.07341
G1 X111.294 Y102.919 E86.10297
G1 X111.098 Y103.597 E86.13084
G1 X110.849 Y104.29 E86.15993
G1 X110.545 Y104.987 E86.18996
G1 X110.426 Y105.222 E86.20037
G0 F7200 X110.666 Y105.854
; TYPE:WALL-OUTER
G1 F4380 X110.258 Y106.541 E86.23192
G1 X109.849 Y107.144 E86.2607
G1 X109.356 Y107.777 E86.29239
G1 X108.874 Y108.323 E86.32116
G1 X108.327 Y108.87 E86.35171
G1 X107.733 Y109.392 E86.38294
G1 X107.158 Y109.839 E86.41171
G1 X106.499 Y110.285 E86.44314
G1 X105.866 Y110.66 E86.4722
G1 X105.153 Y111.02 E86.50374
G1 X104.467 Y111.317 E86.53327
G1 X103.757 Y111.572 E86.56306
G1 X103.009 Y111.788 E86.59382
G1 X102.262 Y111.954 E86.62404
G1 X101.527 Y112.07 E86.65343
G1 X100.764 Y112.142 E86.6837
G1 X99.98 Y112.166 E86.71468
G1 X99.216 Y112.14 E86.74487
G1 X98.474 Y112.07 E86.77431
G1 X97.723 Y111.951 E86.80434
G1 X96.953 Y111.777 E86.83552
G1 X96.24 Y111.571 E86.86483
G1 X95.522 Y111.313 E86.89496
G1 X94.804 Y111 E86.9259
G1 X94.143 Y110.663 E86.9552
G1 X93.458 Y110.257 E86.98665
G1 X92.852 Y109.845 E87.0156
G1 X92.224 Y109.356 E87.04703
G1 X91.678 Y108.874 E87.0758
G1 X91.127 Y108.323 E87.10658
G1 X90.609 Y107.733 E87.13759
G1 X90.161 Y107.157 E87.16641
G1 X89.714 Y106.495 E87.19796
G1 X89.341 Y105.866 E87.22684
G1 X88.981 Y105.154 E87.25835
G1 X88.684 Y104.466 E87.28795
G1 X88.427 Y103.752 E87.31792
G1 X88.213 Y103.009 E87.34846
G1 X88.047 Y102.262 E87.37868
G1 X87.931 Y101.527 E87.40807
G1 X87.858 Y100.756 E87.43866
G1 X87.835 Y99.987 E87.46904
G1 X87.86 Y99.224 E87.4992
G1 X87.932 Y98.468 E87.52919
G1 X88.048 Y97.73 E87.5587
G1 X88.225 Y96.948 E87.59036
G1 X88.432 Y96.234 E87.61973
G1 X88.688 Y95.522 E87.64961
G1 X88.999 Y94.809 E87.68033
G1 X89.335 Y94.147 E87.70966
G1 X89.744 Y93.458 E87.7413
G1 X90.152 Y92.857 E87.76999
G1 X90.645 Y92.224 E87.80168
G1 X91.127 Y91.678 E87.83045
G1 X91.674 Y91.131 E87.861
G1 X92.268 Y90.609 E87.89223
G1 X92.843 Y90.162 E87.921
G1 X93.506 Y89.714 E87.9526
G1 X94.135 Y89.341 E87.98149
G1 X94.847 Y88.981 E88.013
G1 X95.534 Y88.684 E88.04256
G1 X96.244 Y88.429 E88.07235
G1 X96.992 Y88.213 E88.10311
G1 X97.739 Y88.047 E88.13333
G1 X98.474 Y87.931 E88.16272
G1 X99.237 Y87.859 E88.19299
G1 X100.02 Y87.835 E88.22393
G1 X100.785 Y87.861 E88.25416
G1 X101.527 Y87.931 E88.2836
G1 X102.278 Y88.05 E88.31363
G1 X103.048 Y88.224 E88.34481
G1 X103.761 Y88.43 E88.37412
G1 X104.479 Y88.688 E88.40425
G1 X105.197 Y89.001 E88.43519
G1 X105.858 Y89.338 E88.46449
G1 X106.543 Y89.744 E88.49594
G1 X107.149 Y90.156 E88.52489
G1 X107.771 Y90.64 E88.55601
G1 X108.338 Y91.142 E88.58593
G1 X108.874 Y91.678 E88.61586
G1 X109.392 Y92.268 E88.64687
G1 X109.839 Y92.843 E88.67564
G1 X110.287 Y93.506 E88.70724
G1 X110.658 Y94.132 E88.73598
G1 X111.02 Y94.847 E88.76764
G1 X111.317 Y95.534 E88.7972
G1 X111.574 Y96.249 E88.82721
G1 X111.787 Y96.987 E88.85755
G1 X111.953 Y97.734 E88.88777
G1 X112.069 Y98.468 E88.91712
G1 X112.143 Y99.245 E88.94795
G1 X112.166 Y100.013 E88.97829
G1 X112.14 Y100.785 E89.0088
G1 X112.07 Y101.527 E89.03824
G1 X111.953 Y102.271 E89.06798
G1 X111.777 Y103.048 E89.09945
G1 X111.571 Y103.761 E89.12876
G1 X111.313 Y104.479 E89.1589
G1 X111.002 Y105.192 E89.18962
G1 X110.87 Y105.452 E89.20114
G0 F7200 X109.949 Y105.706
; TYPE:FILL
G1 F6240 X94.291 Y90.049 E90.07571
G0 F7200 X93.849 Y90.313
G1 F6240 X109.686 Y106.15 E90.96031
G0 F7200 X109.402 Y106.573
G1 F6240 X93.426 Y90.598 E91.85264
G0 F7200 X93.019 Y90.898
G1 F6240 X109.1 Y106.979 E92.75086
G0 F7200 X108.789 Y107.374
G1 F6240 X92.626 Y91.211 E93.65367
G0 F7200 X92.249 Y91.542
G1 F6240 X108.458 Y107.751 E94.55905
G0 F7200 X108.11 Y108.11
G1 F6240 X91.889 Y91.889 E95.46509
G0 F7200 X91.542 Y92.249
G1 F6240 X107.75 Y108.457 E96.37041
G0 F7200 X107.374 Y108.788
G1 F6240 X91.211 Y92.625 E97.27322
G0 F7200 X90.899 Y93.02
G1 F6240 X106.98 Y109.101 E98.17145
G0 F7200 X106.573 Y109.401
G1 F6240 X90.598 Y93.426 E99.06375
G0 F7200 X90.313 Y93.849
G1 F6240 X106.15 Y109.686 E99.94835
G0 F7200 X105.708 Y109.95
G1 F6240 X90.05 Y94.292 E100.82295
G0 F7200 X89.801 Y94.751
G1 F6240 X105.247 Y110.197 E101.6857
G0 F7200 X104.774 Y110.43
G1 F6240 X89.569 Y95.226 E102.53497
G0 F7200 X89.354 Y95.718
G1 F6240 X104.28 Y110.644 E103.36868
G0 F7200 X103.764 Y110.835
G1 F6240 X89.165 Y96.236 E104.18413
G0 F7200 X88.994 Y96.772
G1 F6240 X103.227 Y111.005 E104.97913
G0 F7200 X102.671 Y111.156
G1 F6240 X88.845 Y97.331 E105.75138
G0 F7200 X88.718 Y97.91
G1 F6240 X102.089 Y111.281 E106.49823
G0 F7200 X101.479 Y111.378
G1 F6240 X88.621 Y98.521 E107.21641
G0 F7200 X88.558 Y99.164
G1 F6240 X100.834 Y111.441 E107.90213
G0 F7200 X100.155 Y111.469
G1 F6240 X88.53 Y99.844 E108.55146
G0 F7200 X88.543 Y100.564
G1 F6240 X99.435 Y111.456 E109.15984
G0 F7200 X98.666 Y111.394
G1 F6240 X88.606 Y101.334 E109.72176
G0 F7200 X88.733 Y102.168
G1 F6240 X97.832 Y111.267 E110.23
G0 F7200 X96.901 Y111.043
G1 F6240 X88.958 Y103.1 E110.67366
G0 F7200 X89.304 Y104.154
G1 F6240 X95.845 Y110.694 E111.03899
G0 F7200 X94.527 Y110.083
G1 F6240 X89.913 Y105.469 E111.29671
G0 F7200 X94.752 Y89.802
G1 F6240 X110.198 Y105.248 E112.15947
G0 F7200 X110.43 Y104.774
G1 F6240 X95.226 Y89.569 E113.00874
G0 F7200 X95.719 Y89.355
G1 F6240 X110.645 Y104.281 E113.84245
G0 F7200 X110.835 Y103.764
G1 F6240 X96.236 Y89.165 E114.6579
G0 F7200 X96.773 Y88.995
G1 F6240 X111.006 Y103.228 E115.4529
G0 F7200 X111.154 Y102.669
G1 F6240 X97.329 Y88.843 E116.22514
G0 F7200 X97.91 Y88.718
G1 F6240 X111.282 Y102.089 E116.97203
G0 F7200 X111.378 Y101.479
G1 F6240 X98.521 Y88.621 E117.6902
G0 F7200 X99.165 Y88.558
G1 F6240 X111.442 Y100.835 E118.37595
G0 F7200 X111.469 Y100.156
G1 F6240 X99.844 Y88.531 E119.02528
G0 F7200 X100.564 Y88.543
G1 F6240 X111.456 Y99.436 E119.63369
G0 F7200 X111.394 Y98.666
G1 F6240 X101.333 Y88.605 E120.19566
G0 F7200 X102.167 Y88.732
G1 F6240 X111.266 Y97.831 E120.7039
G0 F7200 X111.041 Y96.899
G1 F6240 X103.098 Y88.956 E121.14757
G0 F7200 X104.154 Y89.304
G1 F6240 X110.694 Y95.845 E121.5129
G0 F7200 X110.086 Y94.53
G1 F6240 X105.472 Y89.916 E121.77062
; LAYER:3
G0 F7200 X105.595 Y89.802 Z0.6
; TYPE:WALL-INNER
G1 F6240 X106.266 Y90.201 E121.80145
G1 X106.832 Y90.586 E121.82849
G1 X107.438 Y91.058 E121.85883
G1 X107.991 Y91.548 E121.88801
G1 X108.477 Y92.034 E121.91515
G1 X108.981 Y92.609 E121.94535
G1 X109.404 Y93.154 E121.9726
G1 X109.839 Y93.798 E122.0033
G1 X110.192 Y94.392 E122.03059
G1 X110.54 Y95.081 E122.06107
G1 X110.824 Y95.742 E122.08949
G1 X111.061 Y96.399 E122.11708
G1 X111.274 Y97.138 E122.14745
G1 X111.431 Y97.846 E122.17609
G1 X111.54 Y98.537 E122.20372
G1 X111.61 Y99.271 E122.23285
G1 X111.631 Y100.025 E122.26264
G1 X111.607 Y100.757 E122.29156
G1 X111.54 Y101.461 E122.3195
G1 X111.427 Y102.175 E122.34805
G1 X111.257 Y102.931 E122.37865
G1 X111.066 Y103.586 E122.4056
G1 X110.813 Y104.291 E122.43518
G1 X110.515 Y104.973 E122.46458
G1 X110.199 Y105.595 E122.49213
G1 X109.8 Y106.266 E122.52297
G1 X109.415 Y106.832 E122.55
G1 X108.937 Y107.446 E122.58074
G1 X108.48 Y107.964 E122.60802
G1 X107.967 Y108.477 E122.63668
G1 X107.392 Y108.981 E122.66687
G1 X106.847 Y109.404 E122.69412
G1 X106.203 Y109.839 E122.72482
G1 X105.609 Y110.192 E122.75211
G1 X104.92 Y110.54 E122.7826
G1 X104.252 Y110.826 E122.8113
G1 X103.602 Y111.061 E122.83859
G1 X102.863 Y111.274 E122.86897
G1 X102.153 Y111.431 E122.89769
G1 X101.464 Y111.54 E122.92524
G1 X100.73 Y111.61 E122.95436
G1 X99.975 Y111.631 E122.9842
G1 X99.241 Y111.607 E123.0132
G1 X98.54 Y111.54 E123.04101
G1 X97.825 Y111.427 E123.0696
G1 X97.07 Y111.257 E123.10017
G1 X96.415 Y111.066 E123.12712
G1 X95.71 Y110.813 E123.1567
G1 X95.028 Y110.515 E123.1861
G1 X94.406 Y110.199 E123.21365
G1 X93.735 Y109.8 E123.24449
G1 X93.169 Y109.415 E123.27152
G1 X92.555 Y108.937 E123.30226
G1 X92.034 Y108.477 E123.32971
G1 X91.524 Y107.967 E123.35819
G1 X91.02 Y107.392 E123.38839
G1 X90.597 Y106.847 E123.41564
G1 X90.162 Y106.203 E123.44634
G1 X89.809 Y105.609 E123.47363
G1 X89.461 Y104.92 E123.50411
G1 X89.175 Y104.252 E123.53281
G1 X88.94 Y103.602 E123.56011
G1 X88.727 Y102.863 E123.59049
G1 X88.57 Y102.153 E123.61921
G1 X88.461 Y101.464 E123.64676
G1 X88.391 Y100.73 E123.67588
G1 X88.37 Y99.971 E123.70587
G1 X88.394 Y99.241 E123.73472
G1 X88.461 Y98.54 E123.76253
G1 X88.574 Y97.825 E123.79112
G1 X88.744 Y97.07 E123.82169
G1 X88.935 Y96.415 E123.84864
G1 X89.188 Y95.71 E123.87822
G1 X89.486 Y95.028 E123.90762
G1 X89.802 Y94.406 E123.93517
G1 X90.201 Y93.735 E123.96601
G1 X90.586 Y93.169 E123.99304
G1 X91.064 Y92.555 E124.02378
G1 X91.521 Y92.037 E124.05106
G1 X92.034 Y91.524 E124.07971
G1 X92.609 Y91.02 E124.10991
G1 X93.154 Y90.597 E124.13716
G1 X93.798 Y90.162 E124.16786
G1 X94.392 Y89.809 E124.19515
G1 X95.081 Y89.461 E124.22563
G1 X95.75 Y89.174 E124.25439
G1 X96.399 Y88.94 E124.28163
G1 X97.138 Y88.727 E124.31201
G1 X97.851 Y88.569 E124.34085
G1 X98.537 Y88.461 E124.36828
G1 X99.271 Y88.391 E124.3974
G1 X100.025 Y88.37 E124.4272
G1 X100.76 Y88.394 E124.45624
G1 X101.461 Y88.461 E124.48406
G1 X102.176 Y88.574 E124.51265
G1 X102.931 Y88.744 E124.54321
G1 X103.586 Y88.935 E124.57016
G1 X104.291 Y89.188 E124.59974
G1 X104.973 Y89.486 E124.62914
G1 X105.193 Y89.597 E124.63887
G0 F7200 X105.842 Y89.367
; TYPE:WALL-OUTER
G1 F4380 X106.519 Y89.769 E124.66997
G1 X107.137 Y90.189 E124.69948
G1 X107.756 Y90.671 E124.73047
G1 X108.321 Y91.172 E124.76029
G1 X108.85 Y91.701 E124.78984
G1 X109.371 Y92.296 E124.82108
G1 X109.812 Y92.863 E124.84945
G1 X110.255 Y93.519 E124.88071
G1 X110.637 Y94.163 E124.91029
G1 X110.986 Y94.855 E124.9409
G1 X111.293 Y95.569 E124.97159
G1 X111.542 Y96.259 E125.00057
G1 X111.756 Y97.004 E125.03118
G1 X111.922 Y97.749 E125.06133
G1 X112.036 Y98.473 E125.09027
G1 X112.109 Y99.239 E125.12067
G1 X112.132 Y100.021 E125.15157
G1 X112.107 Y100.783 E125.18168
G1 X112.037 Y101.522 E125.211
G1 X111.92 Y102.265 E125.2407
G1 X111.743 Y103.047 E125.27237
G1 X111.539 Y103.751 E125.30132
G1 X111.282 Y104.467 E125.33137
G1 X110.968 Y105.185 E125.36232
G1 X110.637 Y105.838 E125.39123
G1 X110.232 Y106.519 E125.42253
G1 X109.813 Y107.136 E125.45199
G1 X109.325 Y107.762 E125.48334
G1 X108.85 Y108.3 E125.51168
G1 X108.304 Y108.846 E125.54218
G1 X107.705 Y109.371 E125.57364
G1 X107.138 Y109.812 E125.60201
G1 X106.482 Y110.255 E125.63327
G1 X105.843 Y110.634 E125.66262
G1 X105.146 Y110.986 E125.69346
G1 X104.431 Y111.293 E125.72419
G1 X103.747 Y111.54 E125.75291
G1 X102.992 Y111.757 E125.78394
G1 X102.247 Y111.923 E125.81409
G1 X101.522 Y112.037 E125.84307
G1 X100.762 Y112.109 E125.87322
G1 X99.972 Y112.132 E125.90444
G1 X99.21 Y112.106 E125.93455
G1 X98.479 Y112.037 E125.96355
G1 X97.729 Y111.918 E125.99355
G1 X96.954 Y111.743 E126.02493
G1 X96.25 Y111.539 E126.05388
G1 X95.534 Y111.282 E126.08392
G1 X94.811 Y110.966 E126.11509
G1 X94.159 Y110.634 E126.14398
G1 X93.479 Y110.23 E126.17522
G1 X92.864 Y109.812 E126.20459
G1 X92.239 Y109.325 E126.23589
G1 X91.701 Y108.85 E126.26423
G1 X91.151 Y108.3 E126.29496
G1 X90.63 Y107.705 E126.32619
G1 X90.188 Y107.137 E126.35462
G1 X89.745 Y106.481 E126.38588
G1 X89.364 Y105.838 E126.4154
G1 X89.015 Y105.145 E126.44605
G1 X88.708 Y104.432 E126.47671
G1 X88.459 Y103.742 E126.50568
G1 X88.244 Y102.992 E126.5365
G1 X88.078 Y102.247 E126.56664
G1 X87.964 Y101.522 E126.59563
G1 X87.892 Y100.762 E126.62578
G1 X87.869 Y99.979 E126.65672
G1 X87.894 Y99.218 E126.68679
G1 X87.965 Y98.473 E126.71635
G1 X88.081 Y97.736 E126.74582
G1 X88.259 Y96.948 E126.77773
G1 X88.464 Y96.244 E126.80669
G1 X88.719 Y95.534 E126.83648
G1 X89.033 Y94.816 E126.86743
G1 X89.364 Y94.163 E126.89635
G1 X89.769 Y93.482 E126.92764
G1 X90.189 Y92.864 E126.95716
G1 X90.676 Y92.239 E126.98845
G1 X91.151 Y91.701 E127.0168
G1 X91.697 Y91.155 E127.04729
G1 X92.296 Y90.63 E127.07875
G1 X92.863 Y90.189 E127.10712
G1 X93.519 Y89.746 E127.13839
G1 X94.158 Y89.367 E127.16773
G1 X94.855 Y89.015 E127.19857
G1 X95.569 Y88.708 E127.22927
G1 X96.254 Y88.461 E127.25803
G1 X97.009 Y88.244 E127.28906
G1 X97.754 Y88.078 E127.3192
G1 X98.479 Y87.964 E127.34819
G1 X99.239 Y87.892 E127.37834
G1 X100.028 Y87.869 E127.40952
G1 X100.791 Y87.895 E127.43967
G1 X101.522 Y87.964 E127.46867
G1 X102.272 Y88.083 E127.49866
G1 X103.047 Y88.258 E127.53004
G1 X103.751 Y88.462 E127.55899
G1 X104.467 Y88.719 E127.58904
G1 X105.19 Y89.035 E127.6202
G1 X105.44 Y89.162 E127.63128
G0 F7200 X105.297 Y89.864
; TYPE:FILL
G1 F6240 X89.864 Y105.297 E128.49331
G0 F7200 X90.115 Y105.752
G1 F6240 X105.752 Y90.116 E129.36671
G0 F7200 X106.193 Y90.382
G1 F6240 X90.383 Y106.191 E130.24977
G0 F7200 X90.668 Y106.614
G1 F6240 X106.614 Y90.668 E131.14045
G0 F7200 X107.017 Y90.972
G1 F6240 X90.97 Y107.019 E132.03678
G0 F7200 X91.288 Y107.408
G1 F6240 X107.409 Y91.287 E132.93724
G0 F7200 X107.784 Y91.619
G1 F6240 X91.618 Y107.785 E133.84022
G0 F7200 X91.969 Y108.142
G1 F6240 X108.142 Y91.969 E134.74358
G0 F7200 X108.485 Y92.332
G1 F6240 X92.331 Y108.486 E135.64588
G0 F7200 X92.709 Y108.815
G1 F6240 X108.815 Y92.71 E136.54548
G0 F7200 X109.126 Y93.106
G1 F6240 X93.107 Y109.124 E137.44021
G0 F7200 X93.518 Y109.421
G1 F6240 X109.42 Y93.519 E138.32844
G0 F7200 X109.703 Y93.943
G1 F6240 X93.944 Y109.702 E139.20868
G0 F7200 X94.387 Y109.966
G1 F6240 X109.967 Y94.386 E140.07892
G0 F7200 X110.21 Y94.85
G1 F6240 X94.849 Y110.211 E140.93693
G0 F7200 X95.329 Y110.438
G1 F6240 X110.438 Y95.329 E141.78087
G0 F7200 X110.651 Y95.823
G1 F6240 X95.822 Y110.652 E142.60916
G0 F7200 X96.344 Y110.838
G1 F6240 X110.838 Y96.343 E143.41877
G0 F7200 X111.003 Y96.885
G1 F6240 X96.884 Y111.004 E144.20741
G0 F7200 X97.449 Y111.146
G1 F6240 X111.147 Y97.448 E144.97253
G0 F7200 X111.268 Y98.035
G1 F6240 X98.036 Y111.266 E145.71159
G0 F7200 X98.651 Y111.359
G1 F6240 X111.359 Y98.651 E146.42141
G0 F7200 X111.42 Y99.297
G1 F6240 X99.299 Y111.418 E147.09845
G0 F7200 X99.984 Y111.44
G1 F6240 X111.439 Y99.985 E147.73828
G0 F7200 X111.418 Y100.713
G1 F6240 X100.712 Y111.419 E148.33628
G0 F7200 X101.495 Y111.343
G1 F6240 X111.341 Y101.497 E148.88624
G0 F7200 X111.19 Y102.355
G1 F6240 X102.355 Y111.191 E149.37976
G0 F7200 X103.304 Y110.948
G1 F6240 X110.949 Y103.304 E149.80676
G0 F7200 X110.556 Y104.404
G1 F6240 X104.408 Y110.551 E150.15013
G0 F7200 X105.827 Y109.84
G1 F6240 X109.837 Y105.829 E150.37414
G0 F7200 X104.825 Y89.628
G1 F6240 X89.627 Y104.826 E151.22305
G0 F7200 X89.415 Y104.331
G1 F6240 X104.333 Y89.413 E152.05631
G0 F7200 X103.819 Y89.22
G1 F6240 X89.22 Y103.819 E152.87176
G0 F7200 X89.046 Y103.286
G1 F6240 X103.287 Y89.045 E153.66721
G0 F7200 X102.731 Y88.894
G1 F6240 X88.893 Y102.732 E154.44015
G0 F7200 X88.764 Y102.154
G1 F6240 X102.154 Y88.764 E155.18807
G0 F7200 X101.545 Y88.666
G1 F6240 X88.665 Y101.546 E155.9075
G0 F7200 X88.598 Y100.906
G1 F6240 X100.906 Y88.598 E156.59498
G0 F7200 X100.23 Y88.566
G1 F6240 X88.567 Y100.23 E157.24646
G0 F7200 X88.575 Y99.515
G1 F6240 X99.516 Y88.574 E157.85758
G0 F7200 X98.752 Y88.63
G1 F6240 X88.63 Y98.752 E158.42296
G0 F7200 X88.749 Y97.926
G1 F6240 X97.927 Y88.748 E158.93561
G0 F7200 X97.006 Y88.962
G1 F6240 X88.958 Y97.01 E159.38514
G0 F7200 X89.297 Y95.964
G1 F6240 X95.963 Y89.298 E159.75748
G0 F7200 X94.678 Y89.876
G1 F6240 X89.876 Y94.678 E160.0257
G0 F7200 X91.497 Y92.35
G1 F6240 X92.336 Y91.51 E160.0726
; LAYER:4
G0 F7200 X92.05 Y91.555 Z0.8
; TYPE:WALL-INNER
G1 F6180 X92.635 Y91.042 E160.10333
G1 X93.182 Y90.617 E160.13069
G1 X93.83 Y90.18 E160.16156
G1 X94.401 Y89.842 E160.18776
G1 X95.102 Y89.489 E160.21876
G1 X95.763 Y89.205 E160.24718
G1 X96.418 Y88.969 E160.27468
G1 X97.157 Y88.756 E160.30505
G1 X97.858 Y88.601 E160.33341
G1 X98.541 Y88.494 E160.36071
G1 X99.272 Y88.425 E160.38971
G1 X100.034 Y88.403 E160.41982
G1 X100.766 Y88.428 E160.44875
G1 X101.46 Y88.494 E160.47628
G1 X102.175 Y88.606 E160.50487
G1 X102.922 Y88.777 E160.53514
G1 X103.582 Y88.968 E160.56227
G1 X104.269 Y89.215 E160.59111
G1 X104.973 Y89.523 E160.62146
G1 X105.59 Y89.836 E160.64878
G1 X106.239 Y90.224 E160.67865
G1 X106.826 Y90.622 E160.70666
G1 X107.413 Y91.08 E160.73606
G1 X107.974 Y91.578 E160.76569
G1 X108.446 Y92.05 E160.79206
G1 X108.959 Y92.635 E160.82279
G1 X109.384 Y93.182 E160.85015
G1 X109.825 Y93.836 E160.8813
G1 X110.159 Y94.401 E160.90723
G1 X110.512 Y95.102 E160.93822
G1 X110.793 Y95.755 E160.9663
G1 X111.032 Y96.418 E160.99414
G1 X111.245 Y97.157 E161.02451
G1 X111.399 Y97.854 E161.05271
G1 X111.507 Y98.541 E161.08017
G1 X111.575 Y99.259 E161.10866
G1 X111.598 Y100.034 E161.13928
G1 X111.573 Y100.766 E161.16821
G1 X111.507 Y101.46 E161.19574
G1 X111.395 Y102.175 E161.22433
G1 X111.224 Y102.922 E161.2546
G1 X111.033 Y103.582 E161.28173
G1 X110.786 Y104.269 E161.31057
G1 X110.478 Y104.973 E161.34092
G1 X110.165 Y105.59 E161.36824
G1 X109.777 Y106.239 E161.39811
G1 X109.379 Y106.826 E161.42612
G1 X108.914 Y107.422 E161.45598
G1 X108.456 Y107.941 E161.48332
G1 X107.951 Y108.446 E161.51152
G1 X107.366 Y108.959 E161.54225
G1 X106.819 Y109.384 E161.56961
G1 X106.171 Y109.821 E161.60048
G1 X105.6 Y110.159 E161.62669
G1 X104.899 Y110.512 E161.65769
G1 X104.242 Y110.794 E161.68593
G1 X103.583 Y111.032 E161.7136
G1 X102.844 Y111.245 E161.74398
G1 X102.143 Y111.4 E161.77233
G1 X101.46 Y111.507 E161.79964
G1 X100.729 Y111.576 E161.82864
G1 X99.966 Y111.598 E161.85879
G1 X99.235 Y111.573 E161.88768
G1 X98.541 Y111.507 E161.91521
G1 X97.826 Y111.395 E161.94379
G1 X97.079 Y111.224 E161.97406
G1 X96.419 Y111.033 E162.0012
G1 X95.732 Y110.786 E162.03003
G1 X95.028 Y110.478 E162.06038
G1 X94.411 Y110.165 E162.08771
G1 X93.762 Y109.777 E162.11757
G1 X93.175 Y109.379 E162.14558
G1 X92.579 Y108.914 E162.17544
G1 X92.058 Y108.454 E162.20289
G1 X91.555 Y107.951 E162.23099
G1 X91.042 Y107.366 E162.26172
G1 X90.617 Y106.819 E162.28908
G1 X90.176 Y106.165 E162.32023
G1 X89.842 Y105.6 E162.34616
G1 X89.489 Y104.899 E162.37715
G1 X89.207 Y104.242 E162.40539
G1 X88.969 Y103.583 E162.43307
G1 X88.756 Y102.844 E162.46344
G1 X88.601 Y102.143 E162.4918
G1 X88.494 Y101.46 E162.5191
G1 X88.425 Y100.729 E162.5481
G1 X88.403 Y99.962 E162.57841
G1 X88.429 Y99.225 E162.60754
G1 X88.494 Y98.541 E162.63467
G1 X88.606 Y97.826 E162.66326
G1 X88.777 Y97.079 E162.69353
G1 X88.968 Y96.419 E162.72066
G1 X89.215 Y95.732 E162.7495
G1 X89.523 Y95.028 E162.77985
G1 X89.836 Y94.411 E162.80717
G1 X90.224 Y93.762 E162.83704
G1 X90.622 Y93.175 E162.86505
G1 X91.087 Y92.579 E162.89491
G1 X91.545 Y92.06 E162.92224
G1 X91.731 Y91.874 E162.93263
G0 F7200 X91.72 Y91.179
; TYPE:WALL-OUTER
G1 F4320 X92.316 Y90.656 E162.96395
G1 X92.895 Y90.207 E162.99289
G1 X93.552 Y89.763 E163.02421
G1 X94.164 Y89.401 E163.05229
G1 X94.876 Y89.042 E163.08379
G1 X95.589 Y88.736 E163.11443
G1 X96.264 Y88.493 E163.14277
G1 X97.025 Y88.274 E163.17404
G1 X97.768 Y88.109 E163.2041
G1 X98.483 Y87.997 E163.23269
G1 X99.241 Y87.926 E163.26276
G1 X100.036 Y87.902 E163.29417
G1 X100.797 Y87.929 E163.32425
G1 X101.518 Y87.997 E163.35285
G1 X102.263 Y88.114 E163.38264
G1 X103.052 Y88.294 E163.4146
G1 X103.747 Y88.496 E163.44319
G1 X104.45 Y88.748 E163.47268
G1 X105.183 Y89.069 E163.50429
G1 X105.826 Y89.396 E163.53278
G1 X106.521 Y89.81 E163.56473
G1 X107.106 Y90.207 E163.59265
G1 X107.741 Y90.702 E163.62445
G1 X108.304 Y91.202 E163.65419
G1 X108.826 Y91.724 E163.68335
G1 X109.345 Y92.316 E163.71445
G1 X109.794 Y92.895 E163.74338
G1 X110.24 Y93.556 E163.77488
G1 X110.6 Y94.164 E163.80279
G1 X110.959 Y94.876 E163.83428
G1 X111.265 Y95.589 E163.86492
G1 X111.508 Y96.264 E163.89326
G1 X111.726 Y97.02 E163.92434
G1 X111.891 Y97.763 E163.9544
G1 X112.003 Y98.477 E163.98294
G1 X112.076 Y99.249 E164.01357
G1 X112.099 Y100.029 E164.04439
G1 X112.073 Y100.789 E164.07442
G1 X112.004 Y101.518 E164.10335
G1 X111.888 Y102.258 E164.13293
G1 X111.707 Y103.051 E164.16506
G1 X111.505 Y103.747 E164.19368
G1 X111.254 Y104.447 E164.22305
G1 X110.934 Y105.179 E164.2546
G1 X110.608 Y105.822 E164.28308
G1 X110.192 Y106.519 E164.31514
G1 X109.795 Y107.105 E164.34309
G1 X109.294 Y107.747 E164.37526
G1 X108.826 Y108.277 E164.40318
G1 X108.281 Y108.822 E164.43363
G1 X107.685 Y109.345 E164.46494
G1 X107.108 Y109.792 E164.49377
G1 X106.449 Y110.238 E164.5252
G1 X105.837 Y110.6 E164.55328
G1 X105.125 Y110.959 E164.58478
G1 X104.411 Y111.265 E164.61546
G1 X103.737 Y111.508 E164.64376
G1 X102.976 Y111.727 E164.67503
G1 X102.233 Y111.892 E164.70509
G1 X101.518 Y112.004 E164.73368
G1 X100.76 Y112.075 E164.76375
G1 X99.964 Y112.099 E164.7952
G1 X99.204 Y112.072 E164.82524
G1 X98.483 Y112.004 E164.85384
G1 X97.738 Y111.887 E164.88363
G1 X96.949 Y111.707 E164.91559
G1 X96.254 Y111.505 E164.94418
G1 X95.551 Y111.253 E164.97367
G1 X94.818 Y110.932 E165.00528
G1 X94.175 Y110.605 E165.03377
G1 X93.48 Y110.191 E165.06572
G1 X92.891 Y109.791 E165.09384
G1 X92.254 Y109.294 E165.12575
G1 X91.724 Y108.826 E165.15368
G1 X91.175 Y108.277 E165.18434
G1 X90.656 Y107.685 E165.21544
G1 X90.207 Y107.106 E165.24438
G1 X89.761 Y106.445 E165.27587
G1 X89.399 Y105.834 E165.30392
G1 X89.042 Y105.124 E165.33531
G1 X88.736 Y104.412 E165.36592
G1 X88.493 Y103.737 E165.39425
G1 X88.274 Y102.976 E165.42553
G1 X88.109 Y102.233 E165.45559
G1 X87.997 Y101.518 E165.48417
G1 X87.925 Y100.752 E165.51456
G1 X87.902 Y99.971 E165.54542
G1 X87.928 Y99.212 E165.57542
G1 X87.998 Y98.477 E165.60458
G1 X88.113 Y97.743 E165.63392
G1 X88.294 Y96.949 E165.66609
G1 X88.496 Y96.254 E165.69467
G1 X88.747 Y95.554 E165.72404
G1 X89.067 Y94.822 E165.7556
G1 X89.393 Y94.179 E165.78407
G1 X89.81 Y93.48 E165.81622
G1 X90.206 Y92.896 E165.84409
G1 X90.707 Y92.254 E165.87625
G1 X91.175 Y91.724 E165.90418
G1 X91.401 Y91.498 E165.9168
G0 F7200 X92.297 Y91.59
; TYPE:FILL
G1 F6180 X108.411 Y107.704 E166.81687
G0 F7200 X108.063 Y108.063
G1 F6180 X91.936 Y91.936 E167.71767
G0 F7200 X91.588 Y92.295
G1 F6180 X107.702 Y108.41 E168.61776
G0 F7200 X107.326 Y108.74
G1 F6180 X91.257 Y92.672 E169.51529
G0 F7200 X90.945 Y93.067
G1 F6180 X106.932 Y109.054 E170.40827
G0 F7200 X106.524 Y109.353
G1 F6180 X90.646 Y93.475 E171.29515
G0 F7200 X90.363 Y93.898
G1 F6180 X106.102 Y109.638 E172.1743
G0 F7200 X105.66 Y109.902
G1 F6180 X90.098 Y94.34 E173.04354
G0 F7200 X89.85 Y94.8
G1 F6180 X105.198 Y110.148 E173.90082
G0 F7200 X104.722 Y110.379
G1 F6180 X89.62 Y95.277 E174.74437
G0 F7200 X89.405 Y95.769
G1 F6180 X104.228 Y110.592 E175.57233
G0 F7200 X103.712 Y110.783
G1 F6180 X89.217 Y96.288 E176.38196
G0 F7200 X89.047 Y96.825
G1 F6180 X103.173 Y110.951 E177.17099
G0 F7200 X102.614 Y111.099
G1 F6180 X88.901 Y97.386 E177.93695
G0 F7200 X88.775 Y97.967
G1 F6180 X102.031 Y111.224 E178.67741
G0 F7200 X101.42 Y111.319
G1 F6180 X88.681 Y98.58 E179.38896
G0 F7200 X88.619 Y99.226
G1 F6180 X100.774 Y111.38 E180.06787
G0 F7200 X100.09 Y111.403
G1 F6180 X88.594 Y99.908 E180.70997
G0 F7200 X88.611 Y100.632
G1 F6180 X99.365 Y111.386 E181.31065
G0 F7200 X98.593 Y111.321
G1 F6180 X88.678 Y101.406 E181.86446
G0 F7200 X88.82 Y102.255
G1 F6180 X97.745 Y111.18 E182.36298
G0 F7200 X96.803 Y110.945
G1 F6180 X89.055 Y103.197 E182.79575
G0 F7200 X89.431 Y104.28
G1 F6180 X95.726 Y110.575 E183.14737
G0 F7200 X94.348 Y109.904
G1 F6180 X90.089 Y105.645 E183.38526
G0 F7200 X92.674 Y91.259
G1 F6180 X108.742 Y107.328 E184.28279
G0 F7200 X109.053 Y106.932
G1 F6180 X93.067 Y90.945 E185.17574
G0 F7200 X93.475 Y90.646
G1 F6180 X109.352 Y106.524 E186.0626
G0 F7200 X109.636 Y106.101
G1 F6180 X93.897 Y90.361 E186.94175
G0 F7200 X94.34 Y90.097
G1 F6180 X109.902 Y105.659 E187.81099
G0 F7200 X110.149 Y105.199
G1 F6180 X94.801 Y89.852 E188.66824
G0 F7200 X95.277 Y89.62
G1 F6180 X110.379 Y104.722 E189.51178
G0 F7200 X110.595 Y104.231
G1 F6180 X95.771 Y89.407 E190.3398
G0 F7200 X96.288 Y89.217
G1 F6180 X110.783 Y103.712 E191.14944
G0 F7200 X110.952 Y103.173
G1 F6180 X96.826 Y89.048 E191.93844
G0 F7200 X97.385 Y88.9
G1 F6180 X111.098 Y102.613 E192.70439
G0 F7200 X111.225 Y102.032
G1 F6180 X97.968 Y88.775 E193.44488
G0 F7200 X98.579 Y88.68
G1 F6180 X111.319 Y101.42 E194.15649
G0 F7200 X111.38 Y100.774
G1 F6180 X99.226 Y88.619 E194.8354
G0 F7200 X99.91 Y88.596
G1 F6180 X111.404 Y100.09 E195.47741
G0 F7200 X111.387 Y99.366
G1 F6180 X100.634 Y88.613 E196.07803
G0 F7200 X101.406 Y88.678
G1 F6180 X111.321 Y98.593 E196.63185
G0 F7200 X111.18 Y97.745
G1 F6180 X102.254 Y88.819 E197.13042
G0 F7200 X103.196 Y89.054
G1 F6180 X110.945 Y96.803 E197.56325
G0 F7200 X110.569 Y95.72
G1 F6180 X104.273 Y89.424 E197.91493
G0 F7200 X105.651 Y90.095
G1 F6180 X109.91 Y94.354 E198.15282
; LAYER:5
G0 F7200 X110.135 Y94.428 Z1
; TYPE:WALL-INNER
G1 F2580 X110.485 Y95.124 E198.18359
G1 X110.762 Y95.768 E198.21128
G1 X111.002 Y96.432 E198.23916
G1 X111.212 Y97.169 E198.26943
G1 X111.365 Y97.859 E198.29734
G1 X111.474 Y98.548 E198.3249
G1 X111.543 Y99.275 E198.35374
G1 X111.564 Y100.041 E198.384
G1 X111.539 Y100.772 E198.41289
G1 X111.474 Y101.456 E198.44003
G1 X111.361 Y102.172 E198.46866
G1 X111.191 Y102.918 E198.49888
G1 X111.003 Y103.565 E198.52549
G1 X110.753 Y104.26 E198.55466
G1 X110.447 Y104.958 E198.58476
G1 X110.131 Y105.58 E198.61232
G1 X109.744 Y106.228 E198.64213
G1 X109.358 Y106.798 E198.66932
G1 X108.876 Y107.414 E198.70021
G1 X108.431 Y107.918 E198.72677
G1 X107.921 Y108.428 E198.75525
G1 X107.347 Y108.931 E198.7854
G1 X106.792 Y109.362 E198.81315
G1 X106.167 Y109.784 E198.84294
G1 X105.573 Y110.135 E198.87019
G1 X104.877 Y110.485 E198.90096
G1 X104.222 Y110.766 E198.92911
G1 X103.569 Y111.002 E198.95653
G1 X102.832 Y111.212 E198.9868
G1 X102.13 Y111.367 E199.01519
G1 X101.453 Y111.474 E199.04226
G1 X100.726 Y111.543 E199.07111
G1 X99.959 Y111.564 E199.10141
G1 X99.229 Y111.539 E199.13026
G1 X98.545 Y111.474 E199.1574
G1 X97.829 Y111.361 E199.18603
G1 X97.083 Y111.191 E199.21625
G1 X96.436 Y111.003 E199.24286
G1 X95.741 Y110.753 E199.27203
G1 X95.043 Y110.447 E199.30213
G1 X94.421 Y110.131 E199.32969
G1 X93.773 Y109.744 E199.3595
G1 X93.203 Y109.358 E199.38669
G1 X92.587 Y108.876 E199.41758
G1 X92.083 Y108.431 E199.44414
G1 X91.573 Y107.921 E199.47262
G1 X91.07 Y107.347 E199.50277
G1 X90.639 Y106.792 E199.53052
G1 X90.217 Y106.167 E199.56031
G1 X89.866 Y105.573 E199.58756
G1 X89.516 Y104.877 E199.61833
G1 X89.235 Y104.222 E199.64648
G1 X88.999 Y103.569 E199.6739
G1 X88.789 Y102.832 E199.70417
G1 X88.634 Y102.13 E199.73256
G1 X88.527 Y101.453 E199.75963
G1 X88.458 Y100.726 E199.78848
G1 X88.437 Y99.954 E199.81898
G1 X88.462 Y99.228 E199.84767
G1 X88.527 Y98.545 E199.87477
G1 X88.64 Y97.829 E199.9034
G1 X88.81 Y97.083 E199.93362
G1 X88.998 Y96.436 E199.96023
G1 X89.248 Y95.741 E199.9894
G1 X89.554 Y95.043 E200.0195
G1 X89.87 Y94.421 E200.04706
G1 X90.257 Y93.773 E200.07687
G1 X90.643 Y93.203 E200.10406
G1 X91.125 Y92.587 E200.13495
G1 X91.57 Y92.083 E200.1615
G1 X92.083 Y91.57 E200.19016
G1 X92.654 Y91.07 E200.22014
G1 X93.209 Y90.639 E200.24789
G1 X93.834 Y90.217 E200.27767
G1 X94.428 Y89.866 E200.30493
G1 X95.124 Y89.516 E200.33569
G1 X95.779 Y89.235 E200.36385
G1 X96.432 Y88.999 E200.39127
G1 X97.169 Y88.789 E200.42154
G1 X97.871 Y88.634 E200.44993
G1 X98.548 Y88.527 E200.477
G1 X99.275 Y88.458 E200.50584
G1 X100.041 Y88.437 E200.53611
G1 X100.772 Y88.462 E200.565
G1 X101.456 Y88.527 E200.59214
G1 X102.172 Y88.64 E200.62077
G1 X102.918 Y88.81 E200.65099
G1 X103.565 Y88.998 E200.6776
G1 X104.26 Y89.248 E200.70677
G1 X104.958 Y89.554 E200.73687
G1 X105.58 Y89.87 E200.76443
G1 X106.228 Y90.257 E200.79424
G1 X106.798 Y90.643 E200.82143
G1 X107.405 Y91.119 E200.85189
G1 X107.948 Y91.6 E200.88054
G1 X108.435 Y92.088 E200.90777
G1 X108.931 Y92.654 E200.9375
G1 X109.362 Y93.209 E200.96525
G1 X109.784 Y93.834 E200.99504
G1 X109.905 Y94.04 E201.00447
G0 F7200 X110.57 Y94.18
; TYPE:WALL-OUTER
G1 F1800 X110.932 Y94.898 E201.03623
G1 X111.237 Y95.609 E201.06679
G1 X111.479 Y96.28 E201.09496
G1 X111.695 Y97.037 E201.12605
G1 X111.859 Y97.778 E201.15603
G1 X111.97 Y98.481 E201.18414
G1 X112.042 Y99.244 E201.21441
G1 X112.065 Y100.037 E201.24574
G1 X112.039 Y100.795 E201.2757
G1 X111.971 Y101.514 E201.30422
G1 X111.855 Y102.253 E201.33377
G1 X111.674 Y103.047 E201.36593
G1 X111.476 Y103.73 E201.39402
G1 X111.22 Y104.442 E201.4239
G1 X110.9 Y105.172 E201.45538
G1 X110.578 Y105.806 E201.48347
G1 X110.159 Y106.508 E201.51576
G1 X109.768 Y107.085 E201.54329
G1 X109.262 Y107.732 E201.57573
G1 X108.801 Y108.254 E201.60323
G1 X108.258 Y108.797 E201.63356
G1 X107.657 Y109.324 E201.66514
G1 X107.088 Y109.765 E201.69357
G1 X106.424 Y110.213 E201.72521
G1 X105.821 Y110.57 E201.75288
G1 X105.103 Y110.932 E201.78464
G1 X104.391 Y111.237 E201.81523
G1 X103.727 Y111.477 E201.84312
G1 X102.96 Y111.696 E201.87462
G1 X102.218 Y111.86 E201.90464
G1 X101.514 Y111.971 E201.93279
G1 X100.757 Y112.042 E201.96282
G1 X99.956 Y112.065 E201.99447
G1 X99.198 Y112.038 E202.02442
G1 X98.487 Y111.971 E202.05263
G1 X97.741 Y111.853 E202.08246
G1 X96.954 Y111.674 E202.11434
G1 X96.271 Y111.476 E202.14243
G1 X95.559 Y111.22 E202.17231
G1 X94.825 Y110.898 E202.20397
G1 X94.191 Y110.575 E202.23207
G1 X93.491 Y110.158 E202.26425
G1 X92.911 Y109.764 E202.29195
G1 X92.269 Y109.262 E202.32413
G1 X91.747 Y108.801 E202.35164
G1 X91.2 Y108.254 E202.38219
G1 X90.677 Y107.657 E202.41354
G1 X90.234 Y107.086 E202.44208
G1 X89.785 Y106.42 E202.47381
G1 X89.429 Y105.818 E202.50143
G1 X89.069 Y105.102 E202.53308
G1 X88.764 Y104.392 E202.56361
G1 X88.522 Y103.721 E202.59178
G1 X88.305 Y102.96 E202.62303
G1 X88.141 Y102.218 E202.65305
G1 X88.03 Y101.514 E202.6812
G1 X87.959 Y100.757 E202.71123
G1 X87.936 Y99.963 E202.7426
G1 X87.962 Y99.206 E202.77252
G1 X88.031 Y98.481 E202.80128
G1 X88.146 Y97.748 E202.83058
G1 X88.328 Y96.948 E202.86299
G1 X88.527 Y96.265 E202.89109
G1 X88.781 Y95.559 E202.92072
G1 X89.101 Y94.829 E202.9522
G1 X89.423 Y94.195 E202.98029
G1 X89.843 Y93.491 E203.01267
G1 X90.233 Y92.916 E203.04011
G1 X90.739 Y92.269 E203.07255
G1 X91.2 Y91.747 E203.10005
G1 X91.743 Y91.204 E203.13038
G1 X92.344 Y90.677 E203.16195
G1 X92.915 Y90.234 E203.1905
G1 X93.577 Y89.788 E203.22203
G1 X94.18 Y89.431 E203.2497
G1 X94.898 Y89.069 E203.28146
G1 X95.609 Y88.764 E203.31202
G1 X96.274 Y88.524 E203.33994
G1 X97.041 Y88.305 E203.37145
G1 X97.783 Y88.141 E203.40146
G1 X98.487 Y88.03 E203.42961
G1 X99.244 Y87.959 E203.45964
G1 X100.044 Y87.936 E203.49125
G1 X100.803 Y87.963 E203.52125
G1 X101.514 Y88.03 E203.54945
G1 X102.26 Y88.148 E203.57928
G1 X103.047 Y88.327 E203.61116
G1 X103.73 Y88.525 E203.63925
G1 X104.442 Y88.781 E203.66913
G1 X105.176 Y89.103 E203.70079
G1 X105.81 Y89.426 E203.72889
G1 X106.51 Y89.843 E203.76107
G1 X107.086 Y90.234 E203.78857
G1 X107.726 Y90.734 E203.82065
G1 X108.287 Y91.232 E203.85027
G1 X108.801 Y91.747 E203.87901
G1 X109.324 Y92.344 E203.91036
G1 X109.767 Y92.915 E203.9389
G1 X110.216 Y93.581 E203.97063
G1 X110.34 Y93.792 E203.98029
G0 F7200 X110.078 Y94.737
; TYPE:FILL
G1 F2580 X88.64 Y100.481 E204.85688
G0 F7200 X89.103 Y103.246
G1 F2580 X96.755 Y110.897 E205.28427
G0 F7200 X94.737 Y110.078
G1 F2580 X100.481 Y88.641 E206.16082
G0 F7200 X103.244 Y89.102
G1 F2580 X110.895 Y96.753 E206.58818
G0 F7200 X111.36 Y99.57
G1 F2580 X89.944 Y105.308 E207.46387
G0 F7200 X90.562 Y106.34
G1 F2580 X94.997 Y89.791 E208.14056
G0 F7200 X96.314 Y89.243
G1 F2580 X110.757 Y103.686 E208.94729
G0 F7200 X110.179 Y105.063
G1 F2580 X93.714 Y109.475 E209.62054
G0 F7200 X99.57 Y111.36
G1 F2580 X105.308 Y89.944 E210.49623
G0 F7200 X106.34 Y90.562
G1 F2580 X89.789 Y94.997 E211.173
G0 F7200 X89.243 Y96.314
G1 F2580 X103.685 Y110.756 E211.97968
G0 F7200 X105.063 Y110.177
G1 F2580 X109.474 Y93.715 E212.6528
G0 F7200 X108.039 Y108.039
G1 F2580 X91.96 Y91.96 E213.55092
; LAYER:6
G0 F7200 X91.603 Y92.096 Z1.2
; TYPE:WALL-INNER
G1 F2580 X92.101 Y91.598 E213.57874
G1 X92.693 Y91.081 E213.60978
G1 X93.218 Y90.673 E213.63604
G1 X93.859 Y90.241 E213.66657
G1 X94.444 Y89.895 E213.69341
G1 X95.138 Y89.546 E213.72409
G1 X95.807 Y89.26 E213.75283
G1 X96.442 Y89.031 E213.77949
G1 X97.188 Y88.818 E213.81013
G1 X97.883 Y88.665 E213.83824
G1 X98.549 Y88.56 E213.86487
G1 X99.277 Y88.491 E213.89375
G1 X100.048 Y88.47 E213.92422
G1 X100.779 Y88.496 E213.95311
G1 X101.449 Y88.56 E213.97969
G1 X102.164 Y88.673 E214.00828
G1 X102.921 Y88.846 E214.03895
G1 X103.556 Y89.03 E214.06506
G1 X104.242 Y89.277 E214.09386
G1 X104.957 Y89.591 E214.1247
G1 X105.557 Y89.895 E214.15127
G1 X106.224 Y90.294 E214.18197
G1 X106.781 Y90.672 E214.20855
G1 X107.388 Y91.147 E214.239
G1 X107.94 Y91.638 E214.26817
G1 X108.403 Y92.101 E214.29404
G1 X108.92 Y92.693 E214.32508
G1 X109.328 Y93.218 E214.35134
G1 X109.76 Y93.859 E214.38187
G1 X110.106 Y94.444 E214.40871
G1 X110.455 Y95.138 E214.4394
G1 X110.741 Y95.807 E214.46813
G1 X110.97 Y96.442 E214.49479
G1 X111.183 Y97.188 E214.52543
G1 X111.336 Y97.883 E214.55354
G1 X111.441 Y98.549 E214.58017
G1 X111.51 Y99.277 E214.60905
G1 X111.531 Y100.048 E214.63952
G1 X111.505 Y100.771 E214.66809
G1 X111.441 Y101.449 E214.69499
G1 X111.328 Y102.164 E214.72358
G1 X111.155 Y102.921 E214.75425
G1 X110.971 Y103.556 E214.78036
G1 X110.724 Y104.242 E214.80916
G1 X110.41 Y104.957 E214.84
G1 X110.106 Y105.557 E214.86657
G1 X109.707 Y106.224 E214.89727
G1 X109.329 Y106.781 E214.92385
G1 X108.855 Y107.387 E214.95424
G1 X108.398 Y107.905 E214.98152
G1 X107.9 Y108.403 E215.00934
G1 X107.308 Y108.92 E215.04038
G1 X106.783 Y109.328 E215.06664
G1 X106.142 Y109.76 E215.09717
G1 X105.557 Y110.106 E215.12402
G1 X104.863 Y110.455 E215.1547
G1 X104.194 Y110.741 E215.18344
G1 X103.559 Y110.97 E215.2101
G1 X102.813 Y111.183 E215.24074
G1 X102.118 Y111.336 E215.26885
G1 X101.452 Y111.441 E215.29548
G1 X100.724 Y111.51 E215.32436
G1 X99.952 Y111.531 E215.35486
G1 X99.222 Y111.505 E215.38371
G1 X98.552 Y111.441 E215.41029
G1 X97.837 Y111.328 E215.43888
G1 X97.08 Y111.155 E215.46955
G1 X96.445 Y110.971 E215.49567
G1 X95.759 Y110.724 E215.52446
G1 X95.044 Y110.41 E215.55531
G1 X94.444 Y110.106 E215.58187
G1 X93.777 Y109.707 E215.61257
G1 X93.22 Y109.329 E215.63916
G1 X92.614 Y108.855 E215.66954
G1 X92.096 Y108.398 E215.69683
G1 X91.598 Y107.9 E215.72464
G1 X91.081 Y107.308 E215.75569
G1 X90.673 Y106.783 E215.78195
G1 X90.241 Y106.142 E215.81248
G1 X89.895 Y105.557 E215.83932
G1 X89.546 Y104.863 E215.87
G1 X89.26 Y104.194 E215.89874
G1 X89.031 Y103.559 E215.9254
G1 X88.818 Y102.813 E215.95604
G1 X88.665 Y102.118 E215.98415
G1 X88.56 Y101.452 E216.01078
G1 X88.491 Y100.724 E216.03966
G1 X88.47 Y99.946 E216.0704
G1 X88.496 Y99.222 E216.09902
G1 X88.56 Y98.552 E216.1256
G1 X88.673 Y97.837 E216.15419
G1 X88.846 Y97.08 E216.18486
G1 X89.03 Y96.445 E216.21097
G1 X89.277 Y95.759 E216.23977
G1 X89.591 Y95.044 E216.27061
G1 X89.895 Y94.444 E216.29718
G1 X90.294 Y93.777 E216.32787
G1 X90.672 Y93.22 E216.35446
G1 X91.146 Y92.614 E216.38485
G1 X91.304 Y92.434 E216.39431
G0 F7200 X91.224 Y91.769
; TYPE:WALL-OUTER
G1 F1800 X91.769 Y91.224 E216.42475
G1 X92.373 Y90.696 E216.45644
G1 X92.921 Y90.27 E216.48385
G1 X93.602 Y89.812 E216.51626
G1 X94.196 Y89.46 E216.54354
G1 X94.926 Y89.092 E216.57582
G1 X95.623 Y88.794 E216.60576
G1 X96.284 Y88.556 E216.63351
G1 X97.057 Y88.335 E216.66527
G1 X97.797 Y88.172 E216.69519
G1 X98.491 Y88.063 E216.72294
G1 X99.246 Y87.992 E216.75289
G1 X100.052 Y87.969 E216.78474
G1 X100.81 Y87.997 E216.8147
G1 X101.51 Y88.063 E216.84247
G1 X102.25 Y88.18 E216.87206
G1 X103.051 Y88.363 E216.90451
G1 X103.72 Y88.557 E216.93202
G1 X104.424 Y88.81 E216.96157
G1 X105.177 Y89.141 E216.99405
G1 X105.794 Y89.455 E217.0214
G1 X106.499 Y89.876 E217.05383
G1 X107.071 Y90.264 E217.08113
G1 X107.711 Y90.765 E217.11323
G1 X108.27 Y91.262 E217.14277
G1 X108.777 Y91.769 E217.17109
G1 X109.309 Y92.378 E217.20303
G1 X109.731 Y92.921 E217.23019
G1 X110.192 Y93.606 E217.2628
G1 X110.541 Y94.196 E217.28988
G1 X110.909 Y94.926 E217.32217
G1 X111.209 Y95.628 E217.35232
G1 X111.447 Y96.29 E217.38011
G1 X111.665 Y97.053 E217.41145
G1 X111.828 Y97.792 E217.44134
G1 X111.937 Y98.485 E217.46904
G1 X112.009 Y99.246 E217.49923
G1 X112.032 Y100.045 E217.53081
G1 X112.005 Y100.802 E217.56072
G1 X111.938 Y101.51 E217.58881
G1 X111.822 Y102.245 E217.6182
G1 X111.638 Y103.05 E217.65082
G1 X111.444 Y103.72 E217.67837
G1 X111.192 Y104.421 E217.70779
G1 X110.861 Y105.176 E217.74035
G1 X110.549 Y105.79 E217.76755
G1 X110.126 Y106.497 E217.80009
G1 X109.74 Y107.067 E217.82728
G1 X109.24 Y107.706 E217.85932
G1 X108.777 Y108.232 E217.887
G1 X108.232 Y108.777 E217.91744
G1 X107.628 Y109.305 E217.94913
G1 X107.08 Y109.731 E217.97654
G1 X106.399 Y110.189 E218.00896
G1 X105.805 Y110.541 E218.03623
G1 X105.075 Y110.909 E218.06852
G1 X104.378 Y111.207 E218.09846
G1 X103.717 Y111.445 E218.1262
G1 X102.944 Y111.666 E218.15796
G1 X102.204 Y111.829 E218.18789
G1 X101.51 Y111.938 E218.21563
G1 X100.755 Y112.009 E218.24558
G1 X99.948 Y112.032 E218.27747
G1 X99.191 Y112.004 E218.30739
G1 X98.491 Y111.938 E218.33516
G1 X97.751 Y111.821 E218.36475
G1 X96.95 Y111.638 E218.3972
G1 X96.281 Y111.444 E218.42471
G1 X95.577 Y111.191 E218.45426
G1 X94.824 Y110.86 E218.48675
G1 X94.207 Y110.546 E218.51409
G1 X93.502 Y110.125 E218.54652
G1 X92.93 Y109.737 E218.57382
G1 X92.291 Y109.237 E218.60587
G1 X91.765 Y108.773 E218.63357
G1 X91.224 Y108.232 E218.66379
G1 X90.692 Y107.623 E218.69573
G1 X90.269 Y107.079 E218.72295
G1 X89.809 Y106.395 E218.7555
G1 X89.458 Y105.802 E218.78272
G1 X89.092 Y105.075 E218.81487
G1 X88.792 Y104.373 E218.84502
G1 X88.554 Y103.711 E218.8728
G1 X88.335 Y102.944 E218.90431
G1 X88.172 Y102.204 E218.93424
G1 X88.063 Y101.51 E218.96198
G1 X87.992 Y100.755 E218.99193
G1 X87.969 Y99.955 E219.02354
G1 X87.996 Y99.199 E219.05342
G1 X88.064 Y98.485 E219.08175
G1 X88.179 Y97.756 E219.1109
G1 X88.363 Y96.95 E219.14355
G1 X88.559 Y96.275 E219.17131
G1 X88.809 Y95.58 E219.20049
G1 X89.141 Y94.824 E219.2331
G1 X89.452 Y94.211 E219.26025
G1 X89.876 Y93.502 E219.29287
G1 X90.264 Y92.93 E219.32017
G1 X90.761 Y92.295 E219.35202
G1 X90.926 Y92.108 E219.36187
G0 F7200 X91.983 Y91.983
; TYPE:FILL
G1 F2580 X108.016 Y108.016 E220.25742
G0 F7200 X105.075 Y110.135
G1 F2580 X109.463 Y93.758 E220.92707
G0 F7200 X110.045 Y94.746
G1 F2580 X88.673 Y100.473 E221.80096
G0 F7200 X89.153 Y103.295
G1 F2580 X96.706 Y110.848 E222.22285
G0 F7200 X94.746 Y110.045
G1 F2580 X100.472 Y88.674 E223.0967
G0 F7200 X103.293 Y89.151
G1 F2580 X110.846 Y96.704 E223.51858
G0 F7200 X111.327 Y99.579
G1 F2580 X89.976 Y105.3 E224.39162
G0 F7200 X90.574 Y106.297
G1 F2580 X94.985 Y89.834 E225.06478
G0 F7200 X96.34 Y89.269
G1 F2580 X110.731 Y103.66 E225.86861
G0 F7200 X110.137 Y105.074
G1 F2580 X93.756 Y109.464 E226.53843
G0 F7200 X99.579 Y111.327
G1 F2580 X105.3 Y89.977 E227.41143
G0 F7200 X106.299 Y90.573
G1 F2580 X89.832 Y94.986 E228.08477
G0 F7200 X89.269 Y96.34
G1 F2580 X103.659 Y110.73 E228.88854
; LAYER:7
G0 F7200 X103.549 Y110.938 Z1.4
; TYPE:WALL-INNER
G1 F2520 X102.808 Y111.15 E228.91898
G1 X102.093 Y111.306 E228.94789
G1 X101.444 Y111.408 E228.97383
G1 X100.724 Y111.476 E229.0024
G1 X99.943 Y111.497 E229.03326
G1 X99.216 Y111.471 E229.06199
G1 X98.556 Y111.408 E229.08817
G1 X97.843 Y111.295 E229.11669
G1 X97.08 Y111.12 E229.1476
G1 X96.45 Y110.938 E229.1735
G1 X95.776 Y110.695 E229.2018
G1 X95.047 Y110.375 E229.23325
G1 X94.46 Y110.077 E229.25925
G1 X93.784 Y109.672 E229.29037
G1 X93.243 Y109.305 E229.31619
G1 X92.629 Y108.824 E229.347
G1 X92.119 Y108.374 E229.37386
G1 X91.622 Y107.877 E229.40162
G1 X91.102 Y107.28 E229.43289
G1 X90.7 Y106.763 E229.45876
G1 X90.257 Y106.105 E229.49009
G1 X89.927 Y105.547 E229.51569
G1 X89.576 Y104.848 E229.54659
G1 X89.288 Y104.175 E229.5755
G1 X89.063 Y103.549 E229.60177
G1 X88.851 Y102.808 E229.63221
G1 X88.695 Y102.093 E229.66112
G1 X88.593 Y101.444 E229.68707
G1 X88.525 Y100.724 E229.71563
G1 X88.504 Y99.937 E229.74672
G1 X88.53 Y99.216 E229.77522
G1 X88.593 Y98.556 E229.80141
G1 X88.706 Y97.843 E229.82992
G1 X88.881 Y97.08 E229.86084
G1 X89.063 Y96.45 E229.88674
G1 X89.306 Y95.776 E229.91503
G1 X89.625 Y95.05 E229.94635
G1 X89.924 Y94.46 E229.97248
G1 X90.329 Y93.784 E230.0036
G1 X90.696 Y93.243 E230.02942
G1 X91.177 Y92.629 E230.06023
G1 X91.627 Y92.119 E230.08709
G1 X92.124 Y91.622 E230.11485
G1 X92.721 Y91.102 E230.14612
G1 X93.238 Y90.7 E230.17199
G1 X93.896 Y90.257 E230.20332
G1 X94.454 Y89.927 E230.22892
G1 X95.153 Y89.576 E230.25982
G1 X95.826 Y89.288 E230.28873
G1 X96.452 Y89.063 E230.315
G1 X97.193 Y88.851 E230.34544
G1 X97.908 Y88.695 E230.37435
G1 X98.557 Y88.593 E230.4003
G1 X99.277 Y88.525 E230.42886
G1 X100.057 Y88.504 E230.45968
G1 X100.785 Y88.53 E230.48845
G1 X101.445 Y88.593 E230.51464
G1 X102.158 Y88.706 E230.54315
G1 X102.921 Y88.881 E230.57407
G1 X103.551 Y89.063 E230.59997
G1 X104.225 Y89.306 E230.62827
G1 X104.951 Y89.625 E230.65959
G1 X105.541 Y89.924 E230.68571
G1 X106.217 Y90.329 E230.71684
G1 X106.758 Y90.696 E230.74266
G1 X107.374 Y91.179 E230.77357
G1 X107.913 Y91.66 E230.80211
G1 X108.386 Y92.132 E230.8285
G1 X108.899 Y92.721 E230.85935
G1 X109.301 Y93.238 E230.88521
G1 X109.744 Y93.896 E230.91654
G1 X110.074 Y94.454 E230.94215
G1 X110.425 Y95.153 E230.97304
G1 X110.713 Y95.826 E231.00195
G1 X110.938 Y96.452 E231.02823
G1 X111.15 Y97.193 E231.05867
G1 X111.306 Y97.908 E231.08757
G1 X111.408 Y98.557 E231.11352
G1 X111.476 Y99.277 E231.14208
G1 X111.497 Y100.057 E231.1729
G1 X111.471 Y100.785 E231.20167
G1 X111.408 Y101.445 E231.22786
G1 X111.295 Y102.158 E231.25637
G1 X111.12 Y102.921 E231.28729
G1 X110.938 Y103.551 E231.31319
G1 X110.695 Y104.225 E231.34149
G1 X110.376 Y104.951 E231.37281
G1 X110.077 Y105.541 E231.39893
G1 X109.672 Y106.217 E231.43006
G1 X109.305 Y106.758 E231.45588
G1 X108.824 Y107.372 E231.48668
G1 X108.374 Y107.882 E231.51355
G1 X107.877 Y108.379 E231.54131
G1 X107.28 Y108.899 E231.57258
G1 X106.763 Y109.301 E231.59844
G1 X106.105 Y109.744 E231.62977
G1 X105.547 Y110.074 E231.65538
G1 X104.848 Y110.425 E231.68627
G1 X104.175 Y110.713 E231.71519
G1 X103.973 Y110.785 E231.72366
G0 F7200 X103.707 Y111.413
; TYPE:WALL-OUTER
G1 F1740 X102.924 Y111.637 E231.75582
G1 X102.194 Y111.796 E231.78533
G1 X101.505 Y111.905 E231.81288
G1 X100.754 Y111.975 E231.84267
G1 X99.939 Y111.998 E231.87487
G1 X99.185 Y111.97 E231.90467
G1 X98.495 Y111.905 E231.93205
G1 X97.758 Y111.788 E231.96152
G1 X96.95 Y111.603 E231.99426
G1 X96.285 Y111.41 E232.02161
G1 X95.592 Y111.161 E232.05069
G1 X94.83 Y110.826 E232.08357
G1 X94.223 Y110.517 E232.11047
G1 X93.523 Y110.099 E232.14267
G1 X92.942 Y109.704 E232.17042
G1 X92.306 Y109.206 E232.20233
G1 X91.788 Y108.749 E232.22961
G1 X91.248 Y108.209 E232.25977
G1 X90.712 Y107.595 E232.29196
G1 X90.296 Y107.059 E232.31876
G1 X89.833 Y106.37 E232.35155
G1 X89.481 Y105.775 E232.37885
G1 X89.122 Y105.06 E232.41045
G1 X88.82 Y104.353 E232.44082
G1 X88.588 Y103.707 E232.46793
G1 X88.364 Y102.924 E232.50009
G1 X88.205 Y102.193 E232.52964
G1 X88.095 Y101.497 E232.55747
G1 X88.026 Y100.754 E232.58694
G1 X88.003 Y99.946 E232.61887
G1 X88.03 Y99.193 E232.64863
G1 X88.097 Y98.489 E232.67656
G1 X88.212 Y97.762 E232.70563
G1 X88.398 Y96.95 E232.73853
G1 X88.591 Y96.285 E232.76588
G1 X88.84 Y95.592 E232.79497
G1 X89.175 Y94.83 E232.82784
G1 X89.481 Y94.227 E232.85455
G1 X89.9 Y93.526 E232.88681
G1 X90.297 Y92.942 E232.9147
G1 X90.792 Y92.31 E232.9464
G1 X91.248 Y91.792 E232.97366
G1 X91.792 Y91.248 E233.00405
G1 X92.401 Y90.716 E233.03598
G1 X92.941 Y90.297 E233.06298
G1 X93.627 Y89.836 E233.09562
G1 X94.221 Y89.484 E233.1229
G1 X94.941 Y89.122 E233.15472
G1 X95.643 Y88.822 E233.18488
G1 X96.294 Y88.588 E233.2122
G1 X97.077 Y88.364 E233.24437
G1 X97.807 Y88.205 E233.27387
G1 X98.496 Y88.096 E233.30143
G1 X99.247 Y88.026 E233.33122
G1 X100.061 Y88.003 E233.36338
G1 X100.816 Y88.031 E233.39322
G1 X101.506 Y88.096 E233.42059
G1 X102.243 Y88.213 E233.45007
G1 X103.051 Y88.398 E233.4828
G1 X103.716 Y88.591 E233.51015
G1 X104.409 Y88.84 E233.53924
G1 X105.171 Y89.175 E233.57211
G1 X105.778 Y89.484 E233.59902
G1 X106.475 Y89.9 E233.63108
G1 X107.059 Y90.297 E233.65897
G1 X107.696 Y90.796 E233.69093
G1 X108.253 Y91.293 E233.72041
G1 X108.753 Y91.792 E233.74831
G1 X109.289 Y92.406 E233.7805
G1 X109.704 Y92.941 E233.80724
G1 X110.168 Y93.631 E233.84009
G1 X110.52 Y94.226 E233.86739
G1 X110.879 Y94.941 E233.89899
G1 X111.181 Y95.648 E233.92935
G1 X111.415 Y96.3 E233.95671
G1 X111.637 Y97.077 E233.98863
G1 X111.796 Y97.807 E234.01814
G1 X111.906 Y98.504 E234.04601
G1 X111.975 Y99.247 E234.07548
G1 X111.998 Y100.054 E234.10737
G1 X111.971 Y100.808 E234.13717
G1 X111.905 Y101.506 E234.16486
G1 X111.789 Y102.239 E234.19417
G1 X111.603 Y103.05 E234.22703
G1 X111.41 Y103.716 E234.25442
G1 X111.161 Y104.409 E234.2835
G1 X110.827 Y105.17 E234.31633
G1 X110.52 Y105.774 E234.34309
G1 X110.101 Y106.475 E234.37535
G1 X109.705 Y107.057 E234.40315
G1 X109.209 Y107.691 E234.43494
G1 X108.753 Y108.209 E234.4622
G1 X108.209 Y108.753 E234.49258
G1 X107.6 Y109.285 E234.52452
G1 X107.06 Y109.704 E234.55152
G1 X106.374 Y110.165 E234.58416
G1 X105.78 Y110.517 E234.61143
G1 X105.06 Y110.879 E234.64326
G1 X104.358 Y111.179 E234.67342
G1 X104.131 Y111.26 E234.68293
G0 F7200 X103.633 Y110.704
; TYPE:FILL
G1 F2520 X89.294 Y96.365 E235.48386
G0 F7200 X89.874 Y94.974
G1 F2520 X106.256 Y90.585 E236.15371
G0 F7200 X105.291 Y90.009
G1 F2520 X99.588 Y111.293 E237.024
G0 F7200 X96.657 Y110.799
G1 F2520 X89.202 Y103.344 E237.44041
G0 F7200 X90.01 Y105.291
G1 F2520 X111.293 Y99.588 E238.31067
G0 F7200 X110.797 Y96.655
G1 F2520 X103.343 Y89.201 E238.72702
G0 F7200 X100.464 Y88.707
G1 F2520 X94.754 Y110.014 E239.59827
G0 F7200 X93.798 Y109.452
G1 F2520 X110.093 Y105.086 E240.26456
G0 F7200 X110.705 Y103.634
G1 F2520 X96.366 Y89.295 E241.06549
G0 F7200 X94.974 Y89.876
G1 F2520 X90.586 Y106.253 E241.73514
G0 F7200 X88.707 Y100.464
G1 F2520 X110.013 Y94.755 E242.60633
G0 F7200 X109.451 Y93.802
G1 F2520 X105.086 Y110.091 E243.27239
G0 F7200 X107.992 Y107.992
G1 F2520 X92.007 Y92.007 E244.16525
; LAYER:8
G0 F7200 X92.147 Y91.647 Z1.6
; TYPE:WALL-INNER
G1 F2520 X92.741 Y91.13 E244.19636
G1 X93.261 Y90.725 E244.22239
G1 X93.926 Y90.279 E244.25401
G1 X94.476 Y89.953 E244.27927
G1 X95.173 Y89.603 E244.31007
G1 X95.84 Y89.318 E244.33872
G1 X96.466 Y89.093 E244.36499
G1 X97.204 Y88.883 E244.3953
G1 X97.924 Y88.726 E244.4244
G1 X98.559 Y88.626 E244.44979
G1 X99.279 Y88.558 E244.47836
G1 X100.064 Y88.538 E244.50937
G1 X100.791 Y88.564 E244.5381
G1 X101.443 Y88.626 E244.56397
G1 X102.146 Y88.737 E244.59208
G1 X102.924 Y88.916 E244.62361
G1 X103.534 Y89.093 E244.6487
G1 X104.23 Y89.343 E244.67791
G1 X104.936 Y89.654 E244.70838
G1 X105.523 Y89.952 E244.73438
G1 X106.197 Y90.356 E244.76542
G1 X106.741 Y90.725 E244.79138
G1 X107.359 Y91.21 E244.82241
G1 X107.904 Y91.697 E244.85127
G1 X108.354 Y92.147 E244.87641
G1 X108.871 Y92.741 E244.90751
G1 X109.276 Y93.261 E244.93354
G1 X109.722 Y93.926 E244.96517
G1 X110.048 Y94.476 E244.99042
G1 X110.398 Y95.173 E245.02123
G1 X110.683 Y95.84 E245.04988
G1 X110.908 Y96.466 E245.07615
G1 X111.118 Y97.204 E245.10645
G1 X111.275 Y97.924 E245.13556
G1 X111.375 Y98.559 E245.16095
G1 X111.443 Y99.279 E245.18951
G1 X111.463 Y100.064 E245.22053
G1 X111.437 Y100.791 E245.24926
G1 X111.375 Y101.443 E245.27513
G1 X111.264 Y102.146 E245.30324
G1 X111.085 Y102.924 E245.33477
G1 X110.908 Y103.534 E245.35986
G1 X110.658 Y104.23 E245.38906
G1 X110.347 Y104.936 E245.41953
G1 X110.049 Y105.523 E245.44554
G1 X109.645 Y106.197 E245.47657
G1 X109.276 Y106.741 E245.50253
G1 X108.785 Y107.366 E245.53393
G1 X108.358 Y107.85 E245.55942
G1 X107.854 Y108.354 E245.58757
G1 X107.26 Y108.871 E245.61867
G1 X106.74 Y109.276 E245.64471
G1 X106.075 Y109.722 E245.67633
G1 X105.525 Y110.048 E245.70158
G1 X104.828 Y110.398 E245.73239
G1 X104.161 Y110.683 E245.76104
G1 X103.535 Y110.908 E245.78731
G1 X102.797 Y111.118 E245.81761
G1 X102.077 Y111.275 E245.84672
G1 X101.442 Y111.375 E245.87211
G1 X100.722 Y111.443 E245.90067
G1 X99.92 Y111.464 E245.93236
G1 X99.227 Y111.438 E245.95975
G1 X98.558 Y111.375 E245.98629
G1 X97.855 Y111.264 E246.0144
G1 X97.077 Y111.085 E246.04593
G1 X96.467 Y110.908 E246.07102
G1 X95.771 Y110.658 E246.10023
G1 X95.065 Y110.347 E246.1307
G1 X94.478 Y110.049 E246.1567
G1 X93.804 Y109.645 E246.18773
G1 X93.26 Y109.276 E246.2137
G1 X92.635 Y108.785 E246.24509
G1 X92.151 Y108.358 E246.27058
G1 X91.647 Y107.854 E246.29873
G1 X91.13 Y107.26 E246.32984
G1 X90.725 Y106.74 E246.35587
G1 X90.279 Y106.075 E246.38749
G1 X89.953 Y105.525 E246.41275
G1 X89.603 Y104.828 E246.44355
G1 X89.318 Y104.161 E246.4722
G1 X89.093 Y103.535 E246.49847
G1 X88.883 Y102.797 E246.52878
G1 X88.726 Y102.077 E246.55788
G1 X88.626 Y101.442 E246.58327
G1 X88.558 Y100.722 E246.61184
G1 X88.537 Y99.92 E246.64352
G1 X88.562 Y99.234 E246.67064
G1 X88.626 Y98.558 E246.69746
G1 X88.737 Y97.855 E246.72557
G1 X88.916 Y97.077 E246.7571
G1 X89.093 Y96.467 E246.78218
G1 X89.343 Y95.771 E246.81139
G1 X89.654 Y95.065 E246.84186
G1 X89.952 Y94.478 E246.86786
G1 X90.356 Y93.804 E246.8989
G1 X90.725 Y93.26 E246.92486
G1 X91.216 Y92.635 E246.95625
G1 X91.643 Y92.151 E246.98175
G1 X91.828 Y91.966 E246.99208
G0 F7200 X91.815 Y91.273
; TYPE:WALL-OUTER
G1 F1740 X92.424 Y90.742 E247.02399
G1 X92.965 Y90.321 E247.05107
G1 X93.655 Y89.858 E247.08389
G1 X94.237 Y89.513 E247.11061
G1 X94.963 Y89.149 E247.14269
G1 X95.663 Y88.85 E247.17275
G1 X96.309 Y88.618 E247.19986
G1 X97.089 Y88.396 E247.23189
G1 X97.821 Y88.236 E247.26148
G1 X98.501 Y88.129 E247.28867
G1 X99.248 Y88.059 E247.31831
G1 X100.069 Y88.037 E247.35074
G1 X100.822 Y88.065 E247.3805
G1 X101.501 Y88.129 E247.40744
G1 X102.238 Y88.245 E247.43691
G1 X103.051 Y88.432 E247.46986
G1 X103.699 Y88.62 E247.49651
G1 X104.4 Y88.872 E247.52593
G1 X105.164 Y89.209 E247.55891
G1 X105.767 Y89.515 E247.58562
G1 X106.47 Y89.936 E247.61798
G1 X107.032 Y90.318 E247.64482
G1 X107.681 Y90.828 E247.67742
G1 X108.236 Y91.323 E247.70679
G1 X108.728 Y91.815 E247.73427
G1 X109.259 Y92.424 E247.76619
G1 X109.68 Y92.965 E247.79326
G1 X110.143 Y93.655 E247.82608
G1 X110.491 Y94.242 E247.85303
G1 X110.852 Y94.963 E247.88488
G1 X111.153 Y95.668 E247.91516
G1 X111.384 Y96.311 E247.94214
G1 X111.604 Y97.085 E247.97392
G1 X111.765 Y97.821 E248.00368
G1 X111.873 Y98.509 E248.03119
G1 X111.942 Y99.248 E248.0605
G1 X111.964 Y100.062 E248.09266
G1 X111.937 Y100.814 E248.12238
G1 X111.872 Y101.501 E248.14964
G1 X111.757 Y102.233 E248.17891
G1 X111.569 Y103.05 E248.21202
G1 X111.381 Y103.699 E248.2387
G1 X111.13 Y104.397 E248.268
G1 X110.793 Y105.163 E248.30105
G1 X110.486 Y105.767 E248.32781
G1 X110.068 Y106.465 E248.35995
G1 X109.687 Y107.027 E248.38676
G1 X109.169 Y107.687 E248.4199
G1 X108.728 Y108.186 E248.4462
G1 X108.186 Y108.728 E248.47648
G1 X107.577 Y109.259 E248.50839
G1 X107.036 Y109.68 E248.53547
G1 X106.346 Y110.143 E248.56829
G1 X105.764 Y110.488 E248.59501
G1 X105.038 Y110.852 E248.62708
G1 X104.338 Y111.151 E248.65715
G1 X103.692 Y111.383 E248.68426
G1 X102.912 Y111.605 E248.71629
G1 X102.18 Y111.765 E248.74588
G1 X101.5 Y111.872 E248.77307
G1 X100.753 Y111.942 E248.8027
G1 X99.931 Y111.964 E248.83518
G1 X99.179 Y111.936 E248.8649
G1 X98.5 Y111.872 E248.89184
G1 X97.763 Y111.756 E248.92131
G1 X96.95 Y111.569 E248.95426
G1 X96.302 Y111.381 E248.98091
G1 X95.601 Y111.129 E249.01033
G1 X94.837 Y110.792 E249.04331
G1 X94.234 Y110.486 E249.07002
G1 X93.531 Y110.065 E249.10238
G1 X92.969 Y109.683 E249.12922
G1 X92.314 Y109.169 E249.1621
G1 X91.815 Y108.728 E249.18841
G1 X91.273 Y108.186 E249.21868
G1 X90.742 Y107.577 E249.25059
G1 X90.321 Y107.036 E249.27767
G1 X89.858 Y106.346 E249.31049
G1 X89.51 Y105.759 E249.33744
G1 X89.149 Y105.038 E249.36929
G1 X88.848 Y104.333 E249.39956
G1 X88.617 Y103.69 E249.42655
G1 X88.396 Y102.912 E249.45849
G1 X88.236 Y102.179 E249.48813
G1 X88.128 Y101.492 E249.51559
G1 X88.059 Y100.753 E249.54491
G1 X88.037 Y99.938 E249.57711
G1 X88.064 Y99.187 E249.60679
G1 X88.13 Y98.494 E249.63428
G1 X88.244 Y97.768 E249.66331
G1 X88.432 Y96.95 E249.69646
G1 X88.622 Y96.296 E249.72336
G1 X88.871 Y95.604 E249.75241
G1 X89.209 Y94.837 E249.78551
G1 X89.515 Y94.234 E249.81222
G1 X89.933 Y93.536 E249.84435
G1 X90.314 Y92.974 E249.87117
G1 X90.832 Y92.314 E249.90431
G1 X91.273 Y91.815 E249.93061
G1 X91.496 Y91.592 E249.94307
G0 F7200 X92.031 Y92.031
; TYPE:FILL
G1 F2520 X107.968 Y107.968 E250.83325
G0 F7200 X105.098 Y110.049
G1 F2520 X109.439 Y93.845 E251.49582
G0 F7200 X109.98 Y94.764
G1 F2520 X88.74 Y100.455 E252.36431
G0 F7200 X89.25 Y103.392
G1 F2520 X96.609 Y110.751 E252.77536
G0 F7200 X94.764 Y109.98
G1 F2520 X100.454 Y88.741 E253.6438
G0 F7200 X103.391 Y89.248
G1 F2520 X110.75 Y96.608 E254.05488
G0 F7200 X111.26 Y99.597
G1 F2520 X90.042 Y105.282 E254.92247
G0 F7200 X90.598 Y106.209
G1 F2520 X94.962 Y89.92 E255.58852
G0 F7200 X96.392 Y89.321
G1 F2520 X110.679 Y103.608 E256.38654
G0 F7200 X110.05 Y105.098
G1 F2520 X93.841 Y109.441 E257.04932
G0 F7200 X99.597 Y111.26
G1 F2520 X105.282 Y90.042 E257.91691
G0 F7200 X106.214 Y90.596
G1 F2520 X89.918 Y94.963 E258.58326
G0 F7200 X89.321 Y96.392
G1 F2520 X103.607 Y110.678 E259.38122
; LAYER:9
G0 F7200 X103.525 Y110.876 Z1.8
; TYPE:WALL-INNER
G1 F2520 X102.778 Y111.088 E259.41189
G1 X102.068 Y111.242 E259.44058
G1 X101.436 Y111.342 E259.46585
G1 X100.718 Y111.41 E259.49434
G1 X99.915 Y111.431 E259.52607
G1 X99.22 Y111.403 E259.55354
G1 X98.566 Y111.342 E259.57948
G1 X97.862 Y111.231 E259.60763
G1 X97.073 Y111.049 E259.63961
G1 X96.476 Y110.876 E259.66416
G1 X95.79 Y110.629 E259.69296
G1 X95.058 Y110.306 E259.72456
G1 X94.505 Y110.025 E259.74906
G1 X93.798 Y109.601 E259.78162
G1 X93.297 Y109.261 E259.80553
G1 X92.652 Y108.754 E259.83794
G1 X92.165 Y108.325 E259.86357
G1 X91.671 Y107.831 E259.89116
G1 X91.143 Y107.224 E259.92294
G1 X90.757 Y106.728 E259.94776
G1 X90.307 Y106.056 E259.97971
G1 X89.98 Y105.504 E260.00505
G1 X89.63 Y104.806 E260.03589
G1 X89.346 Y104.14 E260.06448
G1 X89.125 Y103.525 E260.09029
G1 X88.913 Y102.778 E260.12096
G1 X88.759 Y102.068 E260.14966
G1 X88.659 Y101.436 E260.17493
G1 X88.591 Y100.718 E260.20341
G1 X88.57 Y99.915 E260.23514
G1 X88.597 Y99.227 E260.26233
G1 X88.659 Y98.566 E260.28856
G1 X88.77 Y97.862 E260.31671
G1 X88.952 Y97.073 E260.34869
G1 X89.125 Y96.476 E260.37324
G1 X89.372 Y95.79 E260.40203
G1 X89.695 Y95.058 E260.43363
G1 X89.976 Y94.505 E260.45813
G1 X90.403 Y93.792 E260.49096
G1 X90.74 Y93.297 E260.51461
G1 X91.247 Y92.652 E260.54701
G1 X91.676 Y92.165 E260.57265
G1 X92.17 Y91.671 E260.60024
G1 X92.777 Y91.143 E260.63202
G1 X93.273 Y90.757 E260.65684
G1 X93.945 Y90.307 E260.68878
G1 X94.497 Y89.98 E260.71412
G1 X95.195 Y89.63 E260.74496
G1 X95.861 Y89.346 E260.77356
G1 X96.476 Y89.125 E260.79937
G1 X97.223 Y88.913 E260.83004
G1 X97.933 Y88.759 E260.85873
G1 X98.565 Y88.659 E260.88401
G1 X99.283 Y88.591 E260.91249
G1 X100.086 Y88.57 E260.94422
G1 X100.781 Y88.598 E260.97169
G1 X101.435 Y88.659 E260.99763
G1 X102.139 Y88.77 E261.02578
G1 X102.928 Y88.952 E261.05776
G1 X103.525 Y89.125 E261.08231
G1 X104.211 Y89.372 E261.11111
G1 X104.943 Y89.695 E261.14271
G1 X105.496 Y89.976 E261.16721
G1 X106.203 Y90.4 E261.19977
G1 X106.704 Y90.74 E261.22368
G1 X107.351 Y91.248 E261.25617
G1 X107.879 Y91.719 E261.28412
G1 X108.334 Y92.175 E261.30956
G1 X108.858 Y92.777 E261.34108
G1 X109.244 Y93.273 E261.36591
G1 X109.694 Y93.945 E261.39785
G1 X110.021 Y94.497 E261.42319
G1 X110.371 Y95.195 E261.45403
G1 X110.655 Y95.861 E261.48263
G1 X110.876 Y96.476 E261.50844
G1 X111.088 Y97.223 E261.53911
G1 X111.242 Y97.933 E261.5678
G1 X111.342 Y98.565 E261.59307
G1 X111.41 Y99.283 E261.62156
G1 X111.431 Y100.086 E261.65329
G1 X111.404 Y100.774 E261.68048
G1 X111.342 Y101.435 E261.7067
G1 X111.231 Y102.139 E261.73485
G1 X111.049 Y102.928 E261.76683
G1 X110.876 Y103.525 E261.79138
G1 X110.629 Y104.211 E261.82018
G1 X110.306 Y104.943 E261.85178
G1 X110.025 Y105.496 E261.87628
G1 X109.601 Y106.203 E261.90884
G1 X109.261 Y106.704 E261.93275
G1 X108.754 Y107.349 E261.96516
G1 X108.325 Y107.836 E261.99079
G1 X107.831 Y108.33 E262.01838
G1 X107.224 Y108.858 E262.05016
G1 X106.728 Y109.244 E262.07498
G1 X106.056 Y109.694 E262.10693
G1 X105.504 Y110.021 E262.13227
G1 X104.806 Y110.371 E262.16311
G1 X104.14 Y110.655 E262.1917
G1 X103.949 Y110.723 E262.19971
G0 F7200 X103.682 Y111.351
; TYPE:WALL-OUTER
G1 F1740 X102.896 Y111.575 E262.23199
G1 X102.165 Y111.733 E262.26153
G1 X101.497 Y111.839 E262.28824
G1 X100.749 Y111.909 E262.31792
G1 X99.924 Y111.931 E262.35051
G1 X99.171 Y111.901 E262.38028
G1 X98.505 Y111.839 E262.40669
G1 X97.77 Y111.723 E262.43608
G1 X96.95 Y111.534 E262.46932
G1 X96.312 Y111.349 E262.49556
G1 X95.614 Y111.098 E262.52485
G1 X94.844 Y110.758 E262.5581
G1 X94.256 Y110.459 E262.58415
G1 X93.535 Y110.027 E262.61735
G1 X92.995 Y109.66 E262.64314
G1 X92.33 Y109.137 E262.67655
G1 X91.834 Y108.7 E262.70266
G1 X91.297 Y108.163 E262.73266
G1 X90.753 Y107.539 E262.76535
G1 X90.351 Y107.021 E262.79125
G1 X89.882 Y106.321 E262.82453
G1 X89.54 Y105.742 E262.85109
G1 X89.176 Y105.016 E262.88317
G1 X88.876 Y104.312 E262.91339
G1 X88.649 Y103.68 E262.93991
G1 X88.426 Y102.896 E262.97211
G1 X88.268 Y102.165 E263.00165
G1 X88.162 Y101.497 E263.02836
G1 X88.092 Y100.749 E263.05803
G1 X88.07 Y99.931 E263.09035
G1 X88.099 Y99.18 E263.12004
G1 X88.163 Y98.498 E263.14709
G1 X88.277 Y97.774 E263.17604
G1 X88.467 Y96.95 E263.20944
G1 X88.654 Y96.306 E263.23592
G1 X88.902 Y95.617 E263.26485
G1 X89.243 Y94.844 E263.29821
G1 X89.54 Y94.26 E263.32409
G1 X89.974 Y93.535 E263.35747
G1 X90.341 Y92.995 E263.38325
G1 X90.864 Y92.33 E263.41667
G1 X91.297 Y91.838 E263.44255
G1 X91.838 Y91.297 E263.47277
G1 X92.457 Y90.757 E263.50522
G1 X92.979 Y90.352 E263.53131
G1 X93.68 Y89.882 E263.56465
G1 X94.254 Y89.543 E263.59097
G1 X94.985 Y89.176 E263.62328
G1 X95.684 Y88.878 E263.65329
G1 X96.319 Y88.65 E263.67994
G1 X97.105 Y88.426 E263.71222
G1 X97.836 Y88.268 E263.74176
G1 X98.504 Y88.162 E263.76847
G1 X99.252 Y88.092 E263.79815
G1 X100.077 Y88.07 E263.83074
G1 X100.83 Y88.1 E263.86051
G1 X101.496 Y88.162 E263.88692
G1 X102.231 Y88.278 E263.91631
G1 X103.051 Y88.467 E263.94955
G1 X103.689 Y88.652 E263.97579
G1 X104.387 Y88.903 E264.00508
G1 X105.157 Y89.243 E264.03833
G1 X105.745 Y89.542 E264.06438
G1 X106.466 Y89.974 E264.09758
G1 X107.006 Y90.341 E264.12337
G1 X107.671 Y90.864 E264.15678
G1 X108.22 Y91.353 E264.18582
G1 X108.704 Y91.838 E264.21288
G1 X109.248 Y92.462 E264.24558
G1 X109.649 Y92.979 E264.27142
G1 X110.119 Y93.68 E264.30476
G1 X110.461 Y94.259 E264.33132
G1 X110.825 Y94.985 E264.36339
G1 X111.125 Y95.689 E264.39362
G1 X111.352 Y96.321 E264.42014
G1 X111.574 Y97.101 E264.45217
G1 X111.733 Y97.836 E264.48187
G1 X111.838 Y98.498 E264.50835
G1 X111.909 Y99.252 E264.53826
G1 X111.931 Y100.07 E264.57058
G1 X111.902 Y100.821 E264.60026
G1 X111.839 Y101.496 E264.62704
G1 X111.724 Y102.227 E264.65626
G1 X111.534 Y103.05 E264.68962
G1 X111.349 Y103.689 E264.7159
G1 X111.099 Y104.384 E264.74507
G1 X110.759 Y105.155 E264.77835
G1 X110.461 Y105.741 E264.80432
G1 X110.031 Y106.46 E264.83741
G1 X109.66 Y107.006 E264.86348
G1 X109.137 Y107.671 E264.89689
G1 X108.704 Y108.163 E264.92278
G1 X108.163 Y108.704 E264.953
G1 X107.544 Y109.244 E264.98544
G1 X107.022 Y109.649 E265.01154
G1 X106.321 Y110.119 E265.04487
G1 X105.747 Y110.458 E265.0712
G1 X105.016 Y110.825 E265.10351
G1 X104.317 Y111.123 E265.13352
G1 X104.106 Y111.198 E265.14236
G0 F7200 X103.581 Y110.653
; TYPE:FILL
G1 F2520 X89.347 Y96.418 E265.93745
G0 F7200 X89.96 Y94.951
G1 F2520 X106.172 Y90.607 E266.60035
G0 F7200 X105.273 Y90.075
G1 F2520 X99.606 Y111.226 E267.46521
G0 F7200 X96.56 Y110.702
G1 F2520 X89.298 Y103.44 E267.87084
G0 F7200 X90.076 Y105.273
G1 F2520 X111.226 Y99.606 E268.73565
G0 F7200 X110.7 Y96.558
G1 F2520 X103.439 Y89.297 E269.14123
G0 F7200 X100.446 Y88.774
G1 F2520 X94.772 Y109.947 E270.00699
G0 F7200 X93.882 Y109.43
G1 F2520 X110.007 Y105.109 E270.66634
G0 F7200 X110.653 Y103.582
G1 F2520 X96.418 Y89.347 E271.46146
G0 F7200 X94.951 Y89.963
G1 F2520 X90.609 Y106.166 E272.124
G0 F7200 X88.773 Y100.446
G1 F2520 X109.947 Y94.772 E272.9898
G0 F7200 X109.428 Y93.888
G1 F2520 X105.109 Y110.005 E273.64882
G0 F7200 X107.945 Y107.945
G1 F2520 X92.054 Y92.054 E274.53644
; LAYER:10
G0 F7200 X91.7 Y92.188 Z2
; TYPE:WALL-INNER
G1 F3780 X92.191 Y91.697 E274.56386
G1 X92.806 Y91.163 E274.59603
G1 X93.3 Y90.779 E274.62074
G1 X93.954 Y90.341 E274.65183
G1 X94.508 Y90.013 E274.67726
G1 X95.235 Y89.649 E274.70937
G1 X95.874 Y89.378 E274.73679
G1 X96.476 Y89.161 E274.76206
G1 X97.25 Y88.941 E274.79384
G1 X97.947 Y88.79 E274.82201
G1 X98.569 Y88.692 E274.84688
G1 X99.285 Y88.624 E274.87529
G1 X100.093 Y88.604 E274.90721
G1 X100.788 Y88.632 E274.93468
G1 X101.431 Y88.692 E274.96019
G1 X102.135 Y88.803 E274.98834
G1 X102.918 Y88.983 E275.02007
G1 X103.518 Y89.158 E275.04475
G1 X104.199 Y89.403 E275.07334
G1 X104.921 Y89.722 E275.10451
G1 X105.496 Y90.014 E275.12999
G1 X106.187 Y90.429 E275.16182
G1 X106.694 Y90.773 E275.18602
G1 X107.335 Y91.278 E275.21825
G1 X107.849 Y91.736 E275.24544
G1 X108.311 Y92.199 E275.27128
G1 X108.838 Y92.806 E275.30302
G1 X109.222 Y93.3 E275.32774
G1 X109.657 Y93.948 E275.35856
G1 X109.988 Y94.508 E275.38426
G1 X110.352 Y95.235 E275.41637
G1 X110.623 Y95.874 E275.44378
G1 X110.84 Y96.476 E275.46906
G1 X111.06 Y97.25 E275.50084
G1 X111.211 Y97.947 E275.52901
G1 X111.309 Y98.569 E275.55387
G1 X111.377 Y99.285 E275.58228
G1 X111.397 Y100.088 E275.61401
G1 X111.37 Y100.781 E275.6414
G1 X111.309 Y101.431 E275.66718
G1 X111.198 Y102.135 E275.69533
G1 X111.018 Y102.918 E275.72707
G1 X110.843 Y103.518 E275.75175
G1 X110.598 Y104.199 E275.78034
G1 X110.279 Y104.921 E275.81151
G1 X109.987 Y105.496 E275.83698
G1 X109.572 Y106.187 E275.86882
G1 X109.228 Y106.694 E275.89302
G1 X108.732 Y107.324 E275.92469
G1 X108.303 Y107.811 E275.95032
G1 X107.81 Y108.304 E275.97786
G1 X107.195 Y108.838 E276.01003
G1 X106.701 Y109.222 E276.03474
G1 X106.047 Y109.66 E276.06583
G1 X105.493 Y109.988 E276.09126
G1 X104.766 Y110.352 E276.12337
G1 X104.127 Y110.623 E276.15078
G1 X103.525 Y110.84 E276.17606
G1 X102.751 Y111.06 E276.20784
G1 X102.054 Y111.211 E276.236
G1 X101.432 Y111.309 E276.26087
G1 X100.717 Y111.377 E276.28924
G1 X99.908 Y111.397 E276.3212
G1 X99.212 Y111.369 E276.34872
G1 X98.57 Y111.309 E276.37418
G1 X97.866 Y111.198 E276.40233
G1 X97.083 Y111.018 E276.43406
G1 X96.483 Y110.843 E276.45875
G1 X95.802 Y110.598 E276.48733
G1 X95.08 Y110.279 E276.51851
G1 X94.505 Y109.987 E276.54398
G1 X93.814 Y109.572 E276.57582
G1 X93.307 Y109.228 E276.60002
G1 X92.677 Y108.732 E276.63169
G1 X92.188 Y108.301 E276.65743
G1 X91.697 Y107.81 E276.68486
G1 X91.163 Y107.195 E276.71702
G1 X90.779 Y106.701 E276.74174
G1 X90.341 Y106.047 E276.77283
G1 X90.013 Y105.493 E276.79825
G1 X89.649 Y104.766 E276.83037
G1 X89.378 Y104.127 E276.85778
G1 X89.161 Y103.525 E276.88305
G1 X88.941 Y102.751 E276.91484
G1 X88.79 Y102.054 E276.943
G1 X88.692 Y101.432 E276.96787
G1 X88.624 Y100.717 E276.99624
G1 X88.604 Y99.908 E277.0282
G1 X88.631 Y99.22 E277.0554
G1 X88.692 Y98.57 E277.08118
G1 X88.803 Y97.866 E277.10933
G1 X88.983 Y97.083 E277.14106
G1 X89.158 Y96.483 E277.16575
G1 X89.403 Y95.802 E277.19433
G1 X89.722 Y95.08 E277.22551
G1 X90.014 Y94.505 E277.25098
G1 X90.429 Y93.814 E277.28282
G1 X90.773 Y93.307 E277.30702
G1 X91.269 Y92.677 E277.33868
G1 X91.402 Y92.527 E277.3466
G0 F7200 X91.321 Y91.861
; TYPE:WALL-OUTER
G1 F2640 X91.856 Y91.326 E277.37649
G1 X92.49 Y90.775 E277.40966
G1 X92.999 Y90.379 E277.43513
G1 X93.705 Y89.906 E277.4687
G1 X94.26 Y89.578 E277.49416
G1 X95.021 Y89.197 E277.52777
G1 X95.704 Y88.907 E277.55708
G1 X96.314 Y88.687 E277.58269
G1 X97.133 Y88.455 E277.61631
G1 X97.85 Y88.299 E277.64529
G1 X98.508 Y88.195 E277.6716
G1 X99.254 Y88.125 E277.7012
G1 X100.084 Y88.104 E277.73399
G1 X100.837 Y88.134 E277.76376
G1 X101.492 Y88.195 E277.78974
G1 X102.224 Y88.311 E277.81901
G1 X103.05 Y88.501 E277.85249
G1 X103.679 Y88.684 E277.87836
G1 X104.375 Y88.934 E277.90757
G1 X105.15 Y89.277 E277.94104
G1 X105.733 Y89.574 E277.96688
G1 X106.448 Y90.002 E277.9998
G1 X106.994 Y90.373 E278.02587
G1 X107.656 Y90.894 E278.05914
G1 X108.203 Y91.383 E278.08812
G1 X108.675 Y91.856 E278.11451
G1 X109.226 Y92.49 E278.14769
G1 X109.622 Y92.999 E278.17316
G1 X110.095 Y93.705 E278.20672
G1 X110.423 Y94.26 E278.23219
G1 X110.804 Y95.021 E278.2658
G1 X111.096 Y95.709 E278.29532
G1 X111.314 Y96.314 E278.32072
G1 X111.546 Y97.133 E278.35434
G1 X111.702 Y97.85 E278.38332
G1 X111.805 Y98.502 E278.40939
G1 X111.876 Y99.254 E278.43923
G1 X111.897 Y100.078 E278.47178
G1 X111.868 Y100.828 E278.50143
G1 X111.807 Y101.484 E278.52745
G1 X111.691 Y102.22 E278.55687
G1 X111.5 Y103.049 E278.59048
G1 X111.317 Y103.679 E278.61639
G1 X111.068 Y104.372 E278.64547
G1 X110.725 Y105.148 E278.67898
G1 X110.427 Y105.733 E278.70491
G1 X110.002 Y106.443 E278.73759
G1 X109.632 Y106.988 E278.76361
G1 X109.115 Y107.646 E278.79666
G1 X108.68 Y108.14 E278.82266
G1 X108.145 Y108.675 E278.85254
G1 X107.511 Y109.226 E278.88572
G1 X107.002 Y109.622 E278.91119
G1 X106.296 Y110.095 E278.94475
G1 X105.741 Y110.423 E278.97022
G1 X104.981 Y110.804 E279.00379
G1 X104.297 Y111.094 E279.03314
G1 X103.687 Y111.314 E279.05875
G1 X102.868 Y111.546 E279.09237
G1 X102.151 Y111.702 E279.12135
G1 X101.493 Y111.806 E279.14766
G1 X100.747 Y111.876 E279.17726
G1 X99.916 Y111.897 E279.21009
G1 X99.164 Y111.867 E279.23981
G1 X98.509 Y111.806 E279.2658
G1 X97.777 Y111.69 E279.29507
G1 X96.951 Y111.5 E279.32854
G1 X96.322 Y111.317 E279.35442
G1 X95.626 Y111.067 E279.38363
G1 X94.851 Y110.724 E279.4171
G1 X94.268 Y110.427 E279.44294
G1 X93.553 Y109.999 E279.47585
G1 X93.007 Y109.628 E279.50193
G1 X92.354 Y109.114 E279.53475
G1 X91.857 Y108.676 E279.56091
G1 X91.326 Y108.145 E279.59057
G1 X90.775 Y107.511 E279.62375
G1 X90.378 Y107.001 E279.64928
G1 X89.906 Y106.296 E279.68279
G1 X89.577 Y105.74 E279.7083
G1 X89.197 Y104.98 E279.74186
G1 X88.905 Y104.292 E279.77138
G1 X88.687 Y103.685 E279.79686
G1 X88.455 Y102.868 E279.8304
G1 X88.299 Y102.15 E279.85942
G1 X88.195 Y101.493 E279.88569
G1 X88.125 Y100.747 E279.91529
G1 X88.104 Y99.922 E279.94788
G1 X88.133 Y99.173 E279.97749
G1 X88.196 Y98.502 E280.00411
G1 X88.31 Y97.781 E280.03294
G1 X88.501 Y96.951 E280.06657
G1 X88.686 Y96.316 E280.0927
G1 X88.933 Y95.629 E280.12153
G1 X89.277 Y94.851 E280.15513
G1 X89.574 Y94.268 E280.18097
G1 X89.999 Y93.558 E280.21366
G1 X90.373 Y93.007 E280.23996
G1 X90.886 Y92.355 E280.27272
G1 X91.023 Y92.199 E280.28092
G0 F7200 X92.078 Y92.078
; TYPE:FILL
G1 F3780 X96.152 Y96.152 E280.50848
G0 F7200 X95.698 Y95.698
G1 F3780 X104.301 Y104.301 E280.98902
G0 F7200 X104.56 Y103.853
G1 F3780 X95.957 Y95.25 E281.46955
G0 F7200 X96.216 Y94.801
G1 F3780 X104.819 Y103.405 E281.95011
G0 F7200 X105.078 Y102.956
G1 F3780 X96.474 Y94.353 E282.43067
G0 F7200 X96.953 Y94.125
G1 F3780 X105.336 Y102.508 E282.89891
G0 F7200 X105.595 Y102.06
G1 F3780 X97.66 Y94.125 E283.34213
G0 F7200 X98.367 Y94.125
G1 F3780 X105.854 Y101.611 E283.7603
G0 F7200 X106.113 Y101.163
G1 F3780 X99.074 Y94.125 E284.15345
G0 F7200 X98.846 Y94.744
G1 F3780 X100.437 Y88.808 E284.39617
G0 F7200 X103.493 Y89.351
G1 F3780 X110.648 Y96.505 E284.7958
G0 F7200 X109.912 Y94.782
G1 F3780 X103.974 Y96.373 E285.0386
G0 F7200 X103.709 Y95.914
G1 F3780 X105.264 Y90.109 E285.27596
G0 F7200 X106.13 Y90.619
G1 F3780 X90.005 Y94.939 E285.9353
G0 F7200 X89.372 Y96.443
G1 F3780 X95.301 Y102.372 E286.26647
G0 F7200 X94.573 Y102.351
G1 F3780 X98.096 Y105.875 E286.46328
G0 F7200 X98.184 Y105.255
G1 F3780 X103.555 Y110.626 E286.76328
G0 F7200 X105.122 Y109.959
G1 F3780 X109.417 Y93.93 E287.41871
G0 F7200 X104.46 Y95.975
G1 F3780 X102.61 Y94.125 E287.52204
G0 F7200 X101.903 Y94.125
G1 F3780 X105.426 Y97.648 E287.71882
G0 F7200 X104.699 Y97.628
G1 F3780 X110.626 Y103.555 E288.04988
G0 F7200 X109.963 Y105.121
G1 F3780 X93.926 Y109.418 E288.70563
G0 F7200 X94.781 Y109.913
G1 F3780 X96.327 Y104.146 E288.94145
G0 F7200 X96.051 Y103.672
G1 F3780 X90.11 Y105.264 E289.18437
G0 F7200 X90.621 Y106.123
G1 F3780 X94.938 Y90.009 E289.84326
G0 F7200 X96.445 Y89.374
G1 F3780 X101.815 Y94.744 E290.14321
G0 F7200 X101.196 Y94.125
G1 F3780 X106.391 Y99.32 E290.43339
G0 F7200 X106.63 Y100.267
G1 F3780 X100.489 Y94.125 E290.77643
G0 F7200 X99.781 Y94.125
G1 F3780 X106.372 Y100.715 E291.14455
G0 F7200 X105.393 Y101.169
G1 F3780 X111.194 Y99.615 E291.38175
G0 F7200 X103.847 Y103.847
G1 F3780 X107.922 Y107.922 E291.60936
G0 F7200 X103.525 Y105.646
G1 F3780 X94.922 Y97.043 E292.08989
G0 F7200 X95.18 Y96.595
G1 F3780 X103.784 Y105.198 E292.57045
G0 F7200 X104.042 Y104.75
G1 F3780 X95.439 Y96.146 E293.05101
G0 F7200 X94.663 Y97.491
G1 F3780 X103.046 Y105.875 E293.51929
G0 F7200 X102.339 Y105.875
G1 F3780 X94.404 Y97.939 E293.96253
G0 F7200 X94.145 Y98.388
G1 F3780 X101.632 Y105.875 E294.38073
G0 F7200 X100.925 Y105.875
G1 F3780 X93.886 Y98.836 E294.7739
G0 F7200 X93.628 Y99.284
G1 F3780 X100.218 Y105.875 E295.14202
G0 F7200 X99.511 Y105.875
G1 F3780 X93.369 Y99.733 E295.48509
G0 F7200 X93.608 Y100.679
G1 F3780 X98.804 Y105.875 E295.77532
G0 F7200 X97.389 Y105.875
G1 F3780 X95.539 Y104.024 E295.87869
G0 F7200 X96.505 Y105.697
G1 F3780 X96.682 Y105.875 E295.8886
G0 F7200 X101.206 Y105.255
G1 F3780 X99.615 Y111.194 E296.13144
G0 F7200 X96.506 Y110.648
G1 F3780 X89.352 Y103.494 E296.53104
G0 F7200 X88.806 Y100.437
G1 F3780 X94.569 Y98.893 E296.76668
G0 F7200 X103.317 Y94.125
G1 F3780 X103.494 Y94.302 E296.77657
; LAYER:11
G0 F7200 X106.171 Y90.46 Z2.2
; TYPE:WALL-INNER
G1 F3720 X106.684 Y90.807 E296.80103
G1 X107.311 Y91.302 E296.83258
G1 X107.853 Y91.787 E296.86131
G1 X108.28 Y92.214 E296.88516
G1 X108.809 Y92.822 E296.91699
G1 X109.201 Y93.327 E296.94224
G1 X109.645 Y93.991 E296.97379
G1 X109.957 Y94.519 E296.99801
G1 X110.322 Y95.25 E297.03028
G1 X110.599 Y95.904 E297.05833
G1 X110.807 Y96.479 E297.08249
G1 X111.031 Y97.272 E297.11503
G1 X111.178 Y97.954 E297.14259
G1 X111.276 Y98.574 E297.16738
G1 X111.343 Y99.285 E297.19558
G1 X111.364 Y100.096 E297.22763
G1 X111.336 Y100.787 E297.25494
G1 X111.276 Y101.427 E297.28033
G1 X111.165 Y102.125 E297.30824
G1 X110.982 Y102.92 E297.34047
G1 X110.813 Y103.504 E297.36448
G1 X110.569 Y104.181 E297.3929
G1 X110.242 Y104.921 E297.42485
G1 X109.961 Y105.473 E297.44932
G1 X109.541 Y106.171 E297.48149
G1 X109.194 Y106.684 E297.50595
G1 X108.702 Y107.308 E297.53734
G1 X108.277 Y107.79 E297.56272
G1 X107.787 Y108.28 E297.59009
G1 X107.179 Y108.809 E297.62192
G1 X106.674 Y109.201 E297.64717
G1 X106.01 Y109.645 E297.67872
G1 X105.482 Y109.957 E297.70294
G1 X104.751 Y110.322 E297.73521
G1 X104.097 Y110.599 E297.76327
G1 X103.522 Y110.807 E297.78742
G1 X102.729 Y111.031 E297.81996
G1 X102.047 Y111.178 E297.84752
G1 X101.427 Y111.276 E297.87231
G1 X100.716 Y111.343 E297.90052
G1 X99.901 Y111.364 E297.93272
G1 X99.206 Y111.335 E297.96019
G1 X98.574 Y111.276 E297.98526
G1 X97.876 Y111.165 E298.01317
G1 X97.074 Y110.98 E298.04568
G1 X96.497 Y110.813 E298.06941
G1 X95.82 Y110.569 E298.09783
G1 X95.08 Y110.242 E298.12978
G1 X94.528 Y109.961 E298.15425
G1 X93.83 Y109.541 E298.18642
G1 X93.317 Y109.194 E298.21088
G1 X92.693 Y108.702 E298.24227
G1 X92.211 Y108.277 E298.26765
G1 X91.721 Y107.787 E298.29502
G1 X91.192 Y107.179 E298.32685
G1 X90.8 Y106.674 E298.3521
G1 X90.356 Y106.01 E298.38365
G1 X90.044 Y105.482 E298.40787
G1 X89.679 Y104.751 E298.44014
G1 X89.402 Y104.097 E298.46819
G1 X89.194 Y103.522 E298.49235
G1 X88.97 Y102.729 E298.52489
G1 X88.823 Y102.047 E298.55245
G1 X88.725 Y101.427 E298.57724
G1 X88.658 Y100.716 E298.60545
G1 X88.637 Y99.901 E298.63765
G1 X88.665 Y99.214 E298.6648
G1 X88.725 Y98.574 E298.69019
G1 X88.836 Y97.876 E298.71811
G1 X89.021 Y97.074 E298.75061
G1 X89.188 Y96.497 E298.77434
G1 X89.432 Y95.82 E298.80276
G1 X89.759 Y95.08 E298.83471
G1 X90.04 Y94.528 E298.85918
G1 X90.46 Y93.83 E298.89135
G1 X90.807 Y93.317 E298.91581
G1 X91.299 Y92.693 E298.9472
G1 X91.724 Y92.211 E298.97258
G1 X92.214 Y91.721 E298.99995
G1 X92.822 Y91.192 E299.03178
G1 X93.327 Y90.8 E299.05703
G1 X93.991 Y90.356 E299.08858
G1 X94.519 Y90.044 E299.1128
G1 X95.25 Y89.679 E299.14507
G1 X95.904 Y89.402 E299.17313
G1 X96.479 Y89.194 E299.19728
G1 X97.272 Y88.97 E299.22982
G1 X97.954 Y88.823 E299.25738
G1 X98.574 Y88.725 E299.28217
G1 X99.285 Y88.658 E299.31038
G1 X100.099 Y88.637 E299.34254
G1 X100.795 Y88.666 E299.37005
G1 X101.427 Y88.725 E299.39512
G1 X102.125 Y88.836 E299.42303
G1 X102.927 Y89.021 E299.45554
G1 X103.504 Y89.188 E299.47927
G1 X104.181 Y89.432 E299.50769
G1 X104.921 Y89.759 E299.53964
G1 X105.473 Y90.04 E299.56411
G1 X105.785 Y90.227 E299.57848
G0 F7200 X106.437 Y90.035
; TYPE:WALL-OUTER
G1 F2580 X106.975 Y90.4 E299.60415
G1 X107.634 Y90.92 E299.63731
G1 X108.186 Y91.414 E299.66657
G1 X108.651 Y91.879 E299.69254
G1 X109.206 Y92.517 E299.72594
G1 X109.6 Y93.026 E299.75136
G1 X110.071 Y93.73 E299.78482
G1 X110.394 Y94.276 E299.80987
G1 X110.777 Y95.043 E299.84373
G1 X111.068 Y95.729 E299.87316
G1 X111.283 Y96.325 E299.89819
G1 X111.516 Y97.149 E299.93201
G1 X111.67 Y97.865 E299.96094
G1 X111.773 Y98.513 E299.98685
G1 X111.842 Y99.255 E300.01628
G1 X111.864 Y100.086 E300.04912
G1 X111.834 Y100.834 E300.07868
G1 X111.773 Y101.488 E300.10463
G1 X111.658 Y102.214 E300.13366
G1 X111.465 Y103.049 E300.16751
G1 X111.286 Y103.668 E300.19296
G1 X111.037 Y104.36 E300.222
G1 X110.691 Y105.142 E300.25578
G1 X110.398 Y105.717 E300.28127
G1 X109.969 Y106.432 E300.3142
G1 X109.605 Y106.969 E300.33982
G1 X109.084 Y107.631 E300.3731
G1 X108.656 Y108.117 E300.39867
G1 X108.122 Y108.651 E300.4285
G1 X107.489 Y109.202 E300.46165
G1 X106.975 Y109.6 E300.48732
G1 X106.271 Y110.071 E300.52078
G1 X105.725 Y110.394 E300.54583
G1 X104.959 Y110.777 E300.57966
G1 X104.277 Y111.066 E300.60891
G1 X103.676 Y111.283 E300.63415
G1 X102.852 Y111.516 E300.66797
G1 X102.136 Y111.67 E300.6969
G1 X101.488 Y111.773 E300.72281
G1 X100.746 Y111.842 E300.75225
G1 X99.908 Y111.864 E300.78536
G1 X99.158 Y111.833 E300.815
G1 X98.513 Y111.773 E300.84059
G1 X97.783 Y111.657 E300.86978
G1 X96.951 Y111.465 E300.90351
G1 X96.333 Y111.286 E300.92892
G1 X95.638 Y111.036 E300.95809
G1 X94.857 Y110.69 E300.99183
G1 X94.284 Y110.398 E301.01723
G1 X93.564 Y109.966 E301.05039
G1 X93.026 Y109.601 E301.07607
G1 X92.369 Y109.083 E301.10912
G1 X91.88 Y108.652 E301.13486
G1 X91.35 Y108.122 E301.16446
G1 X90.795 Y107.484 E301.19786
G1 X90.401 Y106.975 E301.22329
G1 X89.93 Y106.271 E301.25674
G1 X89.607 Y105.725 E301.2818
G1 X89.224 Y104.958 E301.31566
G1 X88.933 Y104.272 E301.34509
G1 X88.718 Y103.674 E301.37019
G1 X88.485 Y102.852 E301.40393
G1 X88.331 Y102.136 E301.43286
G1 X88.228 Y101.488 E301.45877
G1 X88.159 Y100.746 E301.48821
G1 X88.137 Y99.914 E301.52108
G1 X88.167 Y99.167 E301.55061
G1 X88.228 Y98.513 E301.57655
G1 X88.343 Y97.787 E301.60558
G1 X88.536 Y96.951 E301.63947
G1 X88.717 Y96.327 E301.66513
G1 X88.964 Y95.641 E301.69393
G1 X89.311 Y94.857 E301.72779
G1 X89.603 Y94.284 E301.75319
G1 X90.032 Y93.569 E301.78612
G1 X90.4 Y93.026 E301.81203
G1 X90.917 Y92.37 E301.84502
G1 X91.345 Y91.884 E301.8706
G1 X91.879 Y91.35 E301.90043
G1 X92.512 Y90.799 E301.93357
G1 X93.026 Y90.401 E301.95925
G1 X93.73 Y89.93 E301.9927
G1 X94.276 Y89.607 E302.01776
G1 X95.043 Y89.224 E302.05162
G1 X95.724 Y88.935 E302.08084
G1 X96.325 Y88.718 E302.10608
G1 X97.149 Y88.485 E302.1399
G1 X97.865 Y88.331 E302.16882
G1 X98.513 Y88.228 E302.19474
G1 X99.255 Y88.159 E302.22417
G1 X100.092 Y88.137 E302.25724
G1 X100.843 Y88.168 E302.28693
G1 X101.488 Y88.228 E302.31251
G1 X102.218 Y88.344 E302.34171
G1 X103.05 Y88.536 E302.37543
G1 X103.668 Y88.715 E302.40084
G1 X104.363 Y88.965 E302.43002
G1 X105.144 Y89.311 E302.46375
G1 X105.717 Y89.603 E302.48915
G1 X106.05 Y89.803 E302.5045
G0 F7200 X106.085 Y90.631
; TYPE:FILL
G1 F3720 X90.048 Y94.928 E303.16024
G0 F7200 X89.398 Y96.469
G1 F3720 X95.301 Y102.372 E303.48996
G0 F7200 X94.704 Y102.578
G1 F3720 X103.157 Y94.125 E303.96212
G0 F7200 X103.564 Y94.424
G1 F3720 X94.963 Y103.026 E304.44257
G0 F7200 X95.221 Y103.475
G1 F3720 X103.824 Y94.872 E304.9231
G0 F7200 X104.083 Y95.32
G1 F3720 X95.48 Y103.923 E305.40363
G0 F7200 X95.739 Y104.371
G1 F3720 X104.342 Y95.769 E305.88413
G0 F7200 X104.6 Y96.217
G1 F3720 X95.998 Y104.82 E306.36464
G0 F7200 X96.257 Y105.268
G1 F3720 X104.859 Y96.665 E306.84514
G0 F7200 X105.118 Y97.114
G1 F3720 X96.515 Y105.716 E307.32565
G0 F7200 X97.064 Y105.875
G1 F3720 X105.377 Y97.562 E307.78998
G0 F7200 X105.636 Y98.01
G1 F3720 X97.771 Y105.875 E308.22929
