; Generated with MatterSlice 1.0
; filamentDiameter = 1.75
; extrusionWidth = 0.5
; firstLayerExtrusionWidth = 0.5
; layerThickness = 0.2
; firstLayerThickness = 0.2
; automatic settings before start_gcode
G21 ; set units to millimeters
M107 ; fan off
M190 S70 ; wait for bed temperature to be reached
M104 T0 S200 ; start heating extruder 0
T0 ; set the active extruder to 0
; settings from start_gcode
G28 ; home all axes
G1 Z5 F5000 ; lift nozzle
; automatic settings after start_gcode
M109 T0 S190 ; wait for extruder 0 to reach temperature
T0 ; set the active extruder to 0
G90 ; use absolute coordinates
G92 E0 ; reset the expected extruder position
M82 ; use absolute distance for extrusion
; Layer count: 50
; LAYER:0
M106 S178
G0 F7200 X115.25 Y115.25 Z0
; TYPE:SKIRT
G1 F1800 E0
G1 F1320 X84.751 Y115.25 E1.2046
G1 X84.751 Y84.751 E2.4092
G1 X115.25 Y84.751 E3.6138
G1 X115.25 Y115.25 E4.8184
G0 F7200 X104.75 Y104.75
; TYPE:WALL-OUTER
G1 F1320 X95.251 Y104.75 E5.19358
G1 X95.251 Y95.251 E5.56876
G1 X104.75 Y95.251 E5.94393
G1 X104.75 Y104.3 E6.30134
G0 F7200 X104.25 Y104.25
G1 F1320 X104.25 Y95.751 E6.63702
G1 X95.751 Y95.751 E6.9727
G1 X95.751 Y104.25 E7.30838
G1 X103.8 Y104.25 E7.62628
; LAYER:1
G0 F7200 X104.25 Y104.25 Z0.2
; TYPE:WALL-OUTER
G1 F540 X104.25 Y95.751 E7.96196
G1 X95.751 Y95.751 E8.29764
G1 X95.751 Y104.25 E8.63332
G1 X103.8 Y104.25 E8.95123
G0 F7200 X104.75 Y104.75
G1 F540 X95.251 Y104.75 E9.32641
G1 X95.251 Y95.251 E9.70158
G1 X104.75 Y95.251 E10.07676
G1 X104.75 Y104.3 E10.43416
; LAYER:2
G0 F7200 X104.75 Y104.75 Z0.4
; TYPE:WALL-OUTER
G1 F540 X95.251 Y104.75 E10.80934
G1 X95.251 Y95.251 E11.18451
G1 X104.75 Y95.251 E11.55969
G1 X104.75 Y104.3 E11.91709
G0 F7200 X104.25 Y104.25
G1 F540 X104.25 Y95.751 E12.25277
G1 X95.751 Y95.751 E12.58845
G1 X95.751 Y104.25 E12.92413
G1 X103.8 Y104.25 E13.24204
; LAYER:3
G0 F7200 X104.25 Y104.25 Z0.6
; TYPE:WALL-OUTER
G1 F540 X104.25 Y95.751 E13.57772
G1 X95.751 Y95.751 E13.9134
G1 X95.751 Y104.25 E14.24908
G1 X103.8 Y104.25 E14.56699
G0 F7200 X104.75 Y104.75
G1 F540 X95.251 Y104.75 E14.94216
G1 X95.251 Y95.251 E15.31734
G1 X104.75 Y95.251 E15.69252
G1 X104.75 Y104.3 E16.04992
; LAYER:4
G0 F7200 X104.75 Y104.75 Z0.8
; TYPE:WALL-OUTER
G1 F540 X95.251 Y104.75 E16.4251
G1 X95.251 Y95.251 E16.80027
G1 X104.75 Y95.251 E17.17545
G1 X104.75 Y104.3 E17.53285
G0 F7200 X104.25 Y104.25
G1 F540 X104.25 Y95.751 E17.86853
G1 X95.751 Y95.751 E18.20421
G1 X95.751 Y104.25 E18.53989
G1 X103.8 Y104.25 E18.8578
; LAYER:5
G0 F7200 X104.25 Y104.25 Z1
; TYPE:WALL-OUTER
G1 F540 X104.25 Y95.751 E19.19348
G1 X95.751 Y95.751 E19.52916
G1 X95.751 Y104.25 E19.86484
G1 X103.8 Y104.25 E20.18274
G0 F7200 X104.75 Y104.75
G1 F540 X95.251 Y104.75 E20.55792
G1 X95.251 Y95.251 E20.9331
G1 X104.75 Y95.251 E21.30827
G1 X104.75 Y104.3 E21.66568
; LAYER:6
G0 F7200 X104.75 Y104.75 Z1.2
; TYPE:WALL-OUTER
G1 F540 X95.251 Y104.75 E22.04085
G1 X95.251 Y95.251 E22.41603
G1 X104.75 Y95.251 E22.79121
G1 X104.75 Y104.3 E23.14861
G0 F7200 X104.25 Y104.25
G1 F540 X104.25 Y95.751 E23.48429
G1 X95.751 Y95.751 E23.81997
G1 X95.751 Y104.25 E24.15565
G1 X103.8 Y104.25 E24.47356
; LAYER:7
G0 F7200 X104.25 Y104.25 Z1.4
; TYPE:WALL-OUTER
G1 F540 X104.25 Y95.751 E24.80924
G1 X95.751 Y95.751 E25.14492
G1 X95.751 Y104.25 E25.4806
G1 X103.8 Y104.25 E25.7985
G0 F7200 X104.75 Y104.75
G1 F540 X95.251 Y104.75 E26.17368
G1 X95.251 Y95.251 E26.54886
G1 X104.75 Y95.251 E26.92403
G1 X104.75 Y104.3 E27.28143
; LAYER:8
G0 F7200 X104.75 Y104.75 Z1.6
; TYPE:WALL-OUTER
G1 F540 X95.251 Y104.75 E27.65661
G1 X95.251 Y95.251 E28.03179
G1 X104.75 Y95.251 E28.40696
G1 X104.75 Y104.3 E28.76437
G0 F7200 X104.25 Y104.25
G1 F540 X104.25 Y95.751 E29.10005
G1 X95.751 Y95.751 E29.43573
G1 X95.751 Y104.25 E29.77141
G1 X103.8 Y104.25 E30.08931
; LAYER:9
G0 F7200 X104.25 Y104.25 Z1.8
; TYPE:WALL-OUTER
G1 F540 X104.25 Y95.751 E30.42499
G1 X95.751 Y95.751 E30.76067
G1 X95.751 Y104.25 E31.09635
G1 X103.8 Y104.25 E31.41426
G0 F7200 X104.75 Y104.75
G1 F540 X95.251 Y104.75 E31.78944
G1 X95.251 Y95.251 E32.16461
G1 X104.75 Y95.251 E32.53979
G1 X104.75 Y104.3 E32.89719
; LAYER:10
G0 F7200 X104.75 Y104.75 Z2
; TYPE:WALL-OUTER
G1 F540 X95.251 Y104.75 E33.27237
G1 X95.251 Y95.251 E33.64754
G1 X104.75 Y95.251 E34.02272
G1 X104.75 Y104.3 E34.38012
G0 F7200 X104.25 Y104.25
G1 F540 X104.25 Y95.751 E34.7158
G1 X95.751 Y95.751 E35.05148
G1 X95.751 Y104.25 E35.38716
G1 X103.8 Y104.25 E35.70507
; LAYER:11
G0 F7200 X104.25 Y104.25 Z2.2
; TYPE:WALL-OUTER
G1 F540 X104.25 Y95.751 E36.04075
G1 X95.751 Y95.751 E36.37643
G1 X95.751 Y104.25 E36.71211
G1 X103.8 Y104.25 E37.03002
G0 F7200 X104.75 Y104.75
G1 F540 X95.251 Y104.75 E37.40519
G1 X95.251 Y95.251 E37.78037
G1 X104.75 Y95.251 E38.15555
G1 X104.75 Y104.3 E38.51295
; LAYER:12
G0 F7200 X104.75 Y104.75 Z2.4
; TYPE:WALL-OUTER
G1 F540 X95.251 Y104.75 E38.88813
G1 X95.251 Y95.251 E39.2633
G1 X104.75 Y95.251 E39.63848
G1 X104.75 Y104.3 E39.99588
G0 F7200 X104.25 Y104.25
G1 F540 X104.25 Y95.751 E40.33156
G1 X95.751 Y95.751 E40.66724
G1 X95.751 Y104.25 E41.00292
G1 X103.8 Y104.25 E41.32083
; LAYER:13
G0 F7200 X104.25 Y104.25 Z2.6
; TYPE:WALL-OUTER
G1 F540 X104.25 Y95.751 E41.65651
G1 X95.751 Y95.751 E41.99219
G1 X95.751 Y104.25 E42.32787
G1 X103.8 Y104.25 E42.64578
G0 F7200 X104.75 Y104.75
G1 F540 X95.251 Y104.75 E43.02095
G1 X95.251 Y95.251 E43.39613
G1 X104.75 Y95.251 E43.7713
G1 X104.75 Y104.3 E44.12871
; LAYER:14
G0 F7200 X104.75 Y104.75 Z2.8
; TYPE:WALL-OUTER
G1 F540 X95.251 Y104.75 E44.50388
G1 X95.251 Y95.251 E44.87906
G1 X104.75 Y95.251 E45.25424
G1 X104.75 Y104.3 E45.61164
G0 F7200 X104.25 Y104.25
G1 F540 X104.25 Y95.751 E45.94732
G1 X95.751 Y95.751 E46.283
G1 X95.751 Y104.25 E46.61868
G1 X103.8 Y104.25 E46.93659
; LAYER:15
G0 F7200 X104.25 Y104.25 Z3
; TYPE:WALL-OUTER
G1 F540 X104.25 Y95.751 E47.27227
G1 X95.751 Y95.751 E47.60795
G1 X95.751 Y104.25 E47.94363
G1 X103.8 Y104.25 E48.26153
G0 F7200 X104.75 Y104.75
G1 F540 X95.251 Y104.75 E48.63671
G1 X95.251 Y95.251 E49.01189
G1 X104.75 Y95.251 E49.38706
G1 X104.75 Y104.3 E49.74446
; LAYER:16
G0 F7200 X104.75 Y104.75 Z3.2
; TYPE:WALL-OUTER
G1 F540 X95.251 Y104.75 E50.11964
G1 X95.251 Y95.251 E50.49482
G1 X104.75 Y95.251 E50.86999
G1 X104.75 Y104.3 E51.2274
G0 F7200 X104.25 Y104.25
G1 F540 X104.25 Y95.751 E51.56308
G1 X95.751 Y95.751 E51.89876
G1 X95.751 Y104.25 E52.23444
G1 X103.8 Y104.25 E52.55234
; LAYER:17
G0 F7200 X104.25 Y104.25 Z3.4
; TYPE:WALL-OUTER
G1 F540 X104.25 Y95.751 E52.88802
G1 X95.751 Y95.751 E53.2237
G1 X95.751 Y104.25 E53.55938
G1 X103.8 Y104.25 E53.87729
G0 F7200 X104.75 Y104.75
G1 F540 X95.251 Y104.75 E54.25247
G1 X95.251 Y95.251 E54.62764
G1 X104.75 Y95.251 E55.00282
G1 X104.75 Y104.3 E55.36022
; LAYER:18
G0 F7200 X104.75 Y104.75 Z3.6
; TYPE:WALL-OUTER
G1 F540 X95.251 Y104.75 E55.7354
G1 X95.251 Y95.251 E56.11058
G1 X104.75 Y95.251 E56.48575
G1 X104.75 Y104.3 E56.84315
G0 F7200 X104.25 Y104.25
G1 F540 X104.25 Y95.751 E57.17883
G1 X95.751 Y95.751 E57.51451
G1 X95.751 Y104.25 E57.85019
G1 X103.8 Y104.25 E58.1681
; LAYER:19
G0 F7200 X104.25 Y104.25 Z3.8
; TYPE:WALL-OUTER
G1 F540 X104.25 Y95.751 E58.50378
G1 X95.751 Y95.751 E58.83946
G1 X95.751 Y104.25 E59.17514
G1 X103.8 Y104.25 E59.49305
G0 F7200 X104.75 Y104.75
G1 F540 X95.251 Y104.75 E59.86822
G1 X95.251 Y95.251 E60.2434
G1 X104.75 Y95.251 E60.61858
G1 X104.75 Y104.3 E60.97598
; LAYER:20
G0 F7200 X104.75 Y104.75 Z4
; TYPE:WALL-OUTER
G1 F540 X95.251 Y104.75 E61.35116
G1 X95.251 Y95.251 E61.72633
G1 X104.75 Y95.251 E62.10151
G1 X104.75 Y104.3 E62.45891
G0 F7200 X104.25 Y104.25
G1 F540 X104.25 Y95.751 E62.79459
G1 X95.751 Y95.751 E63.13027
G1 X95.751 Y104.25 E63.46595
G1 X103.8 Y104.25 E63.78386
; LAYER:21
G0 F7200 X104.25 Y104.25 Z4.2
; TYPE:WALL-OUTER
G1 F540 X104.25 Y95.751 E64.11954
G1 X95.751 Y95.751 E64.45522
G1 X95.751 Y104.25 E64.7909
G1 X103.8 Y104.25 E65.10881
G0 F7200 X104.75 Y104.75
G1 F540 X95.251 Y104.75 E65.48398
G1 X95.251 Y95.251 E65.85916
G1 X104.75 Y95.251 E66.23433
G1 X104.75 Y104.3 E66.59174
; LAYER:22
G0 F7200 X104.75 Y104.75 Z4.4
; TYPE:WALL-OUTER
G1 F540 X95.251 Y104.75 E66.96691
G1 X95.251 Y95.251 E67.34209
G1 X104.75 Y95.251 E67.71727
G1 X104.75 Y104.3 E68.07467
G0 F7200 X104.25 Y104.25
G1 F540 X104.25 Y95.751 E68.41035
G1 X95.751 Y95.751 E68.74603
G1 X95.751 Y104.25 E69.08171
G1 X103.8 Y104.25 E69.39962
; LAYER:23
G0 F7200 X104.25 Y104.25 Z4.6
; TYPE:WALL-OUTER
G1 F540 X104.25 Y95.751 E69.7353
G1 X95.751 Y95.751 E70.07098
G1 X95.751 Y104.25 E70.40666
G1 X103.8 Y104.25 E70.72456
G0 F7200 X104.75 Y104.75
G1 F540 X95.251 Y104.75 E71.09974
G1 X95.251 Y95.251 E71.47492
G1 X104.75 Y95.251 E71.85009
G1 X104.75 Y104.3 E72.2075
; LAYER:24
G0 F7200 X104.75 Y104.75 Z4.8
; TYPE:WALL-OUTER
G1 F540 X95.251 Y104.75 E72.58267
G1 X95.251 Y95.251 E72.95785
G1 X104.75 Y95.251 E73.33302
G1 X104.75 Y104.3 E73.69043
G0 F7200 X104.25 Y104.25
G1 F540 X104.25 Y95.751 E74.02611
G1 X95.751 Y95.751 E74.36179
G1 X95.751 Y104.25 E74.69747
G1 X103.8 Y104.25 E75.01537
; LAYER:25
G0 F7200 X104.25 Y104.25 Z5
; TYPE:WALL-OUTER
G1 F540 X104.25 Y95.751 E75.35105
G1 X95.751 Y95.751 E75.68673
G1 X95.751 Y104.25 E76.02241
G1 X103.8 Y104.25 E76.34032
G0 F7200 X104.75 Y104.75
G1 F540 X95.251 Y104.75 E76.7155
G1 X95.251 Y95.251 E77.09067
G1 X104.75 Y95.251 E77.46585
G1 X104.75 Y104.3 E77.82325
; LAYER:26
G0 F7200 X104.75 Y104.75 Z5.2
; TYPE:WALL-OUTER
G1 F540 X95.251 Y104.75 E78.19843
G1 X95.251 Y95.251 E78.57361
G1 X104.75 Y95.251 E78.94878
G1 X104.75 Y104.3 E79.30619
G0 F7200 X104.25 Y104.25
G1 F540 X104.25 Y95.751 E79.64187
G1 X95.751 Y95.751 E79.97755
G1 X95.751 Y104.25 E80.31323
G1 X103.8 Y104.25 E80.63113
; LAYER:27
G0 F7200 X104.25 Y104.25 Z5.4
; TYPE:WALL-OUTER
G1 F540 X104.25 Y95.751 E80.96681
G1 X95.751 Y95.751 E81.30249
G1 X95.751 Y104.25 E81.63817
G1 X103.8 Y104.25 E81.95608
G0 F7200 X104.75 Y104.75
G1 F540 X95.251 Y104.75 E82.33125
G1 X95.251 Y95.251 E82.70643
G1 X104.75 Y95.251 E83.08161
G1 X104.75 Y104.3 E83.43901
; LAYER:28
G0 F7200 X104.75 Y104.75 Z5.6
; TYPE:WALL-OUTER
G1 F540 X95.251 Y104.75 E83.81419
G1 X95.251 Y95.251 E84.18936
G1 X104.75 Y95.251 E84.56454
G1 X104.75 Y104.3 E84.92194
G0 F7200 X104.25 Y104.25
G1 F540 X104.25 Y95.751 E85.25762
G1 X95.751 Y95.751 E85.5933
G1 X95.751 Y104.25 E85.92898
G1 X103.8 Y104.25 E86.24689
; LAYER:29
G0 F7200 X104.25 Y104.25 Z5.8
; TYPE:WALL-OUTER
G1 F540 X104.25 Y95.751 E86.58257
G1 X95.751 Y95.751 E86.91825
G1 X95.751 Y104.25 E87.25393
G1 X103.8 Y104.25 E87.57184
G0 F7200 X104.75 Y104.75
G1 F540 X95.251 Y104.75 E87.94701
G1 X95.251 Y95.251 E88.32219
G1 X104.75 Y95.251 E88.69737
G1 X104.75 Y104.3 E89.05477
; LAYER:30
G0 F7200 X104.75 Y104.75 Z6
; TYPE:WALL-OUTER
G1 F540 X95.251 Y104.75 E89.42994
G1 X95.251 Y95.251 E89.80512
G1 X104.75 Y95.251 E90.1803
G1 X104.75 Y104.3 E90.5377
G0 F7200 X104.25 Y104.25
G1 F540 X104.25 Y95.751 E90.87338
G1 X95.751 Y95.751 E91.20906
G1 X95.751 Y104.25 E91.54474
G1 X103.8 Y104.25 E91.86265
; LAYER:31
G0 F7200 X104.25 Y104.25 Z6.2
; TYPE:WALL-OUTER
G1 F540 X104.25 Y95.751 E92.19833
G1 X95.751 Y95.751 E92.53401
G1 X95.751 Y104.25 E92.86969
G1 X103.8 Y104.25 E93.18759
G0 F7200 X104.75 Y104.75
G1 F540 X95.251 Y104.75 E93.56277
G1 X95.251 Y95.251 E93.93795
G1 X104.75 Y95.251 E94.31312
G1 X104.75 Y104.3 E94.67053
; LAYER:32
G0 F7200 X104.75 Y104.75 Z6.4
; TYPE:WALL-OUTER
G1 F540 X95.251 Y104.75 E95.0457
G1 X95.251 Y95.251 E95.42088
G1 X104.75 Y95.251 E95.79606
G1 X104.75 Y104.3 E96.15346
G0 F7200 X104.25 Y104.25
G1 F540 X104.25 Y95.751 E96.48914
G1 X95.751 Y95.751 E96.82482
G1 X95.751 Y104.25 E97.1605
G1 X103.8 Y104.25 E97.4784
; LAYER:33
G0 F7200 X104.25 Y104.25 Z6.6
; TYPE:WALL-OUTER
G1 F540 X104.25 Y95.751 E97.81408
G1 X95.751 Y95.751 E98.14976
G1 X95.751 Y104.25 E98.48544
G1 X103.8 Y104.25 E98.80335
G0 F7200 X104.75 Y104.75
G1 F540 X95.251 Y104.75 E99.17853
G1 X95.251 Y95.251 E99.5537
G1 X104.75 Y95.251 E99.92888
G1 X104.75 Y104.3 E100.28628
; LAYER:34
G0 F7200 X104.75 Y104.75 Z6.8
; TYPE:WALL-OUTER
G1 F540 X95.251 Y104.75 E100.66146
G1 X95.251 Y95.251 E101.03664
G1 X104.75 Y95.251 E101.41181
G1 X104.75 Y104.3 E101.76922
G0 F7200 X104.25 Y104.25
G1 F540 X104.25 Y95.751 E102.1049
G1 X95.751 Y95.751 E102.44058
G1 X95.751 Y104.25 E102.77626
G1 X103.8 Y104.25 E103.09416
; LAYER:35
G0 F7200 X104.25 Y104.25 Z7
; TYPE:WALL-OUTER
G1 F540 X104.25 Y95.751 E103.42984
G1 X95.751 Y95.751 E103.76552
G1 X95.751 Y104.25 E104.1012
G1 X103.8 Y104.25 E104.41911
G0 F7200 X104.75 Y104.75
G1 F540 X95.251 Y104.75 E104.79429
G1 X95.251 Y95.251 E105.16946
G1 X104.75 Y95.251 E105.54464
G1 X104.75 Y104.3 E105.90204
; LAYER:36
G0 F7200 X104.75 Y104.75 Z7.2
; TYPE:WALL-OUTER
G1 F540 X95.251 Y104.75 E106.27722
G1 X95.251 Y95.251 E106.65239
G1 X104.75 Y95.251 E107.02757
G1 X104.75 Y104.3 E107.38497
G0 F7200 X104.25 Y104.25
G1 F540 X104.25 Y95.751 E107.72065
G1 X95.751 Y95.751 E108.05633
G1 X95.751 Y104.25 E108.39201
G1 X103.8 Y104.25 E108.70992
; LAYER:37
G0 F7200 X104.25 Y104.25 Z7.4
; TYPE:WALL-OUTER
G1 F540 X104.25 Y95.751 E109.0456
G1 X95.751 Y95.751 E109.38128
G1 X95.751 Y104.25 E109.71696
G1 X103.8 Y104.25 E110.03487
G0 F7200 X104.75 Y104.75
G1 F540 X95.251 Y104.75 E110.41004
G1 X95.251 Y95.251 E110.78522
G1 X104.75 Y95.251 E111.1604
G1 X104.75 Y104.3 E111.5178
; LAYER:38
G0 F7200 X104.75 Y104.75 Z7.6
; TYPE:WALL-OUTER
G1 F540 X95.251 Y104.75 E111.89298
G1 X95.251 Y95.251 E112.26815
G1 X104.75 Y95.251 E112.64333
G1 X104.75 Y104.3 E113.00073
G0 F7200 X104.25 Y104.25
G1 F540 X104.25 Y95.751 E113.33641
G1 X95.751 Y95.751 E113.67209
G1 X95.751 Y104.25 E114.00777
G1 X103.8 Y104.25 E114.32568
; LAYER:39
G0 F7200 X104.25 Y104.25 Z7.8
; TYPE:WALL-OUTER
G1 F540 X104.25 Y95.751 E114.66136
G1 X95.751 Y95.751 E114.99704
G1 X95.751 Y104.25 E115.33272
G1 X103.8 Y104.25 E115.65062
G0 F7200 X104.75 Y104.75
G1 F540 X95.251 Y104.75 E116.0258
G1 X95.251 Y95.251 E116.40098
G1 X104.75 Y95.251 E116.77615
G1 X104.75 Y104.3 E117.13356
; LAYER:40
G0 F7200 X104.75 Y104.75 Z8
; TYPE:WALL-OUTER
G1 F540 X95.251 Y104.75 E117.50873
G1 X95.251 Y95.251 E117.88391
G1 X104.75 Y95.251 E118.25909
G1 X104.75 Y104.3 E118.61649
G0 F7200 X104.25 Y104.25
G1 F540 X104.25 Y95.751 E118.95217
G1 X95.751 Y95.751 E119.28785
G1 X95.751 Y104.25 E119.62353
G1 X103.8 Y104.25 E119.94144
; LAYER:41
G0 F7200 X104.25 Y104.25 Z8.2
; TYPE:WALL-OUTER
G1 F540 X104.25 Y95.751 E120.27712
G1 X95.751 Y95.751 E120.6128
G1 X95.751 Y104.25 E120.94848
G1 X103.8 Y104.25 E121.26638
G0 F7200 X104.75 Y104.75
G1 F540 X95.251 Y104.75 E121.64156
G1 X95.251 Y95.251 E122.01673
G1 X104.75 Y95.251 E122.39191
G1 X104.75 Y104.3 E122.74931
; LAYER:42
G0 F7200 X104.75 Y104.75 Z8.4
; TYPE:WALL-OUTER
G1 F540 X95.251 Y104.75 E123.12449
G1 X95.251 Y95.251 E123.49967
G1 X104.75 Y95.251 E123.87484
G1 X104.75 Y104.3 E124.23225
G0 F7200 X104.25 Y104.25
G1 F540 X104.25 Y95.751 E124.56793
G1 X95.751 Y95.751 E124.90361
G1 X95.751 Y104.25 E125.23929
G1 X103.8 Y104.25 E125.55719
; LAYER:43
G0 F7200 X104.25 Y104.25 Z8.6
; TYPE:WALL-OUTER
G1 F540 X104.25 Y95.751 E125.89287
G1 X95.751 Y95.751 E126.22855
G1 X95.751 Y104.25 E126.56423
G1 X103.8 Y104.25 E126.88214
G0 F7200 X104.75 Y104.75
G1 F540 X95.251 Y104.75 E127.25732
G1 X95.251 Y95.251 E127.63249
G1 X104.75 Y95.251 E128.00767
G1 X104.75 Y104.3 E128.36507
; LAYER:44
G0 F7200 X104.75 Y104.75 Z8.8
; TYPE:WALL-OUTER
G1 F540 X95.251 Y104.75 E128.74025
G1 X95.251 Y95.251 E129.11542
G1 X104.75 Y95.251 E129.4906
G1 X104.75 Y104.3 E129.848
G0 F7200 X104.25 Y104.25
G1 F540 X104.25 Y95.751 E130.18368
G1 X95.751 Y95.751 E130.51936
G1 X95.751 Y104.25 E130.85504
G1 X103.8 Y104.25 E131.17295
; LAYER:45
G0 F7200 X104.25 Y104.25 Z9
; TYPE:WALL-OUTER
G1 F540 X104.25 Y95.751 E131.50863
G1 X95.751 Y95.751 E131.84431
G1 X95.751 Y104.25 E132.17999
G1 X103.8 Y104.25 E132.4979
G0 F7200 X104.75 Y104.75
G1 F540 X95.251 Y104.75 E132.87307
G1 X95.251 Y95.251 E133.24825
G1 X104.75 Y95.251 E133.62343
G1 X104.75 Y104.3 E133.98083
; LAYER:46
G0 F7200 X104.75 Y104.75 Z9.2
; TYPE:WALL-OUTER
G1 F540 X95.251 Y104.75 E134.35601
G1 X95.251 Y95.251 E134.73118
G1 X104.75 Y95.251 E135.10636
G1 X104.75 Y104.3 E135.46376
G0 F7200 X104.25 Y104.25
G1 F540 X104.25 Y95.751 E135.79944
G1 X95.751 Y95.751 E136.13512
G1 X95.751 Y104.25 E136.4708
G1 X103.8 Y104.25 E136.78871
; LAYER:47
G0 F7200 X104.25 Y104.25 Z9.4
; TYPE:WALL-OUTER
G1 F540 X104.25 Y95.751 E137.12439
G1 X95.751 Y95.751 E137.46007
G1 X95.751 Y104.25 E137.79575
G1 X103.8 Y104.25 E138.11365
G0 F7200 X104.75 Y104.75
G1 F540 X95.251 Y104.75 E138.48883
G1 X95.251 Y95.251 E138.86401
G1 X104.75 Y95.251 E139.23918
G1 X104.75 Y104.3 E139.59659
; LAYER:48
G0 F7200 X104.75 Y104.75 Z9.6
; TYPE:WALL-OUTER
G1 F540 X95.251 Y104.75 E139.97176
G1 X95.251 Y95.251 E140.34694
G1 X104.75 Y95.251 E140.72212
G1 X104.75 Y104.3 E141.07952
G0 F7200 X104.25 Y104.25
G1 F540 X104.25 Y95.751 E141.4152
G1 X95.751 Y95.751 E141.75088
G1 X95.751 Y104.25 E142.08656
G1 X103.8 Y104.25 E142.40447
; LAYER:49
G0 F7200 X104.25 Y104.25 Z9.8
; TYPE:WALL-OUTER
G1 F540 X104.25 Y95.751 E142.74015
G1 X95.751 Y95.751 E143.07583
G1 X95.751 Y104.25 E143.41151
G1 X103.8 Y104.25 E143.72941
G0 F7200 X104.75 Y104.75
G1 F540 X95.251 Y104.75 E144.10459
G1 X95.251 Y95.251 E144.47976
G1 X104.75 Y95.251 E144.85494
G1 X104.75 Y104.3 E145.21234
M107
G1 F1800 E144.21234
G0 F7200 X104.75 Y104.3 Z14.8
M104 S0 ; turn off temperature
G28 X0  ; home X axis
M84     ; disable motors
; filament used = 145.2
; filament used extruder 1 (mm) = 145.2
; filament used extruder 2 (mm) = 0.0
; total print time (s) = 406
; MatterControl Version 1.3.0 Build 1.3.0.4717 : GCode settings used
; Date 10/29/2016 00:00:00 Time 11:10
; avoidCrossingPerimeters = False
; outsidePerimetersFirst = False
; bottomClipAmount = 0
; centerObjectInXy = True
; continuousSpiralOuterPerimeter = False
; doCoolHeadLift = False
; endCode = M104 S0 ; turn off temperature\nG28 X0  ; home X axis\nM84     ; disable motors
; zOffset = -0.2
; extruderOffsets = [[0,0],[0,0],[0,0],[0,0],[0,0],[0,0],[0,0],[0,0],[0,0],[0,0],[0,0],[0,0],[0,0],[0,0],[0,0],[0,0]]
; extrusionWidth = 0.5
; fanSpeedMaxPercent = 100
; fanSpeedMinPercent = 70
; filamentDiameter = 1.75
; extrusionMultiplier = 0.95
; firstLayerExtrusionWidth = 0.5
; firstLayerSpeed = 84
; firstLayerThickness = 0.2
; firstLayerToAllowFan = 0
; outputType = REPRAP
; generateInternalSupport = True
; infillExtendIntoPerimeter = .06
; infillPercent = 30
; infillType = TRIANGLES
; infillSpeed = 120
; bridgeSpeed = 60
; bridgeFanSpeedPercent = 100
; raftFanSpeedPercent = 100
; raftPrintSpeed = 120
; infillStartingAngle = 45
; wipeAfterRetraction = False
; supportInfillStartingAngle = 0
; insidePerimetersSpeed = 120
; layerThickness = 0.2
; minimumExtrusionBeforeRetraction = .1
; minimumPrintingSpeed = 10
; minimumLayerTimeSeconds = 10
; unretractExtraExtrusion = 0
; minimumTravelToCauseRetraction = 20
; numberOfBottomLayers = 5
; numberOfSkirtLoops = 1
; numberOfTopLayers = 5
; outsidePerimeterSpeed = 84
; numberOfPerimeters = 2
; positionToPlaceObjectCenter = [100,100]
; enableRaft = False
; raftExtraDistanceAroundPart = 5
; raftAirGap = 0
; repairOutlines = EXTENSIVE_STITCHING|KEEP_OPEN
; retractionOnExtruderSwitch = 10
; retractionOnTravel = 1
; retractionSpeed = 30
; retractionZHop = 0
; skirtDistanceFromObject = 10
; skirtMinLength = 0
; startCode = ; automatic settings before start_gcode\nG21 ; set units to millimeters\nM107 ; fan off\nM190 S70 ; wait for bed temperature to be reached\nM104 T0 S200 ; start heating extruder 0\nT0 ; set the active extruder to 0\n; settings from start_gcode\nG28 ; home all axes\nG1 Z5 F5000 ; lift nozzle\n; automatic settings after start_gcode\nM109 T0 S190 ; wait for extruder 0 to reach temperature\nT0 ; set the active extruder to 0\nG90 ; use absolute coordinates\nG92 E0 ; reset the expected extruder position\nM82 ; use absolute distance for extrusion
; supportExtruder = 0
; supportInterfaceExtruder = 0
; raftExtruder = -1
; supportLineSpacing = 2
; supportExtrusionPercent = 100
; supportMaterialSpeed = 60
; supportEndAngle = 20
; supportType = LINES
; supportXYDistanceFromObject = 0.5
; supportNumberOfLayersToSkipInZ = 1
; supportInterfaceLayers = 0
; travelSpeed = 120
; wipeShieldDistanceFromObject = 0
; wipeTowerSize = 0

